;FLAVOR:Marlin
M117 Time Left 3h13m04s
;Filament used: 4.93895m
;Layer height: 0.2
;MINX:60.618
;MINY:60.649
;MINZ:0.28
;MAXX:174.651
;MAXY:174.365
;MAXZ:7.68
;POSTPROCESSED
;ChangeAtZ instances: 1
;Generated with Cura_SteamEngine 4.6.1
M140 S80
M105
M190 S80
M104 S240
M105
M109 S240
M82 ;absolute extrusion mode
; Ender 3 Custom Start G-code
G92 E0 ; Reset Extruder
G28 ; Home all axes
G1 Z2.0 F3000 ; Move Z Axis up little to prevent scratching of Heat Bed
G1 X0.1 Y20 Z0.3 F5000.0 ; Move to start position
G1 X0.1 Y200.0 Z0.3 F1500.0 E15 ; Draw the first line
G1 X0.4 Y200.0 Z0.3 F5000.0 ; Move to side a little
G1 X0.4 Y20 Z0.3 F1500.0 E30 ; Draw the second line
G92 E0 ; Reset Extruder
G1 Z2.0 F3000 ; Move Z Axis up little to prevent scratching of Heat Bed
G1 X5 Y20 Z0.3 F5000.0 ; Move over to prevent blob squish
G92 E0
G92 E0
G1 F2700 E-5
;LAYER_COUNT:38
;LAYER:0
M107
M204 S300
M205 X8 Y8
G0 F7500 X123.487 Y61.508 Z0.28
;TYPE:SKIRT
G1 F2700 E0
G1 F1500 X124.38 Y61.642 E0.03994
G1 X125.258 Y61.854 E0.0799
G1 X126.114 Y62.143 E0.11987
G1 X126.94 Y62.506 E0.15978
G1 X127.732 Y62.941 E0.19975
G1 X128.289 Y63.306 E0.22921
G1 X129.264 Y63.991 E0.28192
G1 X131.417 Y65.457 E0.39714
G1 X133.538 Y66.815 E0.50855
G1 X135.702 Y68.115 E0.62022
G1 X137.914 Y69.361 E0.73253
G1 X141.153 Y71.043 E0.89397
G1 X141.627 Y71.28 E0.91742
G1 X142.754 Y71.867 E0.97363
G1 X143.299 Y72.172 E1.00126
G1 X143.964 Y72.573 E1.03561
G1 X146.152 Y73.934 E1.14959
G1 X146.793 Y74.345 E1.18328
G1 X147.174 Y74.603 E1.20363
G1 X147.643 Y74.938 E1.22913
G1 X148.028 Y75.227 E1.25042
G1 X150.232 Y76.913 E1.37317
G1 X150.841 Y77.393 E1.40747
G1 X151.222 Y77.709 E1.42937
G1 X151.655 Y78.09 E1.45488
G1 X151.959 Y78.368 E1.47311
G1 X154.013 Y80.282 E1.5973
G1 X154.558 Y80.805 E1.63071
G1 X154.895 Y81.143 E1.65183
G1 X155.192 Y81.456 E1.67092
G1 X155.428 Y81.713 E1.68635
G1 X157.443 Y83.989 E1.82082
G1 X157.843 Y84.455 E1.84799
G1 X158.236 Y84.943 E1.8757
G1 X159.126 Y86.123 E1.94108
G1 X160.463 Y87.966 E2.0418
G1 X160.986 Y88.715 E2.08221
G1 X161.111 Y88.904 E2.09224
G1 X161.304 Y89.209 E2.1082
G1 X161.904 Y90.192 E2.15915
G1 X163.139 Y92.299 E2.26718
G1 X163.458 Y92.865 E2.29593
G1 X164.826 Y95.39 E2.42296
G1 X166.091 Y97.568 E2.53438
G1 X167.438 Y99.745 E2.64762
G1 X168.83 Y101.859 E2.75959
G1 X170.291 Y103.944 E2.87221
G1 X171.177 Y105.15 E2.93841
G1 X171.679 Y105.901 E2.97837
G1 X172.112 Y106.693 E3.0183
G1 X172.464 Y107.495 E3.05704
G1 X172.684 Y108.061 E3.08391
G1 X172.917 Y108.726 E3.11508
G1 X173.038 Y109.115 E3.1331
G1 X173.267 Y109.989 E3.17306
G1 X173.419 Y110.879 E3.213
G1 X173.487 Y111.678 E3.24848
G1 X173.52 Y112.39 E3.28001
G1 X173.676 Y114.977 E3.39465
G1 X173.746 Y115.775 E3.43009
G1 X173.823 Y116.798 E3.47547
G1 X173.851 Y117.701 E3.51543
G1 X173.819 Y118.385 E3.54573
G1 X173.594 Y121.168 E3.66924
G1 X173.482 Y123.288 E3.76315
G1 X173.458 Y123.646 E3.77902
G1 X173.358 Y124.544 E3.81899
G1 X173.179 Y125.429 E3.85893
G1 X173.034 Y125.951 E3.8829
G1 X172.842 Y126.578 E3.9119
G1 X172.65 Y127.155 E3.9388
G1 X172.322 Y127.997 E3.97878
G1 X171.92 Y128.805 E4.0187
G1 X171.192 Y129.938 E4.07827
G1 X171.015 Y130.177 E4.09143
G1 X169.507 Y132.258 E4.20511
G1 X168.089 Y134.34 E4.31654
G1 X166.696 Y136.511 E4.43065
G1 X165.393 Y138.675 E4.54239
G1 X164.133 Y140.908 E4.65581
G1 X163.914 Y141.313 E4.67617
G1 X162.905 Y143.102 E4.76703
G1 X161.652 Y145.226 E4.87612
G1 X161.376 Y145.682 E4.8997
G1 X161.007 Y146.248 E4.92959
G1 X160.208 Y147.387 E4.99113
G1 X158.774 Y149.353 E5.09878
G1 X158.404 Y149.846 E5.12604
G1 X158.007 Y150.341 E5.15411
G1 X157.162 Y151.33 E5.21166
G1 X155.625 Y153.063 E5.31412
G1 X155.118 Y153.619 E5.34741
G1 X154.665 Y154.085 E5.37616
G1 X153.719 Y154.996 E5.43426
G1 X152.034 Y156.56 E5.53595
G1 X151.395 Y157.135 E5.57398
G1 X150.91 Y157.545 E5.60207
G1 X149.928 Y158.321 E5.65744
G1 X148.197 Y159.641 E5.75373
G1 X147.286 Y160.31 E5.80373
G1 X146.778 Y160.66 E5.83102
G1 X145.949 Y161.193 E5.87462
G1 X144.035 Y162.379 E5.97422
G1 X142.873 Y163.067 E6.03396
G1 X142.33 Y163.367 E6.0614
G1 X141.716 Y163.68 E6.09189
G1 X140.804 Y164.13 E6.13688
G1 X138.472 Y165.323 E6.25275
G1 X136.266 Y166.53 E6.36399
G1 X134.066 Y167.817 E6.47673
G1 X131.926 Y169.152 E6.58831
G1 X129.779 Y170.577 E6.7023
G1 X128.155 Y171.712 E6.78994
G1 X127.393 Y172.196 E6.82988
G1 X126.59 Y172.611 E6.86986
G1 X125.755 Y172.953 E6.90978
G1 X124.892 Y173.22 E6.94974
G1 X124.009 Y173.409 E6.98968
G1 X123.112 Y173.52 E7.02967
G1 X122.564 Y173.548 E7.05394
G1 X121.955 Y173.563 E7.08089
G1 X121.547 Y173.565 E7.09894
G1 X120.95 Y173.552 E7.12535
G1 X119.69 Y173.499 E7.18114
G1 X117.094 Y173.426 E7.29602
G1 X114.127 Y173.432 E7.42727
G1 X112.381 Y173.463 E7.50452
G1 X112.038 Y173.464 E7.51969
G1 X111.722 Y173.459 E7.53367
G1 X110.82 Y173.404 E7.57364
G1 X109.927 Y173.271 E7.61358
G1 X109.049 Y173.058 E7.65355
G1 X108.194 Y172.769 E7.69347
G1 X107.367 Y172.406 E7.73342
G1 X106.576 Y171.97 E7.77338
G1 X106.076 Y171.646 E7.79973
G1 X104.774 Y170.743 E7.86983
G1 X103.214 Y169.638 E7.95439
G1 X101.096 Y168.226 E8.067
G1 X98.949 Y166.882 E8.17904
G1 X96.769 Y165.602 E8.29087
G1 X93.457 Y163.8 E8.45766
G1 X90.817 Y162.329 E8.59135
G1 X90.378 Y162.076 E8.61377
G1 X89.847 Y161.748 E8.64137
G1 X88.692 Y160.983 E8.70266
G1 X86.648 Y159.57 E8.81258
G1 X86.204 Y159.254 E8.83668
G1 X85.706 Y158.877 E8.86432
G1 X84.616 Y157.993 E8.9264
G1 X82.703 Y156.375 E9.03723
G1 X82.314 Y156.037 E9.06003
G1 X81.843 Y155.601 E9.08842
G1 X80.853 Y154.622 E9.15001
G1 X79.14 Y152.865 E9.25856
G1 X78.749 Y152.453 E9.28368
G1 X78.317 Y151.968 E9.31241
G1 X77.428 Y150.899 E9.37392
G1 X75.872 Y148.956 E9.48403
G1 X75.54 Y148.528 E9.50799
G1 X75.18 Y148.035 E9.535
G1 X74.377 Y146.856 E9.5981
G1 X73.029 Y144.792 E9.70715
G1 X72.738 Y144.332 E9.73123
G1 X72.419 Y143.792 E9.75897
G1 X71.766 Y142.599 E9.81913
G1 X70.799 Y140.751 E9.9114
G1 X69.587 Y138.511 E10.02406
G1 X68.298 Y136.281 E10.138
G1 X66.965 Y134.119 E10.25036
G1 X65.562 Y131.982 E10.36344
G1 X63.576 Y129.153 E10.51634
G1 X63.087 Y128.394 E10.55628
G1 X62.667 Y127.594 E10.59625
G1 X62.255 Y126.58 E10.64467
G1 X61.982 Y125.773 E10.68235
G1 X61.865 Y125.395 E10.69986
G1 X61.637 Y124.521 E10.73981
G1 X61.486 Y123.631 E10.77975
G1 X61.415 Y122.73 E10.81973
G1 X61.424 Y121.827 E10.85967
G1 X61.513 Y120.929 E10.89959
G1 X61.68 Y120.041 E10.93956
G1 X61.858 Y119.386 E10.96959
G1 X62.136 Y118.496 E11.01083
G1 X62.231 Y118.216 E11.02391
G1 X62.444 Y117.645 E11.05087
G1 X62.816 Y116.734 E11.0944
G1 X63.193 Y115.844 E11.13716
G1 X64.107 Y113.502 E11.24837
G1 X64.97 Y111.092 E11.36161
G1 X65.758 Y108.68 E11.47385
G1 X66.482 Y106.231 E11.58682
G1 X67.035 Y104.196 E11.68011
G1 X67.913 Y101.256 E11.81584
G1 X68.11 Y100.63 E11.84487
G1 X68.316 Y100.041 E11.87247
G1 X68.795 Y98.798 E11.9314
G1 X69.724 Y96.523 E12.0401
G1 X69.917 Y96.068 E12.06196
G1 X70.052 Y95.763 E12.07672
G1 X70.229 Y95.381 E12.09534
G1 X70.375 Y95.08 E12.11014
G1 X70.786 Y94.267 E12.15044
G1 X71.968 Y92.016 E12.26291
G1 X72.178 Y91.629 E12.28239
G1 X72.35 Y91.325 E12.29784
G1 X72.641 Y90.83 E12.32324
G1 X72.823 Y90.531 E12.33872
G1 X73.239 Y89.879 E12.37293
G1 X74.671 Y87.698 E12.48835
G1 X74.888 Y87.377 E12.50549
G1 X75.09 Y87.089 E12.52105
G1 X75.644 Y86.335 E12.56244
G1 X76.098 Y85.755 E12.59502
G1 X77.73 Y83.726 E12.71021
G1 X78.189 Y83.172 E12.74203
G1 X78.614 Y82.691 E12.77043
G1 X79.275 Y81.991 E12.81302
G1 X81.186 Y80.039 E12.93386
G1 X81.68 Y79.548 E12.96467
G1 X82.135 Y79.122 E12.99224
G1 X82.827 Y78.516 E13.03293
G1 X84.995 Y76.691 E13.15829
G1 X85.503 Y76.276 E13.1873
G1 X85.902 Y75.966 E13.20966
G1 X86.279 Y75.688 E13.23038
G1 X86.54 Y75.502 E13.24455
G1 X89.089 Y73.743 E13.38155
G1 X89.51 Y73.461 E13.40397
G1 X90.057 Y73.12 E13.43248
G1 X91.23 Y72.44 E13.49246
G1 X93.428 Y71.218 E13.60371
G1 X93.894 Y70.967 E13.62712
G1 X94.472 Y70.679 E13.65569
G1 X95.722 Y70.106 E13.71651
G1 X97.988 Y69.121 E13.82581
G1 X98.514 Y68.9 E13.85105
G1 X99.124 Y68.667 E13.87994
G1 X100.392 Y68.229 E13.93928
G1 X102.776 Y67.457 E14.05013
G1 X103.741 Y67.164 E14.09474
G1 X104.64 Y66.913 E14.13603
G1 X107.198 Y66.163 E14.25395
G1 X109.609 Y65.382 E14.36606
G1 X111.99 Y64.532 E14.4779
G1 X114.338 Y63.621 E14.58931
G1 X117.503 Y62.274 E14.74147
G1 X118.349 Y61.957 E14.78143
G1 X119.22 Y61.717 E14.8214
G1 X120.108 Y61.554 E14.86133
G1 X121.313 Y61.461 E14.9148
G1 X121.921 Y61.45 E14.9417
G1 X122.265 Y61.449 E14.95691
G1 X122.585 Y61.454 E14.97107
G1 X122.918 Y61.474 E14.98583
G0 F1350 X123.487 Y61.508
G0 F7500 X123.511 Y61.109
G1 F1500 X124.422 Y61.243 E15.02656
G1 X125.317 Y61.455 E15.06725
G1 X126.191 Y61.744 E15.10797
G1 X127.037 Y62.108 E15.14871
G1 X127.848 Y62.544 E15.18944
G1 X128.518 Y62.979 E15.22478
G1 X129.433 Y63.622 E15.27425
G1 X131.636 Y65.122 E15.39215
G1 X133.754 Y66.478 E15.50339
G1 X135.91 Y67.773 E15.61465
G1 X138.093 Y69.003 E15.72549
G1 X141.336 Y70.687 E15.88713
G1 X141.812 Y70.925 E15.91068
G1 X142.939 Y71.512 E15.96689
G1 X143.506 Y71.83 E15.99564
G1 X144.175 Y72.234 E16.03022
G1 X146.367 Y73.598 E16.14442
G1 X147.008 Y74.009 E16.1781
G1 X147.405 Y74.276 E16.19927
G1 X147.882 Y74.618 E16.22523
G1 X148.271 Y74.909 E16.24672
G1 X150.48 Y76.599 E16.36976
G1 X151.089 Y77.079 E16.40406
G1 X151.485 Y77.407 E16.4268
G1 X151.925 Y77.794 E16.45273
G1 X152.232 Y78.075 E16.47114
G1 X154.29 Y79.993 E16.59558
G1 X154.835 Y80.516 E16.62899
G1 X155.185 Y80.868 E16.65095
G1 X155.482 Y81.181 E16.67004
G1 X155.727 Y81.448 E16.68607
G1 X157.746 Y83.729 E16.82082
G1 X158.146 Y84.195 E16.84799
G1 X158.555 Y84.702 E16.8768
G1 X159.45 Y85.888 E16.94253
G1 X160.79 Y87.736 E17.04351
G1 X161.319 Y88.495 E17.08443
G1 X161.444 Y88.684 E17.09446
G1 X161.646 Y89 E17.11105
G1 X162.249 Y89.989 E17.16229
G1 X163.487 Y92.102 E17.27062
G1 X163.81 Y92.675 E17.29972
G1 X165.173 Y95.19 E17.42626
G1 X166.443 Y97.378 E17.53817
G1 X167.769 Y99.52 E17.64961
G1 X169.164 Y101.639 E17.76183
G1 X170.615 Y103.71 E17.87369
G1 X171.499 Y104.913 E17.93973
G1 X172.011 Y105.678 E17.98045
G1 X172.455 Y106.485 E18.0212
G1 X172.837 Y107.35 E18.06303
G1 X173.057 Y107.916 E18.08989
G1 X173.299 Y108.608 E18.12232
G1 X173.42 Y108.997 E18.14034
G1 X173.655 Y109.887 E18.18106
G1 X173.812 Y110.794 E18.22178
G1 X173.887 Y111.66 E18.26023
G1 X173.919 Y112.348 E18.2907
G1 X174.079 Y114.989 E18.40774
G1 X174.145 Y115.745 E18.44131
G1 X174.222 Y116.768 E18.48669
G1 X174.251 Y117.689 E18.52745
G1 X174.218 Y118.418 E18.55973
G1 X173.994 Y121.188 E18.68267
G1 X173.857 Y123.673 E18.79276
G1 X173.756 Y124.588 E18.83348
G1 X173.575 Y125.491 E18.87422
G1 X173.416 Y126.068 E18.9007
G1 X173.123 Y127.008 E18.94425
G1 X173.029 Y127.284 E18.95715
G1 X172.695 Y128.142 E18.99788
G1 X172.287 Y128.968 E19.03863
G1 X171.809 Y129.755 E19.07936
G1 X171.513 Y130.176 E19.10213
G1 X171.336 Y130.415 E19.11528
G1 X169.846 Y132.473 E19.22768
G1 X168.413 Y134.577 E19.34029
G1 X167.032 Y136.727 E19.45332
G1 X165.735 Y138.883 E19.56462
G1 X164.485 Y141.098 E19.67713
G1 X164.263 Y141.509 E19.6978
G1 X163.249 Y143.305 E19.78903
G1 X161.994 Y145.433 E19.89832
G1 X161.718 Y145.889 E19.9219
G1 X161.335 Y146.477 E19.95294
G1 X160.531 Y147.622 E20.01483
G1 X159.094 Y149.593 E20.12273
G1 X158.724 Y150.086 E20.15
G1 X158.312 Y150.601 E20.17917
G1 X157.461 Y151.595 E20.23705
G1 X155.921 Y153.332 E20.33974
G1 X155.414 Y153.888 E20.37303
G1 X154.943 Y154.372 E20.4029
G1 X153.991 Y155.289 E20.46137
G1 X152.301 Y156.858 E20.56339
G1 X151.662 Y157.433 E20.60141
G1 X151.159 Y157.858 E20.63054
G1 X150.171 Y158.639 E20.68625
G1 X148.434 Y159.964 E20.78289
G1 X147.523 Y160.633 E20.83289
G1 X146.995 Y160.997 E20.86126
G1 X146.16 Y161.533 E20.90515
G1 X144.238 Y162.723 E21.00515
G1 X143.076 Y163.411 E21.06489
G1 X142.512 Y163.722 E21.09338
G1 X141.893 Y164.038 E21.12412
G1 X141.011 Y164.473 E21.16763
G1 X138.667 Y165.672 E21.28409
G1 X136.454 Y166.883 E21.39569
G1 X134.3 Y168.143 E21.50607
G1 X132.129 Y169.498 E21.61928
G1 X129.998 Y170.913 E21.73244
G1 X128.384 Y172.04 E21.81952
G1 X127.607 Y172.534 E21.86025
G1 X126.791 Y172.959 E21.90095
G1 X125.94 Y173.311 E21.94168
G1 X125.062 Y173.588 E21.98241
G1 X124.163 Y173.788 E22.02315
G1 X123.251 Y173.909 E22.06385
G1 X122.574 Y173.948 E22.09384
G1 X121.965 Y173.963 E22.12079
G1 X121.54 Y173.965 E22.13959
G1 X120.933 Y173.952 E22.16645
G1 X119.661 Y173.898 E22.22277
G1 X117.084 Y173.826 E22.33681
G1 X114.134 Y173.832 E22.46731
G1 X112.388 Y173.863 E22.54455
G1 X112.031 Y173.864 E22.56035
G1 X111.715 Y173.859 E22.57433
G1 X110.796 Y173.804 E22.61505
G1 X109.885 Y173.67 E22.65579
G1 X108.99 Y173.457 E22.69648
G1 X108.116 Y173.168 E22.7372
G1 X107.27 Y172.804 E22.77794
G1 X106.459 Y172.367 E22.8187
G1 X105.848 Y171.974 E22.85083
G1 X104.543 Y171.07 E22.92106
G1 X102.983 Y169.965 E23.00562
G1 X100.868 Y168.554 E23.11809
G1 X98.755 Y167.233 E23.22833
G1 X96.565 Y165.947 E23.34067
G1 X93.759 Y164.413 E23.48214
G1 X93.263 Y164.15 E23.50697
G1 X90.617 Y162.676 E23.64095
G1 X90.178 Y162.423 E23.66337
G1 X89.626 Y162.082 E23.69207
G1 X88.465 Y161.312 E23.7537
G1 X86.416 Y159.896 E23.86387
G1 X85.972 Y159.58 E23.88798
G1 X85.455 Y159.188 E23.91668
G1 X84.358 Y158.298 E23.97917
G1 X82.441 Y156.676 E24.09025
G1 X82.052 Y156.338 E24.11305
G1 X81.562 Y155.885 E24.14257
G1 X80.566 Y154.901 E24.2045
G1 X78.85 Y153.141 E24.31324
G1 X78.459 Y152.729 E24.33837
G1 X78.01 Y152.224 E24.36826
G1 X77.115 Y151.149 E24.43014
G1 X75.555 Y149.201 E24.54053
G1 X75.223 Y148.773 E24.56449
G1 X74.85 Y148.26 E24.59255
G1 X74.042 Y147.075 E24.656
G1 X72.691 Y145.006 E24.76531
G1 X72.4 Y144.546 E24.78938
G1 X72.069 Y143.985 E24.8182
G1 X71.411 Y142.784 E24.87878
G1 X70.451 Y140.95 E24.97035
G1 X69.224 Y138.681 E25.08446
G1 X67.97 Y136.512 E25.19528
G1 X66.617 Y134.318 E25.30931
G1 X65.233 Y132.209 E25.4209
G1 X63.249 Y129.384 E25.5736
G1 X62.75 Y128.611 E25.6143
G1 X62.32 Y127.797 E25.65503
G1 X61.877 Y126.71 E25.70695
G1 X61.705 Y126.211 E25.7303
G1 X61.6 Y125.891 E25.7452
G1 X61.483 Y125.513 E25.7627
G1 X61.249 Y124.623 E25.80341
G1 X61.094 Y123.715 E25.84416
G1 X61.017 Y122.798 E25.88486
G1 X61.021 Y121.877 E25.92561
G1 X61.104 Y120.96 E25.96634
G1 X61.267 Y120.054 E26.00706
G1 X61.476 Y119.269 E26.04299
G1 X61.757 Y118.367 E26.08478
G1 X61.852 Y118.087 E26.09786
G1 X62.073 Y117.494 E26.12586
G1 X62.447 Y116.579 E26.16959
G1 X62.817 Y115.704 E26.21161
G1 X63.746 Y113.327 E26.3245
G1 X64.59 Y110.97 E26.43525
G1 X65.37 Y108.581 E26.54642
G1 X66.103 Y106.102 E26.66078
G1 X66.652 Y104.082 E26.75337
G1 X67.532 Y101.136 E26.88938
G1 X67.729 Y100.51 E26.91841
G1 X67.942 Y99.898 E26.94708
G1 X68.424 Y98.647 E27.00638
G1 X69.356 Y96.367 E27.11534
G1 X69.549 Y95.912 E27.13721
G1 X69.689 Y95.595 E27.15254
G1 X69.866 Y95.213 E27.17116
G1 X70.017 Y94.9 E27.18653
G1 X70.432 Y94.081 E27.22715
G1 X71.616 Y91.825 E27.33985
G1 X71.826 Y91.438 E27.35933
G1 X72.005 Y91.122 E27.3754
G1 X72.296 Y90.627 E27.4008
G1 X72.486 Y90.317 E27.41688
G1 X72.904 Y89.66 E27.45133
G1 X74.339 Y87.473 E27.56704
G1 X74.556 Y87.152 E27.58418
G1 X74.766 Y86.853 E27.60034
G1 X75.121 Y86.365 E27.62703
G1 X75.329 Y86.089 E27.64232
G1 X75.786 Y85.504 E27.67516
G1 X77.422 Y83.471 E27.7906
G1 X77.881 Y82.917 E27.82242
G1 X78.323 Y82.416 E27.85197
G1 X78.989 Y81.711 E27.89488
G1 X80.904 Y79.755 E28.01597
G1 X81.398 Y79.264 E28.04678
G1 X81.871 Y78.821 E28.07544
G1 X82.569 Y78.211 E28.11645
G1 X84.742 Y76.381 E28.24212
G1 X85.25 Y75.966 E28.27114
G1 X85.665 Y75.644 E28.29437
G1 X86.312 Y75.173 E28.32978
G1 X88.867 Y73.411 E28.46707
G1 X89.288 Y73.129 E28.48948
G1 X89.856 Y72.774 E28.51911
G1 X91.036 Y72.09 E28.57945
G1 X93.238 Y70.866 E28.69089
G1 X93.704 Y70.615 E28.71431
G1 X94.305 Y70.315 E28.74402
G1 X95.563 Y69.74 E28.80521
G1 X97.833 Y68.753 E28.9147
G1 X98.359 Y68.532 E28.93994
G1 X98.993 Y68.289 E28.96998
G1 X100.268 Y67.849 E29.02964
G1 X102.659 Y67.075 E29.14081
G1 X103.634 Y66.779 E29.18589
G1 X104.5 Y66.537 E29.22566
G1 X107.067 Y65.785 E29.34399
G1 X109.489 Y65 E29.45662
G1 X111.848 Y64.158 E29.56742
G1 X114.201 Y63.245 E29.67907
G1 X117.347 Y61.906 E29.83031
G1 X118.209 Y61.582 E29.87105
