;FLAVOR:Marlin
;TIME:10645
;Filament used: 12.3445m
;Layer height: 0.28
;MINX:41.5
;MINY:41.5
;MINZ:0.285
;MAXX:193.5
;MAXY:193.5
;MAXZ:24.925
;Generated with Cura_SteamEngine 4.6.1
M140 S60
M105
M190 S60
M104 S200
M105
M109 S200
M82 ;absolute extrusion mode
; Ender 3 Custom Start G-code
G92 E0 ; Reset Extruder
G28 ; Home all axes
G1 Z2.0 F3000 ; Move Z Axis up little to prevent scratching of Heat Bed
G1 X0.1 Y20 Z0.3 F5000.0 ; Move to start position
G1 X0.1 Y200.0 Z0.3 F1500.0 E15 ; Draw the first line
G1 X0.4 Y200.0 Z0.3 F5000.0 ; Move to side a little
G1 X0.4 Y20 Z0.3 F1500.0 E30 ; Draw the second line
G92 E0 ; Reset Extruder
G1 Z2.0 F3000 ; Move Z Axis up little to prevent scratching of Heat Bed
G1 X5 Y20 Z0.3 F5000.0 ; Move over to prevent blob squish
G92 E0
G92 E0
G1 F2700 E-6
;LAYER_COUNT:89
;LAYER:0
M107
M204 S500
M205 X8 Y8
G0 F7500 X127.637 Y42.311 Z0.285
;TYPE:SKIRT
G1 F2700 E0
G1 F1500 X128.539 Y42.364 E0.04068
G1 X129.432 Y42.496 E0.08133
G1 X130.31 Y42.707 E0.12199
G1 X131.166 Y42.995 E0.16265
G1 X131.993 Y43.357 E0.2033
G1 X132.466 Y43.605 E0.22735
G1 X132.892 Y43.848 E0.24943
G1 X134.842 Y45.01 E0.35164
G1 X137.074 Y46.255 E0.46671
G1 X139.318 Y47.427 E0.5807
G1 X141.589 Y48.531 E0.6944
G1 X143.915 Y49.581 E0.8093
G1 X146.252 Y50.559 E0.92337
G1 X148.647 Y51.483 E1.03895
G1 X151.015 Y52.317 E1.152
G1 X153.454 Y53.101 E1.26735
G1 X155.909 Y53.815 E1.38247
G1 X157.825 Y54.32 E1.47168
G1 X158.874 Y54.584 E1.52039
G1 X159.739 Y54.843 E1.56104
G1 X160.578 Y55.178 E1.60172
G1 X161.384 Y55.585 E1.64238
G1 X162.151 Y56.062 E1.68304
G1 X162.872 Y56.605 E1.72368
G1 X163.315 Y56.992 E1.75017
G1 X163.546 Y57.206 E1.76435
G1 X163.827 Y57.477 E1.78193
G1 X177.362 Y71.014 E2.64385
G1 X177.834 Y71.499 E2.67432
G1 X178.434 Y72.174 E2.71498
G1 X178.973 Y72.899 E2.75566
G1 X179.445 Y73.668 E2.79629
G1 X179.848 Y74.477 E2.83698
G1 X180.177 Y75.318 E2.87764
G1 X180.38 Y75.988 E2.90916
G1 X180.466 Y76.311 E2.92422
G1 X181.017 Y78.491 E3.02546
G1 X181.707 Y80.926 E3.13941
G1 X182.475 Y83.374 E3.25493
G1 X183.299 Y85.755 E3.36838
G1 X184.194 Y88.127 E3.48253
G1 X185.156 Y90.474 E3.59674
G1 X186.195 Y92.814 E3.71202
G1 X187.273 Y95.074 E3.82476
G1 X188.451 Y97.369 E3.94091
G1 X189.657 Y99.564 E4.05368
G1 X190.714 Y101.381 E4.14833
G1 X191.251 Y102.282 E4.19555
G1 X191.679 Y103.077 E4.23621
G1 X192.034 Y103.907 E4.27685
G1 X192.315 Y104.766 E4.31755
G1 X192.519 Y105.646 E4.35822
G1 X192.644 Y106.54 E4.39887
G1 X192.685 Y107.191 E4.42824
G1 X192.7 Y107.83 E4.45702
G1 X192.699 Y126.916 E5.31638
G1 X192.689 Y127.633 E5.34867
G1 X192.636 Y128.535 E5.38935
G1 X192.504 Y129.428 E5.43
G1 X192.294 Y130.306 E5.47064
G1 X192.006 Y131.163 E5.51135
G1 X191.644 Y131.99 E5.552
G1 X191.4 Y132.456 E5.57568
G1 X191.143 Y132.908 E5.59909
G1 X189.992 Y134.838 E5.70027
G1 X188.745 Y137.074 E5.81555
G1 X187.573 Y139.318 E5.92954
G1 X186.469 Y141.589 E6.04324
G1 X185.419 Y143.915 E6.15814
G1 X184.441 Y146.252 E6.27221
G1 X183.517 Y148.647 E6.38779
G1 X182.683 Y151.015 E6.50083
G1 X181.899 Y153.454 E6.61619
G1 X181.185 Y155.909 E6.73131
G1 X180.69 Y157.786 E6.81871
G1 X180.416 Y158.874 E6.86923
G1 X180.157 Y159.739 E6.90988
G1 X179.822 Y160.578 E6.95056
G1 X179.415 Y161.384 E6.99121
G1 X178.938 Y162.151 E7.03188
G1 X178.395 Y162.872 E7.07252
G1 X177.991 Y163.332 E7.10009
G1 X177.776 Y163.563 E7.1143
G1 X177.522 Y163.826 E7.13076
G1 X163.999 Y177.349 E7.99186
G1 X163.504 Y177.831 E8.02296
G1 X162.83 Y178.432 E8.06362
G1 X162.105 Y178.97 E8.10427
G1 X161.335 Y179.443 E8.14496
G1 X160.527 Y179.846 E8.18562
G1 X159.686 Y180.175 E8.22628
G1 X159.047 Y180.37 E8.25636
G1 X158.689 Y180.466 E8.27305
G1 X156.509 Y181.017 E8.37429
G1 X154.074 Y181.707 E8.48825
G1 X151.626 Y182.475 E8.60377
G1 X149.245 Y183.299 E8.71721
G1 X146.873 Y184.194 E8.83136
G1 X144.526 Y185.156 E8.94557
G1 X142.186 Y186.195 E9.06085
G1 X139.926 Y187.273 E9.17359
G1 X137.631 Y188.451 E9.28975
G1 X135.436 Y189.657 E9.40251
G1 X133.619 Y190.714 E9.49716
G1 X132.718 Y191.251 E9.54439
G1 X131.923 Y191.679 E9.58504
G1 X131.093 Y192.034 E9.62569
G1 X130.234 Y192.315 E9.66638
G1 X129.354 Y192.519 E9.70706
G1 X128.46 Y192.644 E9.7477
G1 X127.809 Y192.685 E9.77707
G1 X127.17 Y192.7 E9.80585
G1 X108.061 Y192.699 E10.66625
G1 X107.363 Y192.689 E10.69768
G1 X106.461 Y192.636 E10.73836
G1 X105.568 Y192.504 E10.77901
G1 X104.69 Y192.293 E10.81967
G1 X103.834 Y192.005 E10.86033
G1 X103.007 Y191.643 E10.90098
G1 X102.544 Y191.4 E10.92452
G1 X102.092 Y191.143 E10.94794
G1 X100.162 Y189.992 E11.04912
G1 X97.926 Y188.745 E11.16439
G1 X95.682 Y187.573 E11.27838
G1 X93.411 Y186.469 E11.39208
G1 X91.085 Y185.419 E11.50698
G1 X88.748 Y184.441 E11.62105
G1 X86.353 Y183.517 E11.73664
G1 X83.985 Y182.683 E11.84968
G1 X81.544 Y181.898 E11.96513
G1 X79.091 Y181.185 E12.08015
G1 X77.175 Y180.68 E12.16936
G1 X76.126 Y180.416 E12.21807
G1 X75.261 Y180.157 E12.25872
G1 X74.422 Y179.822 E12.2994
G1 X73.616 Y179.415 E12.34006
G1 X72.849 Y178.938 E12.38073
G1 X72.128 Y178.395 E12.42137
G1 X71.684 Y178.006 E12.44794
G1 X71.452 Y177.791 E12.46219
G1 X71.172 Y177.522 E12.47967
G1 X57.615 Y163.963 E13.34299
G1 X57.159 Y163.493 E13.37248
G1 X56.56 Y162.817 E13.41314
G1 X56.022 Y162.091 E13.45383
G1 X55.551 Y161.321 E13.49447
G1 X55.15 Y160.512 E13.53513
G1 X54.822 Y159.67 E13.57581
G1 X54.663 Y159.16 E13.59987
G1 X54.534 Y158.689 E13.62186
G1 X53.983 Y156.509 E13.7231
G1 X53.293 Y154.074 E13.83705
G1 X52.525 Y151.626 E13.95257
G1 X51.708 Y149.264 E14.06511
G1 X50.803 Y146.866 E14.18051
G1 X49.839 Y144.515 E14.29492
G1 X48.805 Y142.186 E14.40966
G1 X47.727 Y139.926 E14.5224
G1 X46.549 Y137.631 E14.63855
G1 X45.343 Y135.436 E14.75132
G1 X44.286 Y133.619 E14.84597
G1 X43.749 Y132.718 E14.89319
G1 X43.321 Y131.923 E14.93385
G1 X42.966 Y131.093 E14.97449
G1 X42.685 Y130.234 E15.01519
G1 X42.481 Y129.354 E15.05586
G1 X42.356 Y128.46 E15.09651
G1 X42.315 Y127.809 E15.12588
G1 X42.3 Y127.17 E15.15466
G1 X42.301 Y108.061 E16.01506
G1 X42.311 Y107.363 E16.04649
G1 X42.364 Y106.461 E16.08717
G1 X42.496 Y105.568 E16.12782
G1 X42.707 Y104.69 E16.16847
G1 X42.995 Y103.834 E16.20914
G1 X43.357 Y103.007 E16.24979
G1 X43.611 Y102.524 E16.27436
G1 X43.857 Y102.093 E16.2967
G1 X45.016 Y100.15 E16.39857
G1 X46.247 Y97.943 E16.51236
G1 X47.427 Y95.682 E16.62719
G1 X48.531 Y93.411 E16.74089
G1 X49.581 Y91.085 E16.85579
G1 X50.56 Y88.744 E16.97004
G1 X51.492 Y86.329 E17.0866
G1 X52.308 Y84.014 E17.19712
G1 X53.101 Y81.546 E17.31384
G1 X53.815 Y79.091 E17.42896
G1 X54.32 Y77.174 E17.51822
G1 X54.586 Y76.12 E17.56716
G1 X54.845 Y75.255 E17.60782
G1 X55.18 Y74.416 E17.64849
G1 X55.588 Y73.61 E17.68917
G1 X56.066 Y72.844 E17.72982
G1 X56.609 Y72.122 E17.7705
G1 X57.027 Y71.647 E17.79899
G1 X57.244 Y71.415 E17.81329
G1 X57.481 Y71.171 E17.82861
G1 X71.015 Y57.638 E18.69037
G1 X71.498 Y57.168 E18.72072
G1 X72.172 Y56.567 E18.76138
G1 X72.897 Y56.029 E18.80203
G1 X73.667 Y55.556 E18.84271
G1 X74.475 Y55.154 E18.88335
G1 X75.316 Y54.825 E18.92401
G1 X75.919 Y54.64 E18.95241
G1 X76.311 Y54.534 E18.97069
G1 X78.491 Y53.983 E19.07194
G1 X80.926 Y53.293 E19.18589
G1 X83.374 Y52.525 E19.30141
G1 X85.755 Y51.701 E19.41486
G1 X88.127 Y50.806 E19.52901
G1 X90.474 Y49.844 E19.64322
G1 X92.814 Y48.805 E19.7585
G1 X95.074 Y47.727 E19.87124
G1 X97.369 Y46.549 E19.98739
G1 X99.564 Y45.343 E20.10016
G1 X101.381 Y44.286 E20.19481
G1 X102.282 Y43.749 E20.24203
G1 X103.077 Y43.321 E20.28269
G1 X103.907 Y42.966 E20.32333
G1 X104.766 Y42.685 E20.36403
G1 X105.646 Y42.481 E20.4047
G1 X106.54 Y42.356 E20.44535
G1 X107.191 Y42.315 E20.47472
G1 X107.83 Y42.3 E20.50349
G1 X126.939 Y42.301 E21.36389
G1 X127.637 Y42.311 E21.39533
G0 F7500 X127.643 Y41.911
G1 F1500 X128.562 Y41.964 E21.43677
G1 X129.473 Y42.097 E21.47823
G1 X130.369 Y42.308 E21.51967
G1 X131.243 Y42.596 E21.56111
G1 X132.09 Y42.959 E21.6026
G1 X132.661 Y43.256 E21.63158
G1 X133.097 Y43.505 E21.65419
G1 X135.036 Y44.661 E21.75583
G1 X137.247 Y45.894 E21.86982
G1 X139.499 Y47.07 E21.98421
G1 X141.75 Y48.165 E22.09692
G1 X144.085 Y49.219 E22.21227
G1 X146.415 Y50.193 E22.32597
G1 X148.787 Y51.109 E22.44046
G1 X151.165 Y51.946 E22.55397
G1 X153.541 Y52.71 E22.66635
G1 X156.007 Y53.427 E22.78198
G1 X157.928 Y53.933 E22.87143
G1 X158.972 Y54.196 E22.9199
G1 X159.854 Y54.459 E22.96134
G1 X160.71 Y54.798 E23.0028
G1 X161.533 Y55.21 E23.04424
G1 X162.318 Y55.692 E23.08571
G1 X163.057 Y56.24 E23.12714
G1 X163.587 Y56.699 E23.15871
G1 X163.818 Y56.913 E23.17289
G1 X164.11 Y57.194 E23.19113
G1 X177.648 Y70.735 E24.05328
G1 X178.12 Y71.22 E24.08375
G1 X178.733 Y71.907 E24.12521
G1 X179.284 Y72.645 E24.16667
G1 X179.769 Y73.427 E24.20811
G1 X180.184 Y74.249 E24.24957
G1 X180.526 Y75.104 E24.29103
G1 X180.767 Y75.885 E24.32783
G1 X180.853 Y76.213 E24.3431
G1 X181.395 Y78.356 E24.44263
G1 X182.1 Y80.845 E24.55911
G1 X182.845 Y83.22 E24.67118
G1 X183.668 Y85.599 E24.78453
G1 X184.574 Y88.001 E24.90012
G1 X185.52 Y90.309 E25.01243
G1 X186.557 Y92.644 E25.12746
G1 X187.639 Y94.911 E25.24057
G1 X188.792 Y97.158 E25.35428
G1 X190.03 Y99.412 E25.47007
G1 X191.003 Y101.084 E25.55717
G1 X191.595 Y102.077 E25.60923
G1 X192.031 Y102.887 E25.65065
G1 X192.396 Y103.733 E25.69213
G1 X192.686 Y104.607 E25.7336
G1 X192.899 Y105.502 E25.77502
G1 X193.034 Y106.413 E25.81649
G1 X193.085 Y107.179 E25.85105
G1 X193.095 Y107.504 E25.86569
G1 X193.1 Y107.83 E25.88037
G1 X193.099 Y126.922 E26.74001
G1 X193.089 Y127.639 E26.77229
G1 X193.036 Y128.558 E26.81374
G1 X192.904 Y129.469 E26.85519
G1 X192.693 Y130.365 E26.89663
G1 X192.405 Y131.24 E26.93811
G1 X192.042 Y132.086 E26.97956
G1 X191.749 Y132.651 E27.00822
G1 X191.487 Y133.113 E27.03213
G1 X190.327 Y135.058 E27.1341
G1 X189.106 Y137.247 E27.24696
G1 X187.93 Y139.499 E27.36135
G1 X186.835 Y141.75 E27.47406
G1 X185.781 Y144.085 E27.58941
G1 X184.807 Y146.415 E27.70312
G1 X183.891 Y148.787 E27.81761
G1 X183.054 Y151.165 E27.93112
G1 X182.29 Y153.541 E28.04349
G1 X181.573 Y156.007 E28.15912
G1 X181.067 Y157.928 E28.24857
G1 X180.804 Y158.972 E28.29704
G1 X180.541 Y159.854 E28.33849
G1 X180.202 Y160.71 E28.37994
G1 X179.79 Y161.533 E28.42138
G1 X179.308 Y162.318 E28.46286
G1 X178.76 Y163.057 E28.50428
G1 X178.284 Y163.605 E28.53696
G1 X178.069 Y163.836 E28.55117
G1 X177.805 Y164.109 E28.56827
G1 X164.278 Y177.635 E29.42959
G1 X163.783 Y178.117 E29.4607
G1 X163.096 Y178.73 E29.50215
G1 X162.359 Y179.282 E29.54361
G1 X161.576 Y179.767 E29.58508
G1 X160.754 Y180.182 E29.62655
G1 X159.9 Y180.524 E29.66797
G1 X159.151 Y180.757 E29.70328
G1 X158.787 Y180.853 E29.72023
G1 X156.644 Y181.395 E29.81976
G1 X154.155 Y182.1 E29.93624
G1 X151.78 Y182.845 E30.04832
G1 X149.401 Y183.668 E30.16166
G1 X146.999 Y184.574 E30.27725
G1 X144.691 Y185.52 E30.38956
G1 X142.356 Y186.557 E30.5046
G1 X140.089 Y187.639 E30.6177
G1 X137.842 Y188.792 E30.73142
G1 X135.588 Y190.03 E30.84721
G1 X133.916 Y191.003 E30.93431
G1 X132.923 Y191.595 E30.98636
G1 X132.113 Y192.031 E31.02778
G1 X131.267 Y192.396 E31.06927
G1 X130.393 Y192.686 E31.11073
G1 X129.498 Y192.899 E31.15215
G1 X128.587 Y193.034 E31.19362
G1 X127.821 Y193.085 E31.22819
G1 X127.496 Y193.095 E31.24283
G1 X127.17 Y193.1 E31.25751
G1 X108.055 Y193.099 E32.11818
G1 X107.357 Y193.089 E32.14961
G1 X106.438 Y193.036 E32.19106
G1 X105.527 Y192.903 E32.23251
G1 X104.631 Y192.692 E32.27396
G1 X103.757 Y192.404 E32.31539
G1 X102.91 Y192.041 E32.35688
G1 X102.349 Y191.749 E32.38536
G1 X101.887 Y191.487 E32.40927
G1 X99.942 Y190.327 E32.51124
G1 X97.753 Y189.106 E32.6241
G1 X95.501 Y187.93 E32.73849
G1 X93.25 Y186.835 E32.8512
G1 X90.915 Y185.781 E32.96655
G1 X88.585 Y184.807 E33.08026
G1 X86.213 Y183.891 E33.19475
G1 X83.835 Y183.054 E33.30826
G1 X81.459 Y182.29 E33.42063
G1 X78.993 Y181.573 E33.53626
G1 X77.072 Y181.067 E33.62571
G1 X76.028 Y180.804 E33.67418
G1 X75.146 Y180.541 E33.71563
G1 X74.29 Y180.202 E33.75708
G1 X73.467 Y179.79 E33.79852
G1 X72.682 Y179.308 E33.84
G1 X71.943 Y178.76 E33.88142
G1 X71.412 Y178.3 E33.91305
G1 X71.18 Y178.085 E33.9273
G1 X70.889 Y177.805 E33.94548
G1 X57.328 Y164.241 E34.80909
G1 X56.872 Y163.771 E34.83857
G1 X56.26 Y163.083 E34.88003
G1 X55.711 Y162.345 E34.92145
G1 X55.227 Y161.561 E34.96293
G1 X54.813 Y160.739 E35.00437
G1 X54.472 Y159.884 E35.04582
G1 X54.278 Y159.269 E35.07486
G1 X54.147 Y158.787 E35.09735
G1 X53.605 Y156.644 E35.19687
G1 X52.9 Y154.155 E35.31335
G1 X52.155 Y151.78 E35.42543
G1 X51.327 Y149.388 E35.5394
G1 X50.435 Y147.022 E35.65325
G1 X49.475 Y144.68 E35.76722
G1 X48.443 Y142.356 E35.88171
G1 X47.361 Y140.089 E35.99481
G1 X46.208 Y137.842 E36.10853
G1 X44.97 Y135.588 E36.22432
G1 X43.997 Y133.916 E36.31142
G1 X43.405 Y132.923 E36.36347
G1 X42.969 Y132.113 E36.40489
G1 X42.604 Y131.267 E36.44638
G1 X42.314 Y130.393 E36.48784
G1 X42.101 Y129.498 E36.52926
G1 X41.966 Y128.587 E36.57073
G1 X41.915 Y127.821 E36.6053
G1 X41.905 Y127.496 E36.61994
G1 X41.9 Y127.17 E36.63462
G1 X41.901 Y108.055 E37.49529
G1 X41.911 Y107.357 E37.52672
G1 X41.964 Y106.438 E37.56817
G1 X42.097 Y105.527 E37.60962
G1 X42.308 Y104.631 E37.65107
G1 X42.596 Y103.757 E37.6925
G1 X42.959 Y102.91 E37.73399
G1 X43.262 Y102.328 E37.76354
G1 X43.513 Y101.888 E37.78634
G1 X44.665 Y99.956 E37.88763
G1 X45.9 Y97.741 E38.00181
G1 X47.07 Y95.501 E38.1156
G1 X48.165 Y93.25 E38.22831
G1 X49.219 Y90.915 E38.34366
G1 X50.194 Y88.582 E38.45751
G1 X51.105 Y86.219 E38.57154
G1 X51.948 Y83.832 E38.68552
G1 X52.71 Y81.459 E38.79774
G1 X53.427 Y78.993 E38.91337
G1 X53.933 Y77.071 E39.00286
G1 X54.198 Y76.022 E39.05158
G1 X54.462 Y75.14 E39.09303
G1 X54.801 Y74.284 E39.13449
G1 X55.213 Y73.461 E39.17593
G1 X55.696 Y72.677 E39.21739
G1 X56.244 Y71.937 E39.25885
G1 X56.735 Y71.374 E39.29248
G1 X56.952 Y71.142 E39.30679
G1 X57.198 Y70.888 E39.32271
G1 X70.736 Y57.351 E40.18473
G1 X71.219 Y56.881 E40.21507
G1 X71.906 Y56.268 E40.25653
G1 X72.643 Y55.717 E40.29796
G1 X73.426 Y55.233 E40.33941
G1 X74.248 Y54.818 E40.38087
G1 X75.103 Y54.475 E40.42235
G1 X75.813 Y54.254 E40.45583
G1 X76.213 Y54.147 E40.47447
G1 X78.356 Y53.605 E40.574
G1 X80.845 Y52.9 E40.69048
G1 X83.22 Y52.155 E40.80255
G1 X85.599 Y51.332 E40.9159
G1 X88.001 Y50.426 E41.03149
G1 X90.309 Y49.48 E41.1438
G1 X92.644 Y48.443 E41.25884
G1 X94.911 Y47.361 E41.37194
G1 X97.158 Y46.208 E41.48565
G1 X99.412 Y44.97 E41.60144
G1 X101.093 Y43.992 E41.68901
G1 X102.077 Y43.405 E41.7406
G1 X102.887 Y42.969 E41.78202
G1 X103.733 Y42.604 E41.8235
G1 X104.607 Y42.314 E41.86497
G1 X105.502 Y42.101 E41.90639
G1 X106.413 Y41.966 E41.94786
G1 X107.179 Y41.915 E41.98242
G1 X107.504 Y41.905 E41.99706
G1 X107.83 Y41.9 E42.01174
G1 X126.945 Y41.901 E42.87241
G1 X127.643 Y41.911 E42.90385
G0 F7500 X127.649 Y41.511
G1 F1500 X128.585 Y41.565 E42.94606
G1 X129.513 Y41.697 E42.98826
G1 X130.427 Y41.909 E43.03051
G1 X131.319 Y42.198 E43.07273
G1 X132.184 Y42.561 E43.11497
G1 X132.856 Y42.907 E43.149
G1 X133.302 Y43.161 E43.17211
G1 X135.256 Y44.326 E43.27454
G1 X137.42 Y45.533 E43.38611
G1 X139.681 Y46.713 E43.50094
G1 X141.953 Y47.818 E43.6147
G1 X144.225 Y48.843 E43.72693
G1 X146.565 Y49.822 E43.84114
G1 X148.928 Y50.734 E43.95518
G1 X151.283 Y51.564 E44.06761
G1 X153.66 Y52.328 E44.18003
G1 X156.106 Y53.039 E44.29472
G1 X158.052 Y53.552 E44.38533
G1 X159.069 Y53.808 E44.43255
G1 X159.968 Y54.076 E44.47479
G1 X160.841 Y54.419 E44.51703
G1 X161.681 Y54.835 E44.55923
G1 X162.483 Y55.322 E44.60148
G1 X163.241 Y55.874 E44.6437
G1 X163.859 Y56.406 E44.68042
G1 X164.09 Y56.62 E44.69459
G1 X164.392 Y56.911 E44.71348
G1 X177.935 Y70.456 E45.57591
G1 X178.407 Y70.941 E45.60638
G1 X179.032 Y71.641 E45.64863
G1 X179.595 Y72.391 E45.69086
G1 X180.092 Y73.186 E45.73307
G1 X180.52 Y74.021 E45.77532
G1 X180.874 Y74.889 E45.81753
G1 X181.153 Y75.782 E45.85965
G1 X181.241 Y76.115 E45.87516
G1 X181.782 Y78.255 E45.97455
G1 X182.481 Y80.721 E46.08996
G1 X183.228 Y83.106 E46.20249
G1 X184.049 Y85.476 E46.31542
G1 X184.942 Y87.844 E46.42937
G1 X185.892 Y90.16 E46.54208
G1 X186.918 Y92.473 E46.65601
G1 X187.992 Y94.721 E46.76819
G1 X189.149 Y96.976 E46.88231
G1 X190.377 Y99.213 E46.99721
G1 X191.38 Y100.936 E47.08698
