;FLAVOR:Marlin
;TIME:5252
;Filament used: 3.92832m
;Layer height: 0.28
;MINX:65.19
;MINY:42.998
;MINZ:0.28
;MAXX:170.605
;MAXY:148.469
;MAXZ:7.84
;Generated with Cura_SteamEngine 4.5.0
M140 S60
M105
M190 S60
M104 S205
M105
M109 S205
M82 ;absolute extrusion mode
; Ender 3 Custom Start G-code
G92 E0 ; Reset Extruder
G28 ; Home all axes
G1 Z2.0 F3000 ; Move Z Axis up little to prevent scratching of Heat Bed
G1 X0.1 Y20 Z0.3 F5000.0 ; Move to start position
G1 X0.1 Y200.0 Z0.3 F1500.0 E15 ; Draw the first line
G1 X0.4 Y200.0 Z0.3 F5000.0 ; Move to side a little
G1 X0.4 Y20 Z0.3 F1500.0 E30 ; Draw the second line
G92 E0 ; Reset Extruder
G1 Z2.0 F3000 ; Move Z Axis up little to prevent scratching of Heat Bed
G1 X5 Y20 Z0.3 F5000.0 ; Move over to prevent blob squish
G92 E0
G92 E0
G1 F1500 E-6
;LAYER_COUNT:28
;LAYER:0
M107
G0 F7500 X77.119 Y62.305 Z0.28
;TYPE:SKIRT
G1 F1500 E0
G1 X78.072 Y61.173 E0.0689
G1 X78.305 Y60.904 E0.08547
G1 X79.019 Y60.112 E0.13513
G1 X79.845 Y59.224 E0.1916
G1 X80.543 Y58.516 E0.23789
G1 X81.806 Y57.287 E0.31995
G1 X82.088 Y57.025 E0.33788
G1 X82.674 Y56.491 E0.37479
G1 X83.377 Y55.866 E0.41859
G1 X83.628 Y55.65 E0.43401
G1 X84.329 Y55.067 E0.47647
G1 X85.788 Y53.903 E0.56338
G1 X86.623 Y53.277 E0.61197
G1 X87.714 Y52.488 E0.67467
G1 X88.448 Y51.988 E0.71602
G1 X89.998 Y50.981 E0.80209
G1 X90.978 Y50.386 E0.85547
G1 X91.966 Y49.809 E0.90875
G1 X92.905 Y49.298 E0.95853
G1 X94.045 Y48.7 E1.01847
G1 X94.35 Y48.546 E1.03438
G1 X95.465 Y48.006 E1.09207
G1 X96.351 Y47.595 E1.13755
G1 X96.671 Y47.453 E1.15385
G1 X97.567 Y47.073 E1.19917
G1 X98.716 Y46.607 E1.2569
G1 X99.039 Y46.482 E1.27303
G1 X100.264 Y46.032 E1.3338
G1 X101.396 Y45.641 E1.38957
G1 X102.405 Y45.323 E1.43883
G1 X103.756 Y44.927 E1.50438
G1 X104.511 Y44.723 E1.5408
G1 X105.168 Y44.555 E1.57238
G1 X106.269 Y44.29 E1.62511
G1 X106.734 Y44.189 E1.64726
G1 X107.489 Y44.033 E1.68316
G1 X108.585 Y43.825 E1.73511
G1 X110.178 Y43.563 E1.81028
G1 X111.745 Y43.354 E1.88389
G1 X112.556 Y43.268 E1.92187
G1 X113.691 Y43.164 E1.97494
G1 X115.346 Y43.057 E2.05217
G1 X116.476 Y43.012 E2.10482
G1 X116.908 Y43.004 E2.12494
G1 X117.693 Y42.998 E2.1615
G1 X118.436 Y42.999 E2.19609
G1 X119.776 Y43.031 E2.25851
G1 X120.451 Y43.059 E2.28997
G1 X121.611 Y43.125 E2.34407
G1 X122.105 Y43.165 E2.36715
G1 X123.397 Y43.286 E2.42757
G1 X123.751 Y43.325 E2.44415
G1 X125.56 Y43.558 E2.52908
G1 X126.54 Y43.71 E2.57526
G1 X126.897 Y43.771 E2.59213
G1 X128.299 Y44.036 E2.65857
G1 X128.655 Y44.11 E2.6755
G1 X130.385 Y44.501 E2.75809
G1 X131.778 Y44.858 E2.82505
G1 X132.156 Y44.965 E2.84334
G1 X133.233 Y45.281 E2.8956
G1 X133.566 Y45.385 E2.91185
G1 X135.373 Y45.983 E3.00048
G1 X136.421 Y46.362 E3.05237
G1 X136.769 Y46.494 E3.0697
G1 X138.03 Y46.999 E3.13295
G1 X138.364 Y47.139 E3.14981
G1 X140.372 Y48.035 E3.2522
G1 X141.676 Y48.671 E3.31976
G1 X142.737 Y49.225 E3.37549
G1 X143.055 Y49.398 E3.39235
G1 X144.831 Y50.406 E3.48744
G1 X145.82 Y51.006 E3.5413
G1 X146.189 Y51.241 E3.56167
G1 X147.123 Y51.851 E3.61362
G1 X147.405 Y52.042 E3.62948
G1 X148.969 Y53.14 E3.71846
G1 X150.06 Y53.955 E3.78187
G1 X150.386 Y54.212 E3.8012
G1 X151.398 Y55.028 E3.86173
G1 X152.737 Y56.169 E3.94365
G1 X152.998 Y56.399 E3.95985
G1 X153.803 Y57.13 E4.01048
G1 X154.072 Y57.382 E4.02764
G1 X154.94 Y58.225 E4.08399
G1 X155.193 Y58.479 E4.10068
G1 X156.45 Y59.782 E4.18498
G1 X156.694 Y60.043 E4.20162
G1 X157.55 Y60.995 E4.26123
G1 X157.835 Y61.327 E4.28161
G1 X158.595 Y62.233 E4.33667
G1 X159.563 Y63.437 E4.40861
G1 X160.087 Y64.129 E4.44903
G1 X160.757 Y65.045 E4.50187
G1 X161.03 Y65.436 E4.52408
G1 X161.644 Y66.332 E4.57465
G1 X162.29 Y67.307 E4.62912
G1 X162.556 Y67.729 E4.65234
G1 X162.944 Y68.362 E4.68692
G1 X163.541 Y69.368 E4.74139
G1 X163.753 Y69.744 E4.76149
G1 X164.317 Y70.768 E4.81592
G1 X164.739 Y71.559 E4.85767
G1 X164.899 Y71.871 E4.87399
G1 X165.385 Y72.86 E4.92531
G1 X165.892 Y73.942 E4.98095
G1 X166.088 Y74.388 E5.00363
G1 X166.531 Y75.42 E5.05592
G1 X166.954 Y76.452 E5.10786
G1 X167.123 Y76.891 E5.12976
G1 X167.396 Y77.625 E5.16623
G1 X167.79 Y78.738 E5.22121
G1 X167.936 Y79.182 E5.24297
G1 X168.262 Y80.209 E5.29314
G1 X168.603 Y81.341 E5.34819
G1 X168.728 Y81.793 E5.37003
G1 X168.917 Y82.508 E5.40447
G1 X169.207 Y83.68 E5.46069
G1 X169.324 Y84.202 E5.4856
G1 X169.541 Y85.228 E5.53443
G1 X169.763 Y86.357 E5.588
G1 X169.841 Y86.804 E5.60913
G1 X169.973 Y87.621 E5.64767
G1 X170.14 Y88.767 E5.7016
G1 X170.196 Y89.232 E5.7234
G1 X170.299 Y90.165 E5.76711
G1 X170.458 Y91.893 E5.84792
G1 X170.485 Y92.253 E5.86473
G1 X170.514 Y92.767 E5.8887
G1 X170.592 Y94.645 E5.97622
G1 X170.6 Y94.962 E5.99099
G1 X170.605 Y95.359 E6.00947
G1 X170.604 Y95.701 E6.0254
G1 X170.561 Y97.798 E6.12306
G1 X170.521 Y98.654 E6.16297
G1 X170.484 Y99.173 E6.1872
G1 X170.391 Y100.158 E6.23327
G1 X170.113 Y102.745 E6.35442
G1 X170.027 Y103.456 E6.38777
G1 X169.915 Y104.182 E6.42197
G1 X169.701 Y105.305 E6.47521
G1 X169.181 Y107.809 E6.59429
G1 X169.023 Y108.52 E6.62821
G1 X168.851 Y109.194 E6.6606
G1 X168.579 Y110.125 E6.70576
G1 X167.772 Y112.717 E6.83217
G1 X167.532 Y113.452 E6.86817
G1 X167.286 Y114.128 E6.90167
G1 X166.907 Y115.071 E6.94899
G1 X165.862 Y117.542 E7.07392
G1 X165.555 Y118.239 E7.10938
G1 X165.303 Y118.776 E7.137
G1 X165.107 Y119.166 E7.15733
G1 X164.873 Y119.604 E7.18045
G1 X163.499 Y122.134 E7.31451
G1 X163.138 Y122.777 E7.34885
G1 X162.828 Y123.299 E7.37712
G1 X162.602 Y123.653 E7.39667
G1 X162.308 Y124.096 E7.42143
G1 X160.694 Y126.478 E7.55541
G1 X160.288 Y127.061 E7.58849
G1 X159.841 Y127.659 E7.62326
G1 X159.25 Y128.392 E7.6671
G1 X157.511 Y130.484 E7.79377
G1 X157.027 Y131.052 E7.82852
G1 X156.567 Y131.559 E7.8604
G1 X155.942 Y132.202 E7.90215
G1 X153.879 Y134.242 E8.03725
G1 X153.397 Y134.706 E8.0684
G1 X152.975 Y135.092 E8.09503
G1 X152.26 Y135.697 E8.13865
G1 X149.999 Y137.533 E8.27427
G1 X149.424 Y137.988 E8.30841
G1 X148.918 Y138.365 E8.33779
G1 X148.275 Y138.812 E8.37426
G1 X145.744 Y140.486 E8.51556
G1 X145.182 Y140.847 E8.54666
G1 X144.623 Y141.183 E8.57703
G1 X143.832 Y141.623 E8.61918
G1 X141.22 Y143.006 E8.7568
G1 X140.749 Y143.247 E8.78143
G1 X140.12 Y143.543 E8.8138
G1 X138.857 Y144.09 E8.87789
G1 X136.497 Y145.06 E8.99671
G1 X136.037 Y145.242 E9.01974
G1 X135.362 Y145.484 E9.05313
G1 X134.004 Y145.918 E9.11952
G1 X131.534 Y146.659 E9.23959
G1 X131.081 Y146.787 E9.26151
G1 X130.443 Y146.946 E9.29213
G1 X129.008 Y147.258 E9.36051
G1 X126.61 Y147.728 E9.4743
G1 X126.063 Y147.828 E9.50019
G1 X125.364 Y147.932 E9.53309
G1 X123.895 Y148.102 E9.60195
G1 X121.468 Y148.334 E9.71548
G1 X121.069 Y148.367 E9.73412
G1 X120.677 Y148.392 E9.75241
G1 X119.524 Y148.446 E9.80616
G1 X119.08 Y148.458 E9.82684
G1 X117.38 Y148.469 E9.906
G1 X116.924 Y148.462 E9.92724
G1 X115.011 Y148.395 E10.01637
G1 X114.624 Y148.375 E10.03442
G1 X113.681 Y148.304 E10.07845
G1 X112.922 Y148.228 E10.11397
G1 X110.599 Y147.954 E10.22289
G1 X109.822 Y147.851 E10.25938
G1 X109.226 Y147.755 E10.28749
G1 X108.448 Y147.607 E10.32437
G1 X106.206 Y147.15 E10.43091
G1 X105.624 Y147.023 E10.45865
G1 X104.996 Y146.867 E10.48878
G1 X103.874 Y146.55 E10.54307
G1 X101.409 Y145.81 E10.66292
G1 X100.845 Y145.633 E10.69044
G1 X100.168 Y145.396 E10.72384
G1 X98.83 Y144.876 E10.79068
G1 X96.542 Y143.936 E10.90586
G1 X96.047 Y143.725 E10.93092
G1 X95.411 Y143.43 E10.96356
G1 X94.136 Y142.785 E11.0301
G1 X91.922 Y141.611 E11.14679
G1 X91.46 Y141.358 E11.17132
G1 X90.867 Y141.009 E11.20335
G1 X89.655 Y140.24 E11.27019
G1 X87.727 Y138.965 E11.37782
G1 X87.127 Y138.557 E11.41161
G1 X86.723 Y138.269 E11.43471
G1 X86.33 Y137.975 E11.45757
G1 X85.99 Y137.71 E11.47764
G1 X83.637 Y135.801 E11.61873
G1 X83.069 Y135.327 E11.65318
G1 X82.672 Y134.979 E11.67776
G1 X82.325 Y134.66 E11.69971
G1 X82.041 Y134.389 E11.71798
G1 X79.908 Y132.28 E11.85766
G1 X79.391 Y131.753 E11.89203
G1 X78.928 Y131.251 E11.92383
G1 X78.044 Y130.228 E11.98679
G1 X76.636 Y128.532 E12.08943
G1 X75.928 Y127.648 E12.14217
G1 X75.51 Y127.091 E12.1746
G1 X74.942 Y126.28 E12.2207
G1 X73.527 Y124.195 E12.33803
G1 X73.128 Y123.59 E12.37178
G1 X72.854 Y123.152 E12.39584
G1 X72.593 Y122.705 E12.41994
G1 X72.235 Y122.064 E12.45413
G1 X71.107 Y119.989 E12.5641
G1 X70.476 Y118.773 E12.62789
G1 X70.176 Y118.146 E12.66026
G1 X69.871 Y117.451 E12.6956
G1 X68.862 Y115.066 E12.81618
G1 X68.572 Y114.358 E12.85181
G1 X68.365 Y113.813 E12.87896
G1 X68.177 Y113.266 E12.90589
G1 X68.039 Y112.84 E12.92674
G1 X67.217 Y110.208 E13.05514
G1 X66.988 Y109.438 E13.09254
G1 X66.856 Y108.954 E13.1159
G1 X66.715 Y108.371 E13.14383
G1 X66.588 Y107.791 E13.17148
G1 X66.041 Y105.167 E13.29629
G1 X65.894 Y104.413 E13.33206
G1 X65.803 Y103.874 E13.35751
G1 X65.729 Y103.342 E13.38252
G1 X65.656 Y102.729 E13.41127
G1 X65.366 Y100.027 E13.53781
G1 X65.317 Y99.51 E13.56199
G1 X65.289 Y99.156 E13.57853
G1 X65.264 Y98.755 E13.59723
G1 X65.248 Y98.4 E13.61378
G1 X65.212 Y97.124 E13.67322
G1 X65.19 Y95.041 E13.77022
G1 X65.195 Y94.181 E13.81026
G1 X65.213 Y93.618 E13.83649
G1 X65.302 Y92.09 E13.90776
G1 X65.364 Y91.279 E13.94564
G1 X65.458 Y90.279 E13.99241
G1 X65.582 Y89.257 E14.04035
G1 X65.796 Y87.696 E14.11371
G1 X65.889 Y87.079 E14.14277
G1 X65.95 Y86.713 E14.16004
G1 X66.157 Y85.597 E14.2129
G1 X66.218 Y85.296 E14.2272
G1 X66.583 Y83.618 E14.30716
G1 X66.837 Y82.592 E14.35638
G1 X67.073 Y81.691 E14.39975
G1 X67.168 Y81.35 E14.41623
G1 X67.447 Y80.417 E14.46157
G1 X67.945 Y78.861 E14.53765
G1 X68.058 Y78.527 E14.55407
G1 X68.373 Y77.645 E14.59768
G1 X68.685 Y76.8 E14.63962
G1 X68.81 Y76.478 E14.6557
G1 X69.178 Y75.577 E14.70102
G1 X69.822 Y74.084 E14.77673
G1 X69.964 Y73.769 E14.79282
G1 X70.386 Y72.871 E14.83903
G1 X70.909 Y71.802 E14.89444
G1 X71.393 Y70.888 E14.9426
G1 X72.108 Y69.588 E15.01168
G1 X72.294 Y69.262 E15.02916
G1 X72.837 Y68.352 E15.0785
G1 X73.488 Y67.3 E15.13611
G1 X74.024 Y66.486 E15.18149
G1 X75.133 Y64.885 E15.27218
G1 X75.7 Y64.115 E15.31671
G1 X76.274 Y63.356 E15.36102
G1 X76.489 Y63.081 E15.37727
G1 X76.76 Y62.747 E15.3973
G0 F1350 X77.119 Y62.305
G0 F7500 X77.425 Y62.562
G1 F1500 X78.378 Y61.43 E15.4662
G1 X78.603 Y61.172 E15.48214
G1 X79.312 Y60.384 E15.5315
G1 X80.131 Y59.504 E15.58748
G1 X80.822 Y58.802 E15.63335
G1 X82.078 Y57.58 E15.71494
G1 X82.94 Y56.79 E15.76939
G1 X83.643 Y56.165 E15.81319
G1 X83.885 Y55.957 E15.82805
G1 X84.579 Y55.379 E15.8701
G1 X86.028 Y54.223 E15.95642
G1 X86.858 Y53.6 E16.00474
G1 X87.94 Y52.818 E16.06691
G1 X88.667 Y52.323 E16.10786
G1 X90.207 Y51.323 E16.19336
G1 X91.18 Y50.731 E16.24639
G1 X92.16 Y50.159 E16.29923
G1 X92.414 Y50.018 E16.31276
G1 X93.091 Y49.652 E16.34859
G1 X94.231 Y49.054 E16.40854
G1 X94.525 Y48.906 E16.42386
G1 X95.633 Y48.369 E16.4812
G1 X96.519 Y47.958 E16.52668
G1 X96.827 Y47.821 E16.54237
G1 X97.717 Y47.444 E16.58738
G1 X98.866 Y46.978 E16.64511
G1 X99.178 Y46.857 E16.6607
G1 X100.396 Y46.409 E16.72113
G1 X101.213 Y46.123 E16.76143
G1 X101.517 Y46.022 E16.77635
G1 X102.519 Y45.707 E16.82526
G1 X103.86 Y45.313 E16.89034
G1 X104.611 Y45.111 E16.92655
G1 X105.263 Y44.944 E16.95789
G1 X106.355 Y44.681 E17.0102
G1 X106.815 Y44.581 E17.03211
G1 X107.565 Y44.426 E17.06778
G1 X108.65 Y44.22 E17.1192
G1 X110.234 Y43.96 E17.19395
G1 X111.788 Y43.752 E17.26695
G1 X112.594 Y43.667 E17.30469
G1 X113.719 Y43.563 E17.3573
G1 X114.742 Y43.492 E17.40505
G1 X115.364 Y43.457 E17.43406
G1 X116.484 Y43.412 E17.48625
G1 X116.911 Y43.404 E17.50614
G1 X117.692 Y43.398 E17.5425
G1 X118.435 Y43.399 E17.5771
G1 X119.765 Y43.431 E17.63905
G1 X120.429 Y43.458 E17.66999
G1 X121.58 Y43.524 E17.72368
G1 X122.067 Y43.563 E17.74643
G1 X123.359 Y43.684 E17.80685
G1 X123.7 Y43.722 E17.82283
G1 X125.499 Y43.953 E17.90728
G1 X126.479 Y44.105 E17.95346
G1 X126.823 Y44.164 E17.96972
G1 X128.225 Y44.429 E18.03615
G1 X128.568 Y44.5 E18.05246
G1 X130.286 Y44.889 E18.13449
G1 X131.67 Y45.243 E18.20101
G1 X132.043 Y45.349 E18.21906
G1 X133.12 Y45.665 E18.27133
G1 X133.442 Y45.765 E18.28703
G1 X135.237 Y46.359 E18.37507
G1 X136.285 Y46.738 E18.42696
G1 X136.621 Y46.866 E18.4437
G1 X137.882 Y47.371 E18.50695
G1 X138.203 Y47.506 E18.52317
G1 X140.198 Y48.395 E18.62487
G1 X141.199 Y48.879 E18.67664
G1 X141.491 Y49.026 E18.69186
G1 X142.552 Y49.58 E18.7476
G1 X142.859 Y49.746 E18.76385
G1 X144.625 Y50.749 E18.85842
G1 X145.606 Y51.344 E18.91184
G1 X145.97 Y51.576 E18.93194
G1 X146.904 Y52.186 E18.98389
G1 X147.176 Y52.37 E18.99918
G1 X148.731 Y53.461 E19.08763
G1 X149.813 Y54.27 E19.15054
G1 X150.136 Y54.524 E19.16967
G1 X151.139 Y55.333 E19.22968
G1 X152.478 Y56.474 E19.31159
G1 X152.729 Y56.695 E19.32716
G1 X153.534 Y57.426 E19.3778
G1 X153.793 Y57.669 E19.39433
G1 X154.661 Y58.512 E19.45068
G1 X154.905 Y58.757 E19.46678
G1 X156.162 Y60.06 E19.55108
G1 X156.397 Y60.311 E19.56709
G1 X157.247 Y61.256 E19.62628
G1 X157.529 Y61.585 E19.64645
G1 X158.285 Y62.486 E19.70122
G1 X159.033 Y63.406 E19.75643
G1 X159.765 Y64.366 E19.81265
G1 X160.429 Y65.274 E19.86502
G1 X160.7 Y65.663 E19.8871
G1 X161.311 Y66.554 E19.93741
G1 X161.952 Y67.521 E19.99143
G1 X162.215 Y67.939 E20.01442
G1 X162.601 Y68.567 E20.04875
G1 X163.193 Y69.565 E20.10278
G1 X163.403 Y69.937 E20.12267
G1 X163.964 Y70.957 E20.17688
G1 X164.386 Y71.748 E20.21862
G1 X164.54 Y72.048 E20.23433
G1 X165.023 Y73.031 E20.28533
G1 X165.526 Y74.104 E20.34051
G1 X165.72 Y74.546 E20.36298
G1 X166.161 Y75.572 E20.41498
G1 X166.581 Y76.596 E20.46652
G1 X166.748 Y77.031 E20.48822
G1 X167.019 Y77.759 E20.52439
G1 X167.41 Y78.864 E20.57897
G1 X167.555 Y79.303 E20.6005
G1 X167.88 Y80.326 E20.65048
G1 X168.218 Y81.447 E20.705
G1 X168.529 Y82.605 E20.76083
G1 X168.817 Y83.768 E20.81662
G1 X168.933 Y84.286 E20.84134
G1 X169.149 Y85.306 E20.88989
G1 X169.369 Y86.427 E20.94308
G1 X169.446 Y86.868 E20.96392
G1 X169.577 Y87.68 E21.00222
G1 X169.743 Y88.816 E21.05568
G1 X169.799 Y89.277 E21.07731
G1 X169.9 Y90.202 E21.12063
G1 X170.086 Y92.277 E21.21764
G1 X170.114 Y92.783 E21.24124
G1 X170.2 Y94.968 E21.34306
G1 X170.205 Y95.365 E21.36155
G1 X170.204 Y95.694 E21.37687
G1 X170.161 Y97.78 E21.47402
G1 X170.121 Y98.636 E21.51392
G1 X170.086 Y99.135 E21.53722
G1 X169.993 Y100.116 E21.5831
G1 X169.716 Y102.697 E21.70397
G1 X169.63 Y103.408 E21.73732
G1 X169.522 Y104.107 E21.77026
G1 X169.309 Y105.223 E21.82316
G1 X168.791 Y107.722 E21.942
G1 X168.633 Y108.433 E21.97591
G1 X168.466 Y109.083 E22.00716
G1 X168.197 Y110.007 E22.05197
G1 X167.391 Y112.593 E22.1781
G1 X167.151 Y113.328 E22.21411
G1 X166.915 Y113.979 E22.24635
G1 X166.538 Y114.916 E22.29338
G1 X165.496 Y117.381 E22.41799
G1 X165.189 Y118.078 E22.45346
G1 X164.943 Y118.602 E22.48041
G1 X164.753 Y118.978 E22.50003
G1 X164.522 Y119.413 E22.52296
G1 X163.15 Y121.938 E22.65677
G1 X162.789 Y122.581 E22.69111
G1 X162.487 Y123.09 E22.71867
G1 X162.269 Y123.432 E22.73755
G1 X161.977 Y123.871 E22.7621
G1 X160.366 Y126.25 E22.89589
G1 X159.96 Y126.833 E22.92897
G1 X159.529 Y127.409 E22.96247
G1 X158.943 Y128.137 E23.00599
G1 X157.206 Y130.225 E23.13246
G1 X156.722 Y130.793 E23.1672
G1 X156.28 Y131.281 E23.19786
G1 X155.661 Y131.918 E23.23922
G1 X153.601 Y133.954 E23.37409
G1 X153.119 Y134.418 E23.40524
G1 X152.713 Y134.789 E23.43085
G1 X152.008 Y135.387 E23.4739
G1 X149.751 Y137.219 E23.60926
G1 X149.176 Y137.674 E23.6434
G1 X148.688 Y138.038 E23.67175
G1 X148.054 Y138.478 E23.70768
G1 X145.528 Y140.15 E23.84874
G1 X144.966 Y140.511 E23.87984
G1 X144.427 Y140.834 E23.9091
G1 X143.645 Y141.27 E23.95079
G1 X141.037 Y142.649 E24.08816
G1 X140.566 Y142.89 E24.1128
G1 X139.961 Y143.177 E24.14398
G1 X138.704 Y143.72 E24.20774
G1 X136.35 Y144.688 E24.32625
G1 X135.89 Y144.87 E24.34929
G1 X135.239 Y145.103 E24.38149
G1 X133.889 Y145.535 E24.44749
G1 X131.425 Y146.274 E24.56727
G1 X130.972 Y146.402 E24.58919
G1 X130.358 Y146.556 E24.61867
G1 X128.931 Y146.866 E24.68666
G1 X126.538 Y147.334 E24.8002
G1 X125.991 Y147.434 E24.8261
G1 X125.317 Y147.535 E24.85783
G1 X123.857 Y147.704 E24.92627
G1 X121.435 Y147.935 E25.03956
G1 X121.036 Y147.968 E25.0582
G1 X120.658 Y147.992 E25.07584
G1 X119.505 Y148.046 E25.12958
G1 X119.078 Y148.058 E25.14948
G1 X117.378 Y148.069 E25.22864
