;FLAVOR:Marlin
;TIME:15063
;Filament used: 12.9357m
;Layer height: 0.28
;MINX:55.236
;MINY:77.033
;MINZ:0.28
;MAXX:179.78
;MAXY:201.603
;MAXZ:21.28
;Generated with Cura_SteamEngine 4.5.0
M140 S50
M105
M190 S50
M104 S205
M105
M109 S205
M82 ;absolute extrusion mode
; Ender 3 Custom Start G-code
G92 E0 ; Reset Extruder
G28 ; Home all axes
G1 Z2.0 F3000 ; Move Z Axis up little to prevent scratching of Heat Bed
G1 X0.1 Y20 Z0.3 F5000.0 ; Move to start position
G1 X0.1 Y200.0 Z0.3 F1500.0 E15 ; Draw the first line
G1 X0.4 Y200.0 Z0.3 F5000.0 ; Move to side a little
G1 X0.4 Y20 Z0.3 F1500.0 E30 ; Draw the second line
G92 E0 ; Reset Extruder
G1 Z2.0 F3000 ; Move Z Axis up little to prevent scratching of Heat Bed
G1 X5 Y20 Z0.3 F5000.0 ; Move over to prevent blob squish
G92 E0
G92 E0
G1 F1500 E-6
;LAYER_COUNT:76
;LAYER:0
M107
G0 F7500 X76.542 Y92.388 Z0.28
;TYPE:SKIRT
G1 F1500 E0
G1 X77.38 Y91.688 E0.05084
G1 X79.203 Y90.214 E0.16001
G1 X80.325 Y89.333 E0.22643
G1 X80.541 Y89.172 E0.23898
G1 X80.823 Y88.969 E0.25516
G1 X81.747 Y88.327 E0.30755
G1 X83.647 Y87.049 E0.41417
G1 X84.816 Y86.289 E0.4791
G1 X85.116 Y86.104 E0.49551
G1 X85.412 Y85.928 E0.51154
G1 X86.418 Y85.352 E0.56552
G1 X88.422 Y84.248 E0.67206
G1 X89.526 Y83.659 E0.73033
G1 X89.823 Y83.509 E0.74582
G1 X90.161 Y83.346 E0.76329
G1 X91.378 Y82.784 E0.82571
G1 X93.31 Y81.932 E0.92403
G1 X94.484 Y81.434 E0.98341
G1 X94.834 Y81.294 E1.00097
G1 X95.189 Y81.159 E1.01865
G1 X96.499 Y80.688 E1.08347
G1 X98.462 Y80.022 E1.18
G1 X99.643 Y79.639 E1.23781
G1 X100.061 Y79.514 E1.25813
G1 X100.397 Y79.419 E1.27438
G1 X101.744 Y79.065 E1.33924
G1 X103.621 Y78.609 E1.42918
G1 X104.955 Y78.302 E1.49292
G1 X105.347 Y78.221 E1.51156
G1 X105.712 Y78.152 E1.52886
G1 X107.159 Y77.905 E1.59721
G1 X109.079 Y77.613 E1.68764
G1 X110.26 Y77.448 E1.74317
G1 X110.702 Y77.395 E1.76389
G1 X111.105 Y77.354 E1.78276
G1 X112.633 Y77.23 E1.85414
G1 X114.594 Y77.108 E1.94563
G1 X115.562 Y77.059 E1.99076
G1 X116.101 Y77.04 E2.01588
G1 X116.537 Y77.033 E2.03618
G1 X117.907 Y77.039 E2.09997
G1 X119.964 Y77.089 E2.19578
G1 X121.157 Y77.133 E2.25137
G1 X121.643 Y77.161 E2.27404
G1 X122.029 Y77.19 E2.29207
G1 X123.606 Y77.34 E2.36583
G1 X125.42 Y77.548 E2.45085
G1 X126.575 Y77.692 E2.50505
G1 X127.007 Y77.754 E2.52537
G1 X127.425 Y77.822 E2.54509
G1 X129.04 Y78.12 E2.62156
G1 X130.899 Y78.5 E2.70991
G1 X131.98 Y78.734 E2.76141
G1 X133.02 Y78.983 E2.81121
G1 X133.686 Y79.166 E2.84337
G1 X136.298 Y79.948 E2.97033
G1 X137.28 Y80.252 E3.0182
G1 X138.24 Y80.573 E3.06533
G1 X138.502 Y80.667 E3.07829
G1 X138.865 Y80.805 E3.09638
G1 X142.319 Y82.188 E3.26962
G1 X143.362 Y82.641 E3.32257
G1 X143.574 Y82.74 E3.33347
G1 X143.882 Y82.89 E3.34942
G1 X147.28 Y84.611 E3.52678
G1 X148.198 Y85.109 E3.57541
G1 X148.935 Y85.548 E3.61536
G1 X151.984 Y87.449 E3.78266
G1 X152.55 Y87.82 E3.81418
G1 X153.204 Y88.275 E3.85127
G1 X153.569 Y88.544 E3.87239
G1 X156.467 Y90.726 E4.0413
G1 X156.934 Y91.095 E4.06902
G1 X157.55 Y91.61 E4.10641
G1 X157.884 Y91.904 E4.12713
G1 X160.522 Y94.281 E4.29247
G1 X161.008 Y94.738 E4.32354
G1 X161.386 Y95.111 E4.34826
G1 X161.973 Y95.722 E4.38772
G1 X164.339 Y98.266 E4.54949
G1 X164.745 Y98.721 E4.57788
G1 X165.093 Y99.132 E4.60296
G1 X165.608 Y99.772 E4.64121
G1 X167.68 Y102.439 E4.79847
G1 X168.084 Y102.974 E4.82969
G1 X168.454 Y103.495 E4.85944
G1 X169.003 Y104.319 E4.90555
G1 X170.736 Y107.005 E5.05439
G1 X171.089 Y107.571 E5.08546
G1 X171.399 Y108.101 E5.11405
G1 X171.887 Y108.994 E5.16143
G1 X173.372 Y111.815 E5.30988
G1 X173.673 Y112.408 E5.34084
G1 X173.936 Y112.964 E5.36948
G1 X174.349 Y113.909 E5.41751
G1 X175.585 Y116.862 E5.56657
G1 X175.818 Y117.441 E5.59563
G1 X176.042 Y118.05 E5.62585
G1 X176.362 Y119.007 E5.67283
G1 X177.323 Y122.026 E5.82036
G1 X177.518 Y122.669 E5.85165
G1 X177.685 Y123.285 E5.88137
G1 X177.923 Y124.279 E5.92896
G1 X178.622 Y127.4 E6.07789
G1 X178.742 Y127.968 E6.10492
G1 X178.863 Y128.639 E6.13667
G1 X179.021 Y129.724 E6.18772
G1 X179.434 Y132.826 E6.33344
G1 X179.506 Y133.432 E6.36186
G1 X179.564 Y134.087 E6.39247
G1 X179.63 Y135.235 E6.44602
G1 X179.762 Y138.244 E6.58626
G1 X179.775 Y138.674 E6.6063
G1 X179.78 Y139.055 E6.62404
G1 X179.769 Y140.683 E6.69985
G1 X179.731 Y141.994 E6.76092
G1 X179.716 Y142.337 E6.7769
G1 X179.634 Y143.677 E6.83942
G1 X179.547 Y144.801 E6.89191
G1 X179.451 Y145.815 E6.93934
G1 X179.357 Y146.566 E6.97458
G1 X178.855 Y149.975 E7.13503
G1 X178.731 Y150.744 E7.1713
G1 X178.628 Y151.304 E7.19782
G1 X178.541 Y151.718 E7.21751
G1 X178.414 Y152.262 E7.24353
G1 X177.662 Y155.402 E7.39387
G1 X177.486 Y156.098 E7.4273
G1 X177.332 Y156.656 E7.45425
G1 X177.223 Y157.013 E7.47164
G1 X177.051 Y157.543 E7.49758
G1 X175.924 Y160.89 E7.66203
G1 X175.746 Y161.38 E7.68631
G1 X175.39 Y162.292 E7.73189
G1 X175.22 Y162.703 E7.7526
G1 X173.794 Y165.961 E7.9182
G1 X173.572 Y166.437 E7.94266
G1 X173.149 Y167.29 E7.987
G1 X172.951 Y167.67 E8.00695
G1 X171.377 Y170.554 E8.15994
G1 X171.074 Y171.091 E8.18865
G1 X170.899 Y171.39 E8.20478
G1 X170.606 Y171.873 E8.23109
G1 X170.412 Y172.181 E8.24804
G1 X170.125 Y172.619 E8.27242
G1 X168.218 Y175.471 E8.43217
G1 X167.929 Y175.883 E8.45561
G1 X167.464 Y176.514 E8.4921
G1 X167.195 Y176.864 E8.51266
G1 X165.035 Y179.558 E8.67345
G1 X164.471 Y180.233 E8.7144
G1 X164.032 Y180.731 E8.74532
G1 X163.474 Y181.332 E8.7835
G1 X161.293 Y183.606 E8.93022
G1 X160.868 Y184.036 E8.95837
G1 X160.633 Y184.266 E8.97368
G1 X160.071 Y184.795 E9.00962
G1 X159.542 Y185.268 E9.04267
G1 X157.211 Y187.301 E9.18669
G1 X156.456 Y187.936 E9.23263
G1 X156.286 Y188.072 E9.24276
G1 X156.014 Y188.282 E9.25876
G1 X155.284 Y188.828 E9.30121
G1 X152.835 Y190.611 E9.44227
G1 X152.048 Y191.161 E9.48698
G1 X151.8 Y191.326 E9.50085
G1 X151.503 Y191.517 E9.51729
G1 X150.813 Y191.943 E9.55505
G1 X148.083 Y193.582 E9.70332
G1 X147.349 Y194.002 E9.7427
G1 X146.838 Y194.277 E9.76972
G1 X145.975 Y194.711 E9.8147
G1 X143.277 Y196.022 E9.95438
G1 X142.625 Y196.328 E9.98791
G1 X142.043 Y196.581 E10.01746
G1 X140.887 Y197.043 E10.07543
G1 X138.202 Y198.065 E10.20921
G1 X137.529 Y198.311 E10.24257
G1 X136.944 Y198.507 E10.2713
G1 X135.645 Y198.899 E10.33448
G1 X132.897 Y199.676 E10.46746
G1 X132.25 Y199.849 E10.49864
G1 X131.659 Y199.99 E10.52693
G1 X130.345 Y200.262 E10.58942
G1 X127.502 Y200.802 E10.72417
G1 X126.838 Y200.918 E10.75555
G1 X126.221 Y201.008 E10.78459
G1 X124.963 Y201.153 E10.84355
G1 X122.067 Y201.442 E10.97907
G1 X121.411 Y201.498 E11.00973
G1 X120.797 Y201.533 E11.03837
G1 X119.437 Y201.571 E11.10172
G1 X116.531 Y201.603 E11.23704
G1 X115.949 Y201.601 E11.26414
G1 X115.351 Y201.583 E11.292
G1 X113.901 Y201.497 E11.35964
G1 X111.127 Y201.283 E11.48919
G1 X110.405 Y201.218 E11.52294
G1 X109.762 Y201.141 E11.5531
G1 X108.547 Y200.957 E11.61032
G1 X105.628 Y200.469 E11.74813
G1 X105.005 Y200.356 E11.77761
G1 X104.421 Y200.234 E11.80539
G1 X103.27 Y199.958 E11.86051
G1 X100.319 Y199.192 E12.00247
G1 X99.723 Y199.03 E12.03123
G1 X99.129 Y198.851 E12.06012
G1 X97.945 Y198.453 E12.11828
G1 X95.106 Y197.444 E12.25858
G1 X94.483 Y197.213 E12.28952
G1 X93.882 Y196.97 E12.3197
G1 X92.68 Y196.44 E12.38087
G1 X90.138 Y195.273 E12.51112
G1 X89.522 Y194.981 E12.54286
G1 X88.961 Y194.695 E12.57218
G1 X87.652 Y193.978 E12.64168
G1 X85.295 Y192.633 E12.76804
G1 X84.696 Y192.279 E12.80044
G1 X84.203 Y191.97 E12.82753
G1 X82.957 Y191.138 E12.8973
G1 X80.728 Y189.589 E13.02369
G1 X80.163 Y189.184 E13.05606
G1 X79.699 Y188.833 E13.08315
G1 X78.517 Y187.884 E13.15373
G1 X76.396 Y186.114 E13.28237
G1 X75.803 Y185.603 E13.31882
G1 X75.459 Y185.293 E13.34038
G1 X74.834 Y184.7 E13.3805
G1 X72.405 Y182.279 E13.54019
G1 X71.889 Y181.749 E13.57463
G1 X71.553 Y181.388 E13.5976
G1 X71.013 Y180.775 E13.63564
G1 X68.828 Y178.175 E13.79378
G1 X68.469 Y177.736 E13.82018
G1 X68.107 Y177.267 E13.84777
G1 X67.145 Y175.95 E13.92372
G1 X65.612 Y173.759 E14.04823
G1 X65.156 Y173.088 E14.08601
G1 X64.891 Y172.679 E14.1087
G1 X64.47 Y171.987 E14.14642
G1 X62.897 Y169.251 E14.29337
G1 X62.226 Y168.034 E14.35808
G1 X61.941 Y167.48 E14.38709
G1 X61.705 Y166.986 E14.41259
G1 X60.485 Y164.35 E14.54784
G1 X59.871 Y162.947 E14.61915
G1 X59.669 Y162.453 E14.644
G1 X59.511 Y162.033 E14.6649
G1 X58.456 Y159.099 E14.81008
G1 X58.072 Y157.971 E14.86556
G1 X57.896 Y157.404 E14.89321
G1 X57.697 Y156.691 E14.92768
G1 X56.959 Y153.883 E15.06287
G1 X56.642 Y152.579 E15.12536
G1 X56.514 Y151.979 E15.15392
G1 X56.396 Y151.333 E15.1845
G1 X55.905 Y148.449 E15.32073
G1 X55.722 Y147.247 E15.37734
G1 X55.65 Y146.669 E15.40446
G1 X55.575 Y145.892 E15.44081
G1 X55.338 Y142.954 E15.57806
G1 X55.263 Y141.756 E15.63396
G1 X55.243 Y141.185 E15.66056
G1 X55.236 Y140.424 E15.696
G1 X55.258 Y137.596 E15.82768
G1 X55.296 Y136.173 E15.89397
G1 X55.326 Y135.604 E15.9205
G1 X55.377 Y134.974 E15.94993
G1 X55.651 Y132.136 E16.0827
G1 X55.817 Y130.7 E16.15001
G1 X55.896 Y130.143 E16.1762
G1 X56.002 Y129.517 E16.20577
G1 X56.526 Y126.703 E16.33905
G1 X56.801 Y125.361 E16.40284
G1 X56.929 Y124.81 E16.42918
G1 X57.123 Y124.066 E16.46498
G1 X57.885 Y121.341 E16.59674
G1 X58.249 Y120.121 E16.65602
G1 X58.424 Y119.585 E16.68227
G1 X58.729 Y118.732 E16.72446
G1 X59.687 Y116.193 E16.85082
G1 X60.174 Y114.964 E16.91237
G1 X60.409 Y114.414 E16.94022
G1 X60.767 Y113.64 E16.97993
G1 X61.963 Y111.156 E17.10831
G1 X62.509 Y110.07 E17.16491
G1 X62.772 Y109.579 E17.19084
G1 X63.279 Y108.69 E17.2385
G1 X64.686 Y106.326 E17.3666
G1 X65.256 Y105.401 E17.41719
G1 X65.576 Y104.912 E17.4444
G1 X66.245 Y103.949 E17.499
G1 X67.775 Y101.831 E17.62067
G1 X68.431 Y100.952 E17.67174
G1 X68.786 Y100.498 E17.69857
G1 X68.973 Y100.269 E17.71234
G1 X69.557 Y99.574 E17.75461
G1 X71.244 Y97.627 E17.87457
G1 X72.171 Y96.591 E17.9393
G1 X72.361 Y96.389 E17.95222
G1 X72.603 Y96.141 E17.96835
G1 X73.269 Y95.478 E18.01211
G1 X75.104 Y93.705 E18.13092
G1 X75.837 Y93.014 E18.17783
G1 X76.104 Y92.77 E18.19467
G1 X76.113 Y92.762 E18.19523
G0 F1350 X76.542 Y92.388
G0 F7500 X76.799 Y92.695
G1 F1500 X77.632 Y91.999 E18.24578
G1 X79.451 Y90.528 E18.35471
G1 X80.564 Y89.654 E18.4206
G1 X80.78 Y89.493 E18.43315
G1 X81.052 Y89.297 E18.44876
G1 X81.971 Y88.658 E18.50088
G1 X83.866 Y87.384 E18.60721
G1 X85.026 Y86.63 E18.67163
G1 X85.611 Y86.275 E18.70349
G1 X86.612 Y85.702 E18.7572
G1 X88.611 Y84.6 E18.86349
G1 X89.706 Y84.016 E18.92127
G1 X90.003 Y83.866 E18.93677
G1 X90.329 Y83.709 E18.95362
G1 X91.54 Y83.15 E19.01572
G1 X93.468 Y82.3 E19.11384
G1 X94.632 Y81.805 E19.17273
G1 X94.982 Y81.665 E19.19029
G1 X95.324 Y81.535 E19.20732
G1 X96.628 Y81.067 E19.27184
G1 X98.587 Y80.402 E19.36817
G1 X99.758 Y80.022 E19.42549
G1 X100.176 Y79.897 E19.44581
G1 X100.5 Y79.806 E19.46148
G1 X101.838 Y79.454 E19.5259
G1 X103.712 Y78.998 E19.61571
G1 X105.036 Y78.693 E19.67898
G1 X105.428 Y78.612 E19.69761
G1 X105.78 Y78.546 E19.71429
G1 X107.219 Y78.301 E19.78226
G1 X109.136 Y78.009 E19.87255
G1 X110.308 Y77.845 E19.92766
G1 X110.75 Y77.792 E19.94839
G1 X111.138 Y77.753 E19.96655
G1 X112.658 Y77.63 E20.03755
G1 X114.616 Y77.508 E20.1289
G1 X115.577 Y77.459 E20.17371
G1 X116.116 Y77.44 E20.19882
G1 X116.535 Y77.433 E20.21834
G1 X117.905 Y77.439 E20.28213
G1 X119.858 Y77.486 E20.3731
G1 X121.134 Y77.533 E20.43255
G1 X121.62 Y77.561 E20.45522
G1 X121.992 Y77.589 E20.47259
G1 X123.561 Y77.737 E20.54597
G1 X125.372 Y77.945 E20.63086
G1 X126.518 Y78.088 E20.68463
G1 X126.95 Y78.15 E20.70496
G1 X127.353 Y78.215 E20.72396
G1 X128.96 Y78.512 E20.80006
G1 X130.815 Y78.891 E20.88822
G1 X131.888 Y79.123 E20.93934
G1 X132.917 Y79.37 E20.98861
G1 X133.269 Y79.464 E21.00558
G1 X133.571 Y79.55 E21.0202
G1 X136.181 Y80.33 E21.14704
G1 X137.154 Y80.631 E21.19447
G1 X138.105 Y80.95 E21.24118
G1 X138.367 Y81.044 E21.25414
G1 X138.717 Y81.176 E21.27156
G1 X142.161 Y82.555 E21.4443
G1 X142.888 Y82.867 E21.48114
G1 X143.405 Y83.103 E21.5076
G1 X143.701 Y83.247 E21.52293
G1 X147.09 Y84.963 E21.69981
G1 X147.998 Y85.456 E21.74792
G1 X148.724 Y85.887 E21.78724
G1 X151.765 Y87.784 E21.95413
G1 X152.331 Y88.155 E21.98564
G1 X152.968 Y88.598 E22.02177
G1 X153.329 Y88.864 E22.04265
G1 X156.219 Y91.04 E22.2111
G1 X156.923 Y91.602 E22.25305
G1 X157.286 Y91.91 E22.27522
G1 X157.616 Y92.201 E22.2957
G1 X160.248 Y94.573 E22.46069
G1 X160.734 Y95.03 E22.49175
G1 X161.098 Y95.389 E22.51556
G1 X161.681 Y95.995 E22.55471
G1 X164.04 Y98.533 E22.71606
G1 X164.446 Y98.988 E22.74445
G1 X164.782 Y99.383 E22.7686
G1 X165.292 Y100.018 E22.80652
G1 X167.361 Y102.68 E22.96351
G1 X167.765 Y103.215 E22.99473
G1 X168.122 Y103.717 E23.02341
G1 X168.667 Y104.536 E23.06922
G1 X170.396 Y107.217 E23.21777
G1 X170.749 Y107.783 E23.24883
G1 X171.048 Y108.293 E23.27636
G1 X171.533 Y109.181 E23.32347
G1 X173.015 Y111.996 E23.47161
G1 X173.316 Y112.589 E23.50257
G1 X173.569 Y113.125 E23.53017
G1 X173.98 Y114.064 E23.5779
G1 X175.214 Y117.012 E23.72671
G1 X175.447 Y117.591 E23.75578
G1 X175.663 Y118.177 E23.78486
G1 X175.98 Y119.128 E23.83153
G1 X176.94 Y122.142 E23.97883
G1 X177.135 Y122.785 E24.01011
G1 X177.296 Y123.378 E24.03873
G1 X177.533 Y124.367 E24.08608
G1 X178.231 Y127.483 E24.23477
G1 X178.351 Y128.051 E24.2618
G1 X178.467 Y128.698 E24.29241
G1 X178.625 Y129.777 E24.34319
G1 X179.037 Y132.873 E24.48862
G1 X179.109 Y133.479 E24.51704
G1 X179.165 Y134.11 E24.54654
G1 X179.231 Y135.253 E24.59985
G1 X179.362 Y138.256 E24.73981
G1 X179.375 Y138.686 E24.75985
G1 X179.38 Y139.053 E24.77694
G1 X179.37 Y140.671 E24.85228
G1 X179.332 Y141.982 E24.91335
G1 X179.317 Y142.313 E24.92878
G1 X179.235 Y143.647 E24.99101
G1 X179.148 Y144.766 E25.04327
G1 X179.053 Y145.768 E25.09014
G1 X178.961 Y146.508 E25.12486
G1 X178.46 Y149.911 E25.28503
G1 X178.282 Y150.988 E25.33586
G1 X178.236 Y151.228 E25.34724
G1 X178.151 Y151.628 E25.36628
G1 X178.025 Y152.169 E25.39215
G1 X177.275 Y155.304 E25.54224
G1 X177.099 Y156 E25.57567
G1 X176.947 Y156.546 E25.60206
G1 X176.843 Y156.89 E25.6188
G1 X176.672 Y157.416 E25.64455
G1 X175.545 Y160.763 E25.809
G1 X175.373 Y161.234 E25.83235
G1 X175.017 Y162.146 E25.87794
G1 X174.854 Y162.542 E25.89788
G1 X173.428 Y165.8 E26.06348
G1 X173.213 Y166.259 E26.08708
G1 X172.79 Y167.112 E26.13141
G1 X172.6 Y167.478 E26.15062
G1 X171.029 Y170.357 E26.30333
G1 X170.726 Y170.894 E26.33205
G1 X170.557 Y171.183 E26.34763
G1 X170.264 Y171.666 E26.37394
G1 X170.077 Y171.962 E26.39024
G1 X169.793 Y172.397 E26.41443
G1 X167.886 Y175.249 E26.57419
G1 X167.607 Y175.645 E26.59674
G1 X167.142 Y176.276 E26.63324
G1 X166.883 Y176.614 E26.65307
G1 X164.727 Y179.304 E26.81359
G1 X164.388 Y179.714 E26.83837
G1 X164.171 Y179.968 E26.85392
G1 X163.507 Y180.714 E26.90043
G1 X163.185 Y181.056 E26.9223
G1 X161.008 Y183.324 E27.06868
G1 X160.357 Y183.977 E27.11162
G1 X160.038 Y184.281 E27.13214
G1 X159.804 Y184.497 E27.14697
G1 X159.278 Y184.967 E27.17981
G1 X156.953 Y186.996 E27.3235
G1 X156.206 Y187.623 E27.36892
G1 X156.036 Y187.759 E27.37905
G1 X155.774 Y187.962 E27.39449
G1 X155.048 Y188.505 E27.4367
G1 X152.604 Y190.284 E27.57746
G1 X151.827 Y190.828 E27.62163
G1 X151.579 Y190.993 E27.6355
G1 X151.292 Y191.177 E27.65137
G1 X150.607 Y191.601 E27.68888
G1 X147.884 Y193.235 E27.83675
G1 X147.15 Y193.655 E27.87613
G1 X146.658 Y193.92 E27.90215
G1 X145.8 Y194.351 E27.94686
G1 X143.108 Y195.66 E28.08625
G1 X142.456 Y195.966 E28.11979
G1 X141.894 Y196.21 E28.14831
G1 X140.744 Y196.669 E28.20597
G1 X138.065 Y197.69 E28.33947
G1 X137.392 Y197.936 E28.37283
G1 X136.828 Y198.124 E28.40052
G1 X135.536 Y198.514 E28.46336
G1 X132.794 Y199.289 E28.59604
G1 X132.147 Y199.462 E28.62723
G1 X131.577 Y199.598 E28.65451
G1 X130.271 Y199.869 E28.71662
G1 X127.433 Y200.408 E28.85113
G1 X126.769 Y200.524 E28.88252
G1 X126.174 Y200.61 E28.91051
G1 X124.923 Y200.755 E28.96915
G1 X122.033 Y201.044 E29.1044
G1 X121.377 Y201.1 E29.13505
G1 X120.785 Y201.133 E29.16266
G1 X119.433 Y201.171 E29.22564
G1 X116.533 Y201.203 E29.36069
G1 X115.951 Y201.201 E29.38779
G1 X115.375 Y201.183 E29.41462
G1 X113.931 Y201.098 E29.48198
G1 X111.163 Y200.884 E29.61125
G1 X110.441 Y200.819 E29.64501
G1 X109.821 Y200.745 E29.67408
G1 X108.613 Y200.563 E29.73096
