;FLAVOR:Marlin
;TIME:6869
;Filament used: 3.91475m
;Layer height: 0.2
;MINX:64.746
;MINY:87.223
;MINZ:0.2
;MAXX:170.237
;MAXY:192.778
;MAXZ:7.8
;Generated with Cura_SteamEngine 4.5.0
M140 S80
M105
M190 S80
M104 S205
M105
M109 S205
M82 ;absolute extrusion mode
; Ender 3 Custom Start G-code
G92 E0 ; Reset Extruder
G28 ; Home all axes
G1 Z2.0 F3000 ; Move Z Axis up little to prevent scratching of Heat Bed
G1 X0.1 Y20 Z0.3 F5000.0 ; Move to start position
G1 X0.1 Y200.0 Z0.3 F1500.0 E15 ; Draw the first line
G1 X0.4 Y200.0 Z0.3 F5000.0 ; Move to side a little
G1 X0.4 Y20 Z0.3 F1500.0 E30 ; Draw the second line
G92 E0 ; Reset Extruder
G1 Z2.0 F3000 ; Move Z Axis up little to prevent scratching of Heat Bed
G1 X5 Y20 Z0.3 F5000.0 ; Move over to prevent blob squish
G92 E0
G92 E0
G1 F1500 E-6
;LAYER_COUNT:39
;LAYER:0
M107
M204 S500
M205 X20 Y20
G0 F7500 X83.374 Y99.752 Z0.2
;TYPE:SKIRT
G1 F1500 E0
G1 X84.566 Y98.768 E0.05141
G1 X84.846 Y98.545 E0.06331
G1 X85.605 Y97.96 E0.09519
G1 X86.376 Y97.381 E0.12726
G1 X86.651 Y97.181 E0.13857
G1 X87.472 Y96.606 E0.1719
G1 X88.852 Y95.678 E0.22722
G1 X89.903 Y95.018 E0.26849
G1 X90.726 Y94.52 E0.30049
G1 X91.002 Y94.359 E0.31112
G1 X91.872 Y93.868 E0.34434
G1 X92.956 Y93.279 E0.38537
G1 X93.285 Y93.107 E0.39772
G1 X94.431 Y92.535 E0.44032
G1 X95.494 Y92.028 E0.47949
G1 X96.53 Y91.571 E0.51715
G1 X97.81 Y91.034 E0.56332
G1 X98.438 Y90.787 E0.58577
G1 X99.107 Y90.533 E0.60957
G1 X100.259 Y90.116 E0.65032
G1 X101.367 Y89.752 E0.68911
G1 X102.619 Y89.364 E0.7327
G1 X104.053 Y88.965 E0.78221
G1 X105.11 Y88.695 E0.81849
G1 X105.656 Y88.568 E0.83714
G1 X106.349 Y88.416 E0.86074
G1 X107.581 Y88.162 E0.90257
G1 X108.364 Y88.02 E0.92904
G1 X109.072 Y87.901 E0.95292
G1 X110.197 Y87.727 E0.99078
G1 X110.676 Y87.665 E1.00685
G1 X111.55 Y87.56 E1.03613
G1 X112.46 Y87.463 E1.06656
G1 X113.553 Y87.371 E1.10305
G1 X114.195 Y87.327 E1.12445
G1 X115.341 Y87.264 E1.16262
G1 X115.782 Y87.25 E1.1773
G1 X116.729 Y87.229 E1.2088
G1 X117.51 Y87.223 E1.23478
G1 X118.6 Y87.236 E1.27104
G1 X119.338 Y87.255 E1.29559
G1 X120.466 Y87.305 E1.33314
G1 X120.977 Y87.338 E1.35018
G1 X122.537 Y87.464 E1.40223
G1 X124.443 Y87.684 E1.46604
G1 X125.769 Y87.875 E1.5106
G1 X126.986 Y88.085 E1.55168
G1 X127.323 Y88.149 E1.56309
G1 X129.05 Y88.505 E1.62174
G1 X129.484 Y88.604 E1.63654
G1 X130.629 Y88.883 E1.67574
G1 X131.102 Y89.008 E1.69201
G1 X132.045 Y89.27 E1.72456
G1 X132.374 Y89.367 E1.73597
G1 X133.949 Y89.858 E1.79084
G1 X134.259 Y89.96 E1.8017
G1 X135.578 Y90.419 E1.84815
G1 X135.98 Y90.571 E1.86244
G1 X137.085 Y91.001 E1.90188
G1 X137.953 Y91.352 E1.93302
G1 X138.27 Y91.487 E1.94448
G1 X139.296 Y91.941 E1.9818
G1 X140.287 Y92.401 E2.01813
G1 X140.691 Y92.599 E2.0331
G1 X141.611 Y93.061 E2.06734
G1 X141.943 Y93.234 E2.07979
G1 X143.514 Y94.091 E2.13931
G1 X143.812 Y94.26 E2.15071
G1 X144.838 Y94.865 E2.19032
G1 X145.257 Y95.125 E2.20672
G1 X146.177 Y95.71 E2.24298
G1 X147.156 Y96.353 E2.28194
G1 X147.533 Y96.614 E2.29719
G1 X148.163 Y97.059 E2.32285
G1 X149.111 Y97.75 E2.36186
G1 X149.484 Y98.036 E2.3775
G1 X150.38 Y98.736 E2.41531
G1 X151.238 Y99.429 E2.452
G1 X151.619 Y99.751 E2.46859
G1 X152.171 Y100.229 E2.49288
G1 X153.09 Y101.047 E2.5338
G1 X153.403 Y101.339 E2.54803
G1 X154.217 Y102.114 E2.58542
G1 X155.325 Y103.214 E2.63734
G1 X155.93 Y103.851 E2.66656
G1 X156.677 Y104.66 E2.70319
G1 X157.041 Y105.072 E2.72147
G1 X157.713 Y105.852 E2.75572
G1 X158.479 Y106.768 E2.79543
G1 X159.231 Y107.724 E2.83589
G1 X159.98 Y108.713 E2.87715
G1 X160.207 Y109.028 E2.89006
G1 X160.862 Y109.955 E2.92782
G1 X161.504 Y110.895 E2.96568
G1 X161.743 Y111.263 E2.98027
G1 X162.206 Y111.993 E3.00902
G1 X162.686 Y112.77 E3.0394
G1 X162.874 Y113.084 E3.05157
G1 X163.54 Y114.25 E3.09623
G1 X164.022 Y115.121 E3.12934
G1 X164.196 Y115.449 E3.14169
G1 X164.73 Y116.499 E3.18087
G1 X165.217 Y117.499 E3.21787
G1 X165.411 Y117.922 E3.23334
G1 X165.881 Y118.978 E3.27179
G1 X166.31 Y119.983 E3.30813
G1 X166.786 Y121.192 E3.35135
G1 X167.216 Y122.358 E3.39268
G1 X167.328 Y122.685 E3.40418
G1 X167.689 Y123.767 E3.44212
G1 X168.037 Y124.871 E3.48062
G1 X168.158 Y125.287 E3.49503
G1 X168.39 Y126.119 E3.52376
G1 X168.635 Y127.042 E3.55552
G1 X168.721 Y127.389 E3.56741
G1 X169.034 Y128.751 E3.61389
G1 X169.258 Y129.808 E3.64983
G1 X169.352 Y130.308 E3.66675
G1 X169.513 Y131.218 E3.69748
G1 X169.687 Y132.319 E3.73456
G1 X169.732 Y132.636 E3.74521
G1 X169.88 Y133.791 E3.78394
G1 X169.994 Y134.788 E3.81731
G1 X170.033 Y135.199 E3.83105
G1 X170.11 Y136.232 E3.8655
G1 X170.211 Y137.992 E3.92413
G1 X170.229 Y138.586 E3.9439
G1 X170.237 Y141.001 E4.02422
G1 X170.231 Y141.406 E4.03769
G1 X170.205 Y142.18 E4.06345
G1 X170.177 Y142.67 E4.07978
G1 X170.099 Y143.658 E4.11274
G1 X169.852 Y146.3 E4.20099
G1 X169.775 Y147.013 E4.22485
G1 X169.679 Y147.702 E4.24798
G1 X169.504 Y148.703 E4.28178
G1 X168.993 Y151.354 E4.37158
G1 X168.843 Y152.08 E4.39624
G1 X168.671 Y152.792 E4.4206
G1 X168.401 Y153.761 E4.45406
G1 X167.63 Y156.362 E4.54429
G1 X167.415 Y157.051 E4.56829
G1 X167.184 Y157.713 E4.59161
G1 X166.825 Y158.644 E4.6248
G1 X165.802 Y161.159 E4.7151
G1 X165.515 Y161.839 E4.73965
G1 X165.204 Y162.513 E4.76434
G1 X164.743 Y163.423 E4.79827
G1 X163.487 Y165.815 E4.88813
G1 X163.166 Y166.407 E4.91053
G1 X162.799 Y167.034 E4.93469
G1 X162.272 Y167.866 E4.96745
G1 X160.737 Y170.201 E5.06039
G1 X160.364 Y170.753 E5.08255
G1 X159.933 Y171.347 E5.10696
G1 X159.422 Y172.002 E5.13459
G1 X157.608 Y174.249 E5.23064
G1 X157.149 Y174.802 E5.25454
G1 X156.682 Y175.33 E5.27798
G1 X156.074 Y175.971 E5.30737
G1 X154.094 Y177.986 E5.40133
G1 X153.555 Y178.519 E5.42654
G1 X153.183 Y178.869 E5.44353
G1 X152.74 Y179.263 E5.46325
G1 X152.481 Y179.483 E5.47455
G1 X150.199 Y181.389 E5.57344
G1 X149.637 Y181.847 E5.59756
G1 X149.145 Y182.226 E5.61821
G1 X148.411 Y182.745 E5.64811
G1 X146.017 Y184.376 E5.74446
G1 X145.393 Y184.79 E5.76937
G1 X144.875 Y185.114 E5.78969
G1 X144.313 Y185.438 E5.81126
G1 X141.55 Y186.952 E5.91605
G1 X141.054 Y187.215 E5.93473
G1 X140.422 Y187.525 E5.95814
G1 X139.103 Y188.117 E6.00623
G1 X136.879 Y189.067 E6.08666
G1 X136.354 Y189.284 E6.10556
G1 X135.672 Y189.54 E6.12978
G1 X134.322 Y189.993 E6.17715
G1 X131.95 Y190.741 E6.25987
G1 X131.445 Y190.893 E6.27741
G1 X130.772 Y191.073 E6.30058
G1 X129.346 Y191.403 E6.34926
G1 X126.987 Y191.899 E6.42944
G1 X126.426 Y192.011 E6.44847
G1 X125.693 Y192.132 E6.47318
G1 X124.272 Y192.314 E6.52082
G1 X121.562 Y192.609 E6.61149
G1 X121.042 Y192.654 E6.62885
G1 X119.879 Y192.725 E6.66761
G1 X119.438 Y192.743 E6.68229
G1 X117.76 Y192.778 E6.73811
G1 X117.3 Y192.778 E6.75341
G1 X115.351 Y192.737 E6.81825
G1 X114.969 Y192.722 E6.83096
G1 X113.959 Y192.662 E6.86461
G1 X113.373 Y192.611 E6.88418
G1 X110.906 Y192.355 E6.96667
G1 X110.166 Y192.267 E6.99146
G1 X109.59 Y192.183 E7.01082
G1 X108.797 Y192.045 E7.03759
G1 X106.565 Y191.624 E7.11313
G1 X105.941 Y191.497 E7.13431
G1 X105.308 Y191.348 E7.15594
G1 X104.266 Y191.07 E7.19181
G1 X101.679 Y190.333 E7.28128
G1 X101.151 Y190.175 E7.29961
G1 X100.492 Y189.955 E7.32272
G1 X99.155 Y189.458 E7.37016
G1 X96.806 Y188.533 E7.45413
G1 X96.324 Y188.335 E7.47146
G1 X95.706 Y188.059 E7.49397
G1 X94.416 Y187.431 E7.54169
G1 X92.204 Y186.298 E7.62435
G1 X91.742 Y186.055 E7.64171
G1 X91.108 Y185.695 E7.66596
G1 X89.884 Y184.941 E7.71378
G1 X87.794 Y183.599 E7.79639
G1 X87.355 Y183.309 E7.81389
G1 X86.778 Y182.901 E7.83739
G1 X85.62 Y182.021 E7.88577
G1 X83.663 Y180.474 E7.96874
G1 X83.258 Y180.144 E7.98611
G1 X82.751 Y179.705 E8.00842
G1 X81.671 Y178.705 E8.05737
G1 X79.838 Y176.939 E8.14203
G1 X79.485 Y176.589 E8.15856
G1 X79.024 Y176.103 E8.18084
G1 X78.12 Y175.088 E8.22605
G1 X76.535 Y173.236 E8.30713
G1 X76.067 Y172.673 E8.33148
G1 X75.622 Y172.101 E8.35558
G1 X75.024 Y171.273 E8.38955
G1 X73.588 Y169.217 E8.47296
G1 X73.003 Y168.347 E8.50783
G1 X72.638 Y167.765 E8.53068
G1 X72.124 Y166.885 E8.56458
G1 X70.884 Y164.68 E8.64872
G1 X70.502 Y163.977 E8.67533
G1 X70.182 Y163.341 E8.69901
G1 X69.787 Y162.482 E8.73046
G1 X68.8 Y160.235 E8.81208
G1 X68.297 Y159.03 E8.85551
G1 X68.043 Y158.363 E8.87925
G1 X67.788 Y157.615 E8.90554
G1 X67.065 Y155.408 E8.98278
G1 X66.657 Y154.07 E9.02931
G1 X66.476 Y153.399 E9.05242
G1 X66.329 Y152.776 E9.07371
G1 X65.743 Y150.146 E9.16333
G1 X65.587 Y149.405 E9.18852
G1 X65.482 Y148.831 E9.20792
G1 X65.415 Y148.382 E9.22302
G1 X65.332 Y147.759 E9.24393
G1 X65.006 Y145.078 E9.33375
G1 X64.904 Y144.097 E9.36656
G1 X64.886 Y143.868 E9.3742
G1 X64.863 Y143.494 E9.38666
G1 X64.807 Y142.192 E9.43001
G1 X64.753 Y139.915 E9.50576
G1 X64.746 Y139.165 E9.53071
G1 X64.756 Y138.587 E9.54993
G1 X64.812 Y137.326 E9.59192
G1 X64.878 Y136.228 E9.6285
G1 X64.92 Y135.662 E9.64738
G1 X64.95 Y135.327 E9.65857
G1 X65.078 Y134.128 E9.69867
G1 X65.252 Y132.713 E9.74609
G1 X65.343 Y132.051 E9.76831
G1 X65.397 Y131.701 E9.78009
G1 X65.644 Y130.281 E9.82803
G1 X65.924 Y128.882 E9.87548
G1 X65.998 Y128.539 E9.88716
G1 X66.23 Y127.553 E9.92085
G1 X66.622 Y126.024 E9.97335
G1 X66.837 Y125.276 E9.99923
G1 X67.252 Y123.909 E10.04675
G1 X67.362 Y123.568 E10.05866
G1 X67.684 Y122.622 E10.0919
G1 X68.107 Y121.437 E10.13375
G1 X68.54 Y120.338 E10.17304
G1 X69.098 Y118.994 E10.22144
G1 X69.274 Y118.597 E10.23588
G1 X69.629 Y117.818 E10.26436
G1 X70.293 Y116.431 E10.3155
G1 X70.668 Y115.7 E10.34283
G1 X71.396 Y114.341 E10.3941
G1 X71.564 Y114.038 E10.40563
G1 X72.011 Y113.265 E10.43533
G1 X72.626 Y112.237 E10.47517
G1 X72.855 Y111.874 E10.48944
G1 X73.249 Y111.264 E10.5136
G1 X73.976 Y110.169 E10.55731
G1 X74.179 Y109.874 E10.56922
G1 X74.863 Y108.915 E10.6084
G1 X75.406 Y108.177 E10.63888
G1 X75.619 Y107.897 E10.65058
G1 X76.236 Y107.115 E10.68371
G1 X77.136 Y106.012 E10.73106
G1 X77.373 Y105.732 E10.74326
G1 X78.086 Y104.916 E10.7793
G1 X79.133 Y103.769 E10.83095
G1 X79.605 Y103.28 E10.85356
G1 X80.691 Y102.189 E10.90476
G1 X80.939 Y101.947 E10.91628
G1 X81.662 Y101.267 E10.94929
G1 X82.379 Y100.611 E10.98162
G1 X82.638 Y100.381 E10.99314
G1 X82.766 Y100.271 E10.99875
G0 F1350 X83.374 Y99.752
G0 F7500 X83.629 Y100.06
G1 F1500 X84.821 Y99.076 E11.05016
G1 X85.09 Y98.861 E11.06161
G1 X85.845 Y98.28 E11.0933
G1 X86.881 Y97.508 E11.13627
G1 X87.696 Y96.937 E11.16937
G1 X89.067 Y96.015 E11.22432
G1 X90.11 Y95.36 E11.26529
G1 X90.933 Y94.862 E11.29728
G1 X91.199 Y94.707 E11.30752
G1 X92.063 Y94.219 E11.34052
G1 X93.147 Y93.63 E11.38156
G1 X93.464 Y93.465 E11.39344
G1 X94.604 Y92.896 E11.43582
G1 X95.658 Y92.393 E11.47466
G1 X96.686 Y91.94 E11.51203
G1 X97.956 Y91.406 E11.55785
G1 X98.58 Y91.161 E11.58015
G1 X99.245 Y90.909 E11.6038
G1 X100.387 Y90.495 E11.6442
G1 X101.486 Y90.133 E11.68269
G1 X102.729 Y89.749 E11.72596
G1 X103.386 Y89.562 E11.74868
G1 X104.153 Y89.352 E11.77512
G1 X105.202 Y89.084 E11.81114
G1 X105.741 Y88.958 E11.82955
G1 X106.431 Y88.808 E11.85303
G1 X107.653 Y88.556 E11.89453
G1 X108.431 Y88.414 E11.92083
G1 X109.134 Y88.296 E11.94454
G1 X110.249 Y88.124 E11.98207
G1 X110.724 Y88.062 E11.998
G1 X111.594 Y87.958 E12.02714
G1 X112.494 Y87.861 E12.05725
G1 X113.581 Y87.77 E12.09353
G1 X114.217 Y87.726 E12.11473
G1 X115.354 Y87.664 E12.15261
G1 X115.792 Y87.65 E12.16718
G1 X116.734 Y87.629 E12.19852
G1 X117.505 Y87.623 E12.22417
G1 X118.595 Y87.636 E12.26042
G1 X119.322 Y87.655 E12.28461
G1 X120.441 Y87.704 E12.32186
G1 X120.946 Y87.737 E12.3387
G1 X122.158 Y87.831 E12.37913
G1 X122.493 Y87.862 E12.39032
G1 X124.387 Y88.08 E12.45373
G1 X125.701 Y88.269 E12.49788
G1 X126.918 Y88.479 E12.53896
G1 X127.243 Y88.541 E12.54996
G1 X128.961 Y88.895 E12.6083
G1 X129.39 Y88.993 E12.62294
G1 X130.527 Y89.269 E12.66185
G1 X130.995 Y89.394 E12.67797
G1 X132.255 Y89.749 E12.72151
G1 X134.129 Y90.338 E12.78684
G1 X135.437 Y90.794 E12.83291
G1 X135.835 Y90.944 E12.84706
G1 X136.935 Y91.372 E12.88632
G1 X138.109 Y91.852 E12.9285
G1 X139.129 Y92.304 E12.96561
G1 X140.111 Y92.76 E13.00162
G1 X140.512 Y92.956 E13.01647
G1 X141.432 Y93.418 E13.05071
G1 X141.751 Y93.586 E13.0627
G1 X143.61 Y94.605 E13.13321
G1 X144.627 Y95.205 E13.17248
G1 X145.042 Y95.463 E13.18874
G1 X145.958 Y96.045 E13.22483
G1 X146.929 Y96.683 E13.26347
G1 X147.303 Y96.941 E13.27859
G1 X147.929 Y97.383 E13.30407
G1 X148.868 Y98.068 E13.34273
G1 X149.238 Y98.351 E13.35823
G1 X150.129 Y99.047 E13.39583
G1 X150.98 Y99.735 E13.43223
G1 X151.357 Y100.053 E13.44863
G1 X151.906 Y100.528 E13.47278
G1 X152.818 Y101.34 E13.51339
G1 X153.128 Y101.629 E13.52749
G1 X153.938 Y102.4 E13.56468
G1 X155.035 Y103.491 E13.61614
G1 X155.637 Y104.123 E13.64517
G1 X156.378 Y104.925 E13.68149
G1 X156.739 Y105.334 E13.69963
G1 X157.407 Y106.109 E13.73366
G1 X158.166 Y107.018 E13.77305
G1 X158.474 Y107.404 E13.78947
G1 X158.913 Y107.966 E13.81319
G1 X159.656 Y108.948 E13.85415
G1 X159.881 Y109.259 E13.86692
G1 X160.532 Y110.181 E13.90446
G1 X161.169 Y111.113 E13.942
G1 X161.406 Y111.478 E13.95648
G1 X161.866 Y112.203 E13.98504
G1 X162.346 Y112.98 E14.01541
G1 X162.526 Y113.283 E14.02713
G1 X163.19 Y114.444 E14.07162
G1 X163.672 Y115.315 E14.10473
G1 X163.839 Y115.63 E14.11659
G1 X164.371 Y116.675 E14.15559
G1 X164.853 Y117.667 E14.19227
G1 X165.046 Y118.085 E14.20758
G1 X165.514 Y119.135 E14.24582
G1 X165.939 Y120.133 E14.2819
G1 X166.11 Y120.559 E14.29716
G1 X166.411 Y121.332 E14.32476
G1 X166.837 Y122.488 E14.36573
G1 X166.949 Y122.812 E14.37713
G1 X167.308 Y123.889 E14.41489
G1 X167.653 Y124.983 E14.45305
G1 X167.773 Y125.395 E14.46732
G1 X168.003 Y126.222 E14.49587
G1 X168.248 Y127.145 E14.52763
G1 X168.331 Y127.479 E14.53908
G1 X168.643 Y128.835 E14.58536
G1 X168.865 Y129.884 E14.62102
G1 X168.959 Y130.378 E14.63774
G1 X169.118 Y131.28 E14.66821
G1 X169.336 Y132.686 E14.71553
G1 X169.482 Y133.837 E14.75412
G1 X169.596 Y134.834 E14.7875
G1 X169.634 Y135.23 E14.80073
G1 X169.711 Y136.255 E14.83491
G1 X169.812 Y138.015 E14.89355
G1 X169.829 Y138.587 E14.91258
G1 X169.837 Y141.002 E14.99291
G1 X169.831 Y141.393 E15.00591
G1 X169.805 Y142.167 E15.03167
G1 X169.779 Y142.639 E15.04739
G1 X169.701 Y143.621 E15.08016
G1 X169.455 Y146.257 E15.16821
G1 X169.378 Y146.97 E15.19206
G1 X169.285 Y147.634 E15.21436
G1 X169.111 Y148.627 E15.24789
G1 X168.602 Y151.273 E15.33751
G1 X168.452 Y151.999 E15.36217
G1 X168.286 Y152.685 E15.38565
G1 X168.018 Y153.647 E15.41886
G1 X167.248 Y156.243 E15.50892
G1 X167.033 Y156.932 E15.53293
G1 X166.811 Y157.57 E15.5554
G1 X166.455 Y158.493 E15.5883
G1 X165.434 Y161.004 E15.67846
G1 X165.147 Y161.684 E15.703
G1 X164.847 Y162.333 E15.72679
G1 X164.389 Y163.238 E15.76052
G1 X163.135 Y165.625 E15.8502
G1 X162.814 Y166.217 E15.8726
G1 X162.46 Y166.821 E15.89589
G1 X161.937 Y167.647 E15.9284
G1 X160.406 Y169.977 E16.02113
G1 X160.033 Y170.529 E16.04329
G1 X159.617 Y171.102 E16.06684
G1 X159.11 Y171.751 E16.09423
G1 X157.3 Y173.994 E16.19009
G1 X156.841 Y174.547 E16.214
G1 X156.391 Y175.055 E16.23657
G1 X155.789 Y175.69 E16.26567
G1 X153.812 Y177.701 E16.35947
G1 X153.273 Y178.234 E16.38468
G1 X152.915 Y178.572 E16.40106
G1 X152.481 Y178.958 E16.42037
G1 X152.224 Y179.176 E16.43158
G1 X149.946 Y181.079 E16.53031
G1 X149.384 Y181.537 E16.55442
G1 X148.91 Y181.902 E16.57432
G1 X148.186 Y182.414 E16.60381
G1 X145.796 Y184.043 E16.70001
G1 X145.172 Y184.457 E16.72492
G1 X144.673 Y184.769 E16.74449
G1 X144.383 Y184.939 E16.75567
G1 X144.12 Y185.087 E16.76571
G1 X141.363 Y186.599 E16.87029
G1 X140.867 Y186.862 E16.88897
G1 X140.258 Y187.16 E16.91152
G1 X138.946 Y187.749 E16.95935
G1 X136.726 Y188.697 E17.03964
G1 X136.201 Y188.914 E17.05853
G1 X135.544 Y189.161 E17.08188
G1 X134.201 Y189.612 E17.129
G1 X131.835 Y190.358 E17.21151
G1 X131.33 Y190.51 E17.22905
G1 X130.681 Y190.683 E17.25139
G1 X129.263 Y191.011 E17.2998
G1 X126.908 Y191.507 E17.37984
G1 X126.347 Y191.619 E17.39887
G1 X125.641 Y191.735 E17.42267
G1 X124.229 Y191.917 E17.47002
G1 X121.519 Y192.212 E17.56069
G1 X121.018 Y192.254 E17.57741
G1 X119.855 Y192.325 E17.61616
G1 X119.43 Y192.343 E17.63031
G1 X117.752 Y192.378 E17.68613
G1 X117.308 Y192.378 E17.7009
G1 X115.359 Y192.337 E17.76574
G1 X114.992 Y192.323 E17.77795
G1 X113.992 Y192.263 E17.81127
