;FLAVOR:Marlin
M117 Time Left 2h30m15s
;Filament used: 4.84602m
;Layer height: 0.2
;MINX:60.575
;MINY:60.6
;MINZ:0.2
;MAXX:174.697
;MAXY:174.411
;MAXZ:7.8
;POSTPROCESSED
;Generated with Cura_SteamEngine 4.6.1
M140 S50
M105
M190 S50
M104 S200
M105
M109 S200
M82 ;absolute extrusion mode
; Ender 3 Custom Start G-code
G92 E0 ; Reset Extruder
G28 ; Home all axes
G1 Z2.0 F3000 ; Move Z Axis up little to prevent scratching of Heat Bed
G1 X0.1 Y20 Z0.3 F5000.0 ; Move to start position
G1 X0.1 Y200.0 Z0.3 F1500.0 E15 ; Draw the first line
G1 X0.4 Y200.0 Z0.3 F5000.0 ; Move to side a little
G1 X0.4 Y20 Z0.3 F1500.0 E30 ; Draw the second line
G92 E0 ; Reset Extruder
G1 Z2.0 F3000 ; Move Z Axis up little to prevent scratching of Heat Bed
G1 X5 Y20 Z0.3 F5000.0 ; Move over to prevent blob squish
G92 E0
G92 E0
G1 F2700 E-6
;LAYER_COUNT:39
;LAYER:0
M107
M204 S500
M205 X8 Y8
G0 F7500 X123.487 Y61.459 Z0.2
;TYPE:SKIRT
G1 F2700 E0
G1 F1500 X124.381 Y61.593 E0.02856
G1 X125.258 Y61.805 E0.05707
G1 X126.114 Y62.094 E0.08562
G1 X126.941 Y62.458 E0.11417
G1 X127.732 Y62.893 E0.14269
G1 X128.286 Y63.255 E0.1636
G1 X129.27 Y63.946 E0.2016
G1 X131.427 Y65.413 E0.28402
G1 X133.55 Y66.773 E0.36368
G1 X135.716 Y68.075 E0.44354
G1 X137.934 Y69.322 E0.52394
G1 X141.045 Y70.941 E0.63475
G1 X141.999 Y71.416 E0.66842
G1 X142.507 Y71.678 E0.68648
G1 X143.047 Y71.977 E0.70599
G1 X144.164 Y72.644 E0.74709
G1 X146.221 Y73.923 E0.82363
G1 X146.829 Y74.313 E0.84645
G1 X147.4 Y74.705 E0.86834
G1 X147.63 Y74.871 E0.8773
G1 X148.097 Y75.222 E0.89576
G1 X150.048 Y76.717 E0.97342
G1 X151.126 Y77.578 E1.01701
G1 X151.602 Y77.983 E1.03676
G1 X152.076 Y78.413 E1.05698
G1 X154.046 Y80.248 E1.14205
G1 X154.599 Y80.777 E1.16623
G1 X154.972 Y81.154 E1.18299
G1 X155.443 Y81.661 E1.20485
G1 X157.514 Y84 E1.30357
G1 X157.862 Y84.405 E1.32044
G1 X158.256 Y84.894 E1.34028
G1 X159.159 Y86.088 E1.38758
G1 X160.542 Y87.996 E1.46204
G1 X160.888 Y88.487 E1.48102
G1 X161.246 Y89.03 E1.50157
G1 X161.979 Y90.231 E1.54603
G1 X163.184 Y92.284 E1.62125
G1 X163.721 Y93.23 E1.65562
G1 X164.663 Y94.951 E1.71761
G1 X165.946 Y97.146 E1.79794
G1 X167.294 Y99.311 E1.87853
G1 X168.669 Y101.385 E1.95715
G1 X170.176 Y103.524 E2.03983
G1 X171.213 Y104.925 E2.0949
G1 X171.718 Y105.674 E2.12345
G1 X172.154 Y106.465 E2.15198
G1 X172.66 Y107.675 E2.19343
G1 X172.83 Y108.169 E2.20993
G1 X172.932 Y108.483 E2.22036
G1 X173.051 Y108.869 E2.23313
G1 X173.279 Y109.743 E2.26167
G1 X173.428 Y110.634 E2.29021
G1 X173.491 Y111.369 E2.31352
G1 X173.502 Y111.6 E2.32083
G1 X173.665 Y114.284 E2.40579
G1 X173.833 Y116.179 E2.4659
G1 X173.87 Y116.68 E2.48178
G1 X173.897 Y117.582 E2.51029
G1 X173.865 Y118.246 E2.53129
G1 X173.649 Y120.936 E2.61656
G1 X173.504 Y123.645 E2.70228
G1 X173.405 Y124.543 E2.73083
G1 X173.226 Y125.428 E2.75936
G1 X173.08 Y125.954 E2.77661
G1 X172.888 Y126.581 E2.79733
G1 X172.697 Y127.156 E2.81647
G1 X172.368 Y127.997 E2.84501
G1 X171.966 Y128.806 E2.87355
G1 X171.277 Y129.885 E2.914
G1 X171.106 Y130.119 E2.92316
G1 X169.56 Y132.253 E3.00642
G1 X168.15 Y134.323 E3.08556
G1 X166.744 Y136.516 E3.16787
G1 X165.448 Y138.669 E3.24727
G1 X164.182 Y140.913 E3.32868
G1 X163.953 Y141.337 E3.34391
G1 X162.955 Y143.108 E3.40814
G1 X161.684 Y145.263 E3.48719
G1 X161.421 Y145.697 E3.50323
G1 X161.059 Y146.253 E3.52419
G1 X160.255 Y147.4 E3.56845
G1 X158.818 Y149.373 E3.64557
G1 X158.49 Y149.812 E3.66289
G1 X158.082 Y150.323 E3.68355
G1 X157.154 Y151.409 E3.72869
G1 X155.523 Y153.243 E3.80624
G1 X155.167 Y153.633 E3.82292
G1 X154.717 Y154.095 E3.8433
G1 X153.681 Y155.092 E3.88873
G1 X151.908 Y156.735 E3.96511
G1 X151.466 Y157.133 E3.9839
G1 X150.987 Y157.539 E4.00374
G1 X149.933 Y158.374 E4.04623
G1 X147.944 Y159.888 E4.12521
G1 X147.482 Y160.23 E4.14337
G1 X146.965 Y160.589 E4.16326
G1 X145.856 Y161.306 E4.20499
G1 X144.018 Y162.444 E4.27329
G1 X142.912 Y163.099 E4.31391
G1 X142.361 Y163.403 E4.33379
G1 X141.765 Y163.707 E4.35493
G1 X140.713 Y164.227 E4.39201
G1 X138.426 Y165.397 E4.47318
G1 X136.202 Y166.617 E4.55333
G1 X133.994 Y167.911 E4.6342
G1 X131.85 Y169.248 E4.71404
G1 X129.731 Y170.656 E4.79442
G1 X128.15 Y171.761 E4.85537
G1 X127.388 Y172.245 E4.88389
G1 X126.585 Y172.659 E4.91244
G1 X125.749 Y173.001 E4.94098
G1 X124.887 Y173.268 E4.96949
G1 X124.004 Y173.457 E4.99802
G1 X123.107 Y173.568 E5.02658
G1 X122.528 Y173.597 E5.0449
G1 X121.922 Y173.61 E5.06405
G1 X121.551 Y173.611 E5.07578
G1 X120.934 Y173.598 E5.09528
G1 X119.68 Y173.545 E5.13493
G1 X117.084 Y173.471 E5.21699
G1 X114.102 Y173.477 E5.31122
G1 X112.375 Y173.508 E5.36579
G1 X112.024 Y173.509 E5.37688
G1 X111.718 Y173.504 E5.38655
G1 X110.817 Y173.449 E5.41508
G1 X109.924 Y173.315 E5.44361
G1 X109.046 Y173.102 E5.47216
G1 X108.191 Y172.812 E5.50068
G1 X107.364 Y172.448 E5.52923
G1 X106.573 Y172.013 E5.55776
G1 X106.072 Y171.686 E5.57666
G1 X104.65 Y170.699 E5.63135
G1 X103.215 Y169.686 E5.68685
G1 X101.055 Y168.249 E5.76883
G1 X98.952 Y166.935 E5.84718
G1 X96.724 Y165.63 E5.92877
G1 X93.41 Y163.827 E6.04797
G1 X90.805 Y162.376 E6.14219
G1 X90.334 Y162.104 E6.15938
G1 X89.821 Y161.787 E6.17843
G1 X88.702 Y161.047 E6.22082
G1 X86.591 Y159.589 E6.30189
G1 X86.194 Y159.307 E6.31727
G1 X85.678 Y158.915 E6.33775
G1 X84.582 Y158.023 E6.3824
G1 X82.662 Y156.401 E6.46181
G1 X82.264 Y156.054 E6.4785
G1 X81.812 Y155.635 E6.49797
G1 X80.839 Y154.675 E6.54116
G1 X79.112 Y152.903 E6.61934
G1 X78.724 Y152.495 E6.63714
G1 X78.284 Y152.002 E6.65801
G1 X77.417 Y150.96 E6.70085
G1 X75.825 Y148.973 E6.78129
G1 X75.524 Y148.586 E6.79679
G1 X75.155 Y148.082 E6.81652
G1 X74.349 Y146.899 E6.86175
G1 X73.006 Y144.844 E6.93932
G1 X72.71 Y144.377 E6.95679
G1 X72.385 Y143.827 E6.97698
G1 X71.726 Y142.623 E7.02035
G1 X70.737 Y140.734 E7.08772
G1 X69.52 Y138.484 E7.16855
G1 X68.231 Y136.258 E7.24982
G1 X66.904 Y134.107 E7.32968
G1 X65.509 Y131.982 E7.41
G1 X63.971 Y129.778 E7.49492
G1 X63.557 Y129.199 E7.51741
G1 X63.065 Y128.442 E7.54594
G1 X62.641 Y127.644 E7.57449
G1 X62.212 Y126.592 E7.61039
G1 X61.939 Y125.785 E7.63731
G1 X61.822 Y125.407 E7.64981
G1 X61.594 Y124.533 E7.67835
G1 X61.443 Y123.643 E7.70687
G1 X61.372 Y122.742 E7.73543
G1 X61.381 Y121.839 E7.76396
G1 X61.47 Y120.941 E7.79248
G1 X61.637 Y120.053 E7.82103
G1 X61.815 Y119.398 E7.84247
G1 X62.093 Y118.508 E7.87193
G1 X62.188 Y118.228 E7.88128
G1 X62.4 Y117.658 E7.90049
G1 X62.801 Y116.676 E7.93401
G1 X63.148 Y115.856 E7.96214
G1 X64.068 Y113.493 E8.04227
G1 X64.918 Y111.116 E8.12203
G1 X65.703 Y108.712 E8.20194
G1 X66.443 Y106.199 E8.28471
G1 X67.053 Y103.971 E8.3577
G1 X67.876 Y101.219 E8.44846
G1 X68.045 Y100.68 E8.46631
G1 X68.256 Y100.076 E8.48652
G1 X68.808 Y98.645 E8.53499
G1 X69.675 Y96.519 E8.60753
G1 X69.921 Y95.94 E8.62741
G1 X70.184 Y95.371 E8.64722
G1 X70.833 Y94.078 E8.69293
G1 X71.927 Y91.995 E8.76727
G1 X72.28 Y91.346 E8.79062
G1 X72.62 Y90.767 E8.81183
G1 X73.148 Y89.935 E8.84297
G1 X74.582 Y87.749 E8.92558
G1 X74.878 Y87.31 E8.9423
G1 X75.077 Y87.025 E8.95329
G1 X75.346 Y86.654 E8.96777
G1 X75.559 Y86.371 E8.97896
G1 X76.092 Y85.688 E9.00633
G1 X77.695 Y83.696 E9.08712
G1 X78.143 Y83.155 E9.10932
G1 X78.563 Y82.679 E9.12938
G1 X79.244 Y81.956 E9.16076
G1 X81.155 Y80.004 E9.24707
G1 X81.659 Y79.502 E9.26955
G1 X82.015 Y79.164 E9.28506
G1 X82.214 Y78.984 E9.29354
G1 X82.476 Y78.755 E9.30453
G1 X84.975 Y76.647 E9.40784
G1 X85.486 Y76.229 E9.4287
G1 X85.848 Y75.946 E9.44322
G1 X86.297 Y75.616 E9.46082
G1 X86.665 Y75.358 E9.47502
G1 X89.004 Y73.745 E9.5648
G1 X89.498 Y73.414 E9.58359
G1 X90.051 Y73.069 E9.60418
G1 X91.208 Y72.399 E9.64643
G1 X93.416 Y71.171 E9.72626
G1 X93.873 Y70.925 E9.74266
G1 X94.448 Y70.638 E9.76296
G1 X95.692 Y70.069 E9.80619
G1 X97.971 Y69.077 E9.88472
G1 X98.495 Y68.857 E9.90268
G1 X99.109 Y68.623 E9.92344
G1 X100.369 Y68.189 E9.96555
G1 X102.734 Y67.421 E10.04412
G1 X103.734 Y67.116 E10.07715
G1 X104.76 Y66.83 E10.11081
G1 X107.222 Y66.106 E10.19189
G1 X109.652 Y65.317 E10.27262
G1 X112.059 Y64.457 E10.35338
G1 X114.394 Y63.549 E10.43254
G1 X117.359 Y62.288 E10.53435
G1 X118.199 Y61.958 E10.56286
G1 X119.066 Y61.704 E10.59141
G1 X119.952 Y61.528 E10.61995
G1 X120.85 Y61.431 E10.64849
G1 X121.314 Y61.412 E10.66317
G1 X121.923 Y61.401 E10.68241
G1 X122.267 Y61.4 E10.69328
G1 X122.586 Y61.405 E10.70336
G1 X122.688 Y61.412 E10.70659
G0 F1350 X123.487 Y61.459
G0 F7500 X123.511 Y61.06
G1 F1500 X124.422 Y61.194 E10.73569
G1 X125.318 Y61.406 E10.76478
G1 X126.192 Y61.695 E10.79387
G1 X127.037 Y62.06 E10.82295
G1 X127.848 Y62.496 E10.85204
G1 X128.516 Y62.928 E10.87718
G1 X129.519 Y63.632 E10.9159
G1 X131.621 Y65.062 E10.99623
G1 X133.762 Y66.434 E11.07658
G1 X135.912 Y67.726 E11.15583
G1 X138.123 Y68.969 E11.23598
G1 X141.249 Y70.596 E11.34733
G1 X142.183 Y71.06 E11.38028
G1 X142.691 Y71.322 E11.39834
G1 X143.252 Y71.633 E11.41861
G1 X144.375 Y72.304 E11.45994
G1 X146.437 Y73.587 E11.53668
G1 X147.045 Y73.977 E11.5595
G1 X147.44 Y74.243 E11.57455
G1 X147.869 Y74.551 E11.59124
G1 X148.34 Y74.904 E11.60983
G1 X150.297 Y76.405 E11.68776
G1 X151.375 Y77.266 E11.73136
G1 X151.87 Y77.686 E11.75187
G1 X152.349 Y78.121 E11.77231
G1 X154.322 Y79.959 E11.85751
G1 X154.875 Y80.488 E11.8817
G1 X155.264 Y80.88 E11.89914
G1 X155.743 Y81.395 E11.92137
G1 X157.818 Y83.74 E12.02031
G1 X158.166 Y84.145 E12.03718
G1 X158.575 Y84.652 E12.05776
G1 X159.482 Y85.853 E12.10531
G1 X160.869 Y87.765 E12.17995
G1 X161.215 Y88.256 E12.19893
G1 X161.587 Y88.821 E12.2203
G1 X162.324 Y90.028 E12.26499
G1 X163.532 Y92.087 E12.34042
G1 X164.072 Y93.038 E12.37497
G1 X165.016 Y94.763 E12.43711
G1 X166.287 Y96.938 E12.5167
G1 X167.618 Y99.075 E12.59625
G1 X169.013 Y101.18 E12.67604
G1 X170.485 Y103.268 E12.75677
G1 X171.535 Y104.687 E12.81254
G1 X172.05 Y105.45 E12.84163
G1 X172.497 Y106.255 E12.87072
G1 X172.872 Y107.096 E12.89982
G1 X173.038 Y107.545 E12.91494
G1 X173.315 Y108.365 E12.94229
G1 X173.434 Y108.751 E12.95505
G1 X173.666 Y109.642 E12.98415
G1 X173.821 Y110.549 E13.01322
G1 X173.891 Y111.349 E13.03859
G1 X173.902 Y111.576 E13.04578
G1 X174.064 Y114.257 E13.13064
G1 X174.232 Y116.149 E13.19066
G1 X174.269 Y116.65 E13.20653
G1 X174.297 Y117.571 E13.23565
G1 X174.264 Y118.278 E13.25801
G1 X174.048 Y120.972 E13.34341
G1 X173.904 Y123.672 E13.42884
G1 X173.802 Y124.587 E13.45793
G1 X173.622 Y125.49 E13.48702
G1 X173.462 Y126.071 E13.50606
G1 X173.169 Y127.012 E13.53721
G1 X173.076 Y127.285 E13.54632
G1 X172.741 Y128.143 E13.57542
G1 X172.334 Y128.968 E13.60449
G1 X171.6 Y130.121 E13.64768
G1 X171.429 Y130.355 E13.65683
G1 X169.899 Y132.468 E13.73926
G1 X168.447 Y134.6 E13.82077
G1 X167.106 Y136.691 E13.89926
G1 X165.781 Y138.892 E13.98043
G1 X164.559 Y141.057 E14.05898
G1 X164.302 Y141.533 E14.07608
G1 X163.3 Y143.311 E14.14056
G1 X162.026 Y145.471 E14.2198
G1 X161.763 Y145.905 E14.23583
G1 X161.387 Y146.483 E14.25762
G1 X160.579 Y147.635 E14.30208
G1 X159.139 Y149.613 E14.37939
G1 X158.811 Y150.052 E14.3967
G1 X158.387 Y150.582 E14.41815
G1 X157.453 Y151.675 E14.46358
G1 X155.819 Y153.512 E14.54126
G1 X155.463 Y153.902 E14.55795
G1 X154.995 Y154.383 E14.57915
G1 X153.953 Y155.386 E14.62485
G1 X152.176 Y157.032 E14.70138
G1 X151.734 Y157.43 E14.72018
G1 X151.235 Y157.852 E14.74083
G1 X150.175 Y158.692 E14.78356
G1 X148.182 Y160.21 E14.86272
G1 X147.72 Y160.552 E14.88088
G1 X147.183 Y160.924 E14.90152
G1 X146.067 Y161.646 E14.94352
G1 X144.221 Y162.789 E15.01213
G1 X143.115 Y163.444 E15.05274
G1 X142.543 Y163.759 E15.07338
G1 X141.942 Y164.066 E15.0947
G1 X140.921 Y164.57 E15.13068
G1 X138.594 Y165.762 E15.21329
G1 X136.39 Y166.97 E15.2927
G1 X134.229 Y168.237 E15.37185
G1 X132.053 Y169.594 E15.45288
G1 X129.95 Y170.992 E15.53268
G1 X128.379 Y172.089 E15.59322
G1 X127.602 Y172.583 E15.62231
G1 X126.785 Y173.007 E15.6514
G1 X125.935 Y173.36 E15.68048
G1 X125.057 Y173.637 E15.70957
G1 X124.158 Y173.836 E15.73866
G1 X123.246 Y173.958 E15.76773
G1 X122.536 Y173.997 E15.7902
G1 X121.93 Y174.01 E15.80935
G1 X121.545 Y174.011 E15.82152
G1 X120.917 Y173.997 E15.84137
G1 X119.722 Y173.946 E15.87916
G1 X117.073 Y173.871 E15.96289
G1 X114.11 Y173.877 E16.05652
G1 X112.382 Y173.908 E16.11113
G1 X112.018 Y173.909 E16.12263
G1 X111.712 Y173.904 E16.1323
G1 X110.793 Y173.849 E16.16139
G1 X109.882 Y173.714 E16.19049
G1 X108.986 Y173.501 E16.21959
G1 X108.113 Y173.211 E16.24865
G1 X107.267 Y172.846 E16.27777
G1 X106.457 Y172.41 E16.30683
G1 X105.844 Y172.015 E16.32987
G1 X104.419 Y171.026 E16.38468
G1 X102.969 Y170.002 E16.44077
G1 X100.868 Y168.604 E16.52051
G1 X98.718 Y167.262 E16.60059
G1 X96.559 Y165.997 E16.67966
G1 X93.216 Y164.177 E16.79992
G1 X90.605 Y162.722 E16.89437
G1 X90.134 Y162.45 E16.91155
G1 X89.601 Y162.121 E16.93135
G1 X88.475 Y161.376 E16.97401
G1 X86.36 Y159.915 E17.05523
G1 X85.963 Y159.633 E17.07062
G1 X85.426 Y159.225 E17.09193
G1 X84.324 Y158.329 E17.1368
G1 X82.399 Y156.703 E17.21642
G1 X82.001 Y156.356 E17.23311
G1 X81.531 Y155.92 E17.25336
G1 X80.553 Y154.954 E17.2968
G1 X78.822 Y153.179 E17.37514
G1 X78.434 Y152.771 E17.39293
G1 X77.977 Y152.258 E17.41463
G1 X77.105 Y151.21 E17.45771
G1 X75.509 Y149.219 E17.53834
G1 X75.208 Y148.832 E17.55383
G1 X74.825 Y148.307 E17.57436
G1 X74.015 Y147.118 E17.61982
G1 X72.668 Y145.058 E17.69759
G1 X72.372 Y144.591 E17.71506
G1 X72.035 Y144.02 E17.73601
G1 X71.371 Y142.808 E17.77968
G1 X70.363 Y140.882 E17.84837
G1 X69.165 Y138.668 E17.92791
G1 X67.888 Y136.462 E18.00845
G1 X66.572 Y134.331 E18.08758
G1 X65.179 Y132.208 E18.16782
G1 X63.686 Y130.069 E18.25024
G1 X63.231 Y129.432 E18.27497
G1 X62.729 Y128.66 E18.30407
G1 X62.295 Y127.848 E18.33316
G1 X61.834 Y126.722 E18.37161
G1 X61.662 Y126.223 E18.38828
G1 X61.557 Y125.903 E18.39892
G1 X61.44 Y125.525 E18.41143
G1 X61.206 Y124.635 E18.4405
G1 X61.051 Y123.727 E18.46961
G1 X60.974 Y122.81 E18.49869
G1 X60.978 Y121.889 E18.52779
G1 X61.061 Y120.972 E18.55688
G1 X61.224 Y120.066 E18.58597
G1 X61.433 Y119.281 E18.61163
G1 X61.714 Y118.379 E18.64149
G1 X61.809 Y118.099 E18.65083
G1 X62.03 Y117.507 E18.67079
G1 X62.433 Y116.52 E18.70448
G1 X62.771 Y115.722 E18.73186
G1 X63.695 Y113.35 E18.8123
G1 X64.544 Y110.974 E18.89202
G1 X65.325 Y108.58 E18.97159
G1 X66.05 Y106.122 E19.05256
G1 X66.669 Y103.856 E19.12678
G1 X67.495 Y101.1 E19.21769
G1 X67.664 Y100.561 E19.23554
G1 X67.882 Y99.932 E19.25658
G1 X68.437 Y98.494 E19.30528
G1 X69.307 Y96.363 E19.37801
G1 X69.553 Y95.784 E19.39789
G1 X69.826 Y95.192 E19.41848
G1 X70.478 Y93.892 E19.46444
G1 X71.575 Y91.804 E19.53896
G1 X71.928 Y91.155 E19.56231
G1 X72.282 Y90.553 E19.58437
G1 X72.814 Y89.715 E19.61574
G1 X74.25 Y87.525 E19.69848
G1 X74.546 Y87.086 E19.71521
G1 X74.753 Y86.79 E19.72663
G1 X75.022 Y86.419 E19.74111
G1 X75.243 Y86.125 E19.75273
G1 X75.781 Y85.437 E19.78032
G1 X77.387 Y83.441 E19.86127
G1 X77.835 Y82.9 E19.88347
G1 X78.271 Y82.405 E19.90431
G1 X78.958 Y81.677 E19.93594
G1 X80.873 Y79.721 E20.02243
G1 X81.377 Y79.219 E20.04491
G1 X81.746 Y78.868 E20.061
G1 X81.945 Y78.688 E20.06948
G1 X82.218 Y78.45 E20.08092
G1 X84.722 Y76.337 E20.18445
G1 X85.233 Y75.919 E20.20531
G1 X85.609 Y75.625 E20.22039
G1 X86.067 Y75.289 E20.23833
G1 X86.438 Y75.029 E20.25265
G1 X88.782 Y73.413 E20.34261
G1 X89.276 Y73.082 E20.3614
G1 X89.85 Y72.723 E20.38279
G1 X91.013 Y72.049 E20.42526
G1 X93.227 Y70.818 E20.5053
G1 X93.684 Y70.572 E20.5217
G1 X94.28 Y70.275 E20.54274
G1 X95.532 Y69.702 E20.58625
G1 X97.817 Y68.708 E20.66498
G1 X98.341 Y68.488 E20.68294
G1 X98.978 Y68.245 E20.70448
G1 X100.245 Y67.808 E20.74683
G1 X102.616 Y67.039 E20.82559
G1 X103.627 Y66.731 E20.85898
G1 X104.603 Y66.459 E20.891
G1 X107.101 Y65.724 E20.97327
G1 X109.55 Y64.929 E21.05463
G1 X111.896 Y64.091 E21.13334
G1 X114.247 Y63.177 E21.21305
G1 X117.196 Y61.922 E21.31431
G1 X118.053 Y61.585 E21.34341
G1 X118.936 Y61.324 E21.3725
G1 X119.838 Y61.141 E21.40158
G1 X120.753 Y61.036 E21.43069
G1 X121.307 Y61.012 E21.44821
G1 X121.916 Y61.001 E21.46745
G1 X122.273 Y61 E21.47873
G1 X122.592 Y61.005 E21.48881
G1 X122.712 Y61.013 E21.49261
G0 F1350 X123.511 Y61.06
G0 F7500 X123.535 Y60.66
G1 F1500 X124.463 Y60.794 E21.52224
G1 X125.376 Y61.007 E21.55186
