;FLAVOR:Marlin
;TIME:10855
;Filament used: 5.08771m
;Layer height: 0.2
;MINX:67.398
;MINY:65.702
;MINZ:0.2
;MAXX:168.591
;MAXY:165.192
;MAXZ:7.46
;Generated with Cura_SteamEngine 4.6.1
M140 S60
M105
M190 S60
M104 S200
M105
M109 S200
M82 ;absolute extrusion mode
; Ender 3 Custom Start G-code
G92 E0 ; Reset Extruder
G28 ; Home all axes
G1 Z2.0 F3000 ; Move Z Axis up little to prevent scratching of Heat Bed
G1 X0.1 Y20 Z0.3 F5000.0 ; Move to start position
G1 X0.1 Y200.0 Z0.3 F1500.0 E15 ; Draw the first line
G1 X0.4 Y200.0 Z0.3 F5000.0 ; Move to side a little
G1 X0.4 Y20 Z0.3 F1500.0 E30 ; Draw the second line
G92 E0 ; Reset Extruder
G1 Z2.0 F3000 ; Move Z Axis up little to prevent scratching of Heat Bed
G1 X5 Y20 Z0.3 F5000.0 ; Move over to prevent blob squish
G92 E0
G92 E0
G1 F2700 E-6
;LAYER_COUNT:44
;LAYER:0
M107
M204 S500
M205 X8 Y8
G0 F7500 X120.715 Y164.073 Z0.2
;TYPE:SKIRT
G1 F2700 E0
G1 F1500 X119.743 Y164.257 E0.03126
G1 X119.427 Y164.301 E0.04134
G1 X118.528 Y164.385 E0.06987
G1 X117.624 Y164.39 E0.09843
G1 X117 Y164.347 E0.1182
G1 X116.632 Y164.31 E0.12988
G1 X115.738 Y164.18 E0.15843
G1 X114.896 Y163.982 E0.18576
G1 X114.561 Y163.888 E0.19675
G1 X114.012 Y163.717 E0.21492
G1 X113.171 Y163.428 E0.24302
G1 X111.958 Y162.992 E0.28375
G1 X109.57 Y162.208 E0.36316
G1 X107.123 Y161.481 E0.44382
G1 X105.55 Y161.055 E0.49531
G1 X104.779 Y160.829 E0.5207
G1 X104.443 Y160.723 E0.53183
G1 X101.778 Y159.854 E0.6204
G1 X101.176 Y159.649 E0.6405
G1 X100.605 Y159.435 E0.65976
G1 X100.076 Y159.215 E0.67787
G1 X97.372 Y158.021 E0.77126
G1 X96.707 Y157.716 E0.79438
G1 X96.089 Y157.408 E0.8162
G1 X95.31 Y156.982 E0.84425
G1 X93.069 Y155.704 E0.92577
G1 X92.517 Y155.379 E0.94601
G1 X92.092 Y155.114 E0.96183
G1 X91.646 Y154.821 E0.97869
G1 X91.316 Y154.595 E0.99133
G1 X88.922 Y152.884 E1.08431
G1 X88.371 Y152.478 E1.10594
G1 X87.93 Y152.133 E1.12363
G1 X87.294 Y151.594 E1.14997
G1 X85.181 Y149.731 E1.23898
G1 X84.688 Y149.284 E1.26001
G1 X84.213 Y148.825 E1.28088
G1 X83.605 Y148.194 E1.30856
G1 X82.001 Y146.469 E1.38299
G1 X81.597 Y146.023 E1.40201
G1 X81.194 Y145.549 E1.42166
G1 X80.477 Y144.652 E1.45795
G1 X79.214 Y143.013 E1.52333
G1 X78.814 Y142.48 E1.54438
G1 X78.552 Y142.115 E1.55858
G1 X78.379 Y141.862 E1.56827
G1 X78.189 Y141.573 E1.57919
G1 X76.791 Y139.371 E1.66161
G1 X76.478 Y138.862 E1.68049
G1 X76.182 Y138.346 E1.69929
G1 X75.566 Y137.195 E1.74053
G1 X74.632 Y135.359 E1.80562
G1 X74.353 Y134.792 E1.82559
G1 X74.096 Y134.227 E1.8452
G1 X73.644 Y133.143 E1.88231
G1 X72.89 Y131.243 E1.9469
G1 X72.64 Y130.587 E1.96908
G1 X72.447 Y130.034 E1.98759
G1 X72.231 Y129.345 E2.0104
G1 X71.544 Y126.998 E2.08767
G1 X71.221 Y125.833 E2.12587
G1 X70.476 Y123.286 E2.20972
G1 X69.695 Y120.877 E2.28974
G1 X68.996 Y118.893 E2.35621
G1 X68.892 Y118.613 E2.36564
G1 X68.616 Y117.753 E2.39418
G1 X68.367 Y116.561 E2.43266
G1 X68.308 Y116.161 E2.44544
G1 X68.216 Y115.263 E2.47396
G1 X68.199 Y114.717 E2.49122
G1 X68.198 Y114.484 E2.49858
G1 X68.234 Y113.581 E2.52714
G1 X68.35 Y112.686 E2.55565
G1 X68.519 Y111.9 E2.58105
G1 X68.672 Y111.305 E2.60047
G1 X68.925 Y110.473 E2.62794
G1 X69.865 Y107.79 E2.71777
G1 X70.62 Y105.416 E2.79648
G1 X71.587 Y101.981 E2.90924
G1 X71.734 Y101.435 E2.92711
G1 X71.948 Y100.702 E2.95123
G1 X72.327 Y99.512 E2.9907
G1 X72.498 Y99.014 E3.00733
G1 X72.921 Y97.831 E3.04703
G1 X73.293 Y96.842 E3.08042
G1 X73.574 Y96.15 E3.10402
G1 X74.071 Y95.005 E3.14346
G1 X74.307 Y94.495 E3.16121
G1 X74.876 Y93.305 E3.20289
G1 X75.394 Y92.265 E3.2396
G1 X75.65 Y91.783 E3.25685
G1 X76.192 Y90.807 E3.29212
G1 X76.389 Y90.467 E3.30454
G1 X77.269 Y89.02 E3.35805
G1 X77.816 Y88.155 E3.39039
G1 X78.24 Y87.522 E3.41446
G1 X78.987 Y86.46 E3.45549
G1 X79.265 Y86.086 E3.47021
G1 X80.054 Y85.047 E3.51143
G1 X80.658 Y84.273 E3.54245
G1 X80.899 Y83.975 E3.55456
G1 X81.286 Y83.518 E3.57349
G1 X82.032 Y82.661 E3.60939
G1 X82.392 Y82.268 E3.62623
G1 X83.309 Y81.288 E3.66863
G1 X84.109 Y80.462 E3.70497
G1 X84.599 Y79.984 E3.7266
G1 X85.727 Y78.933 E3.77531
G1 X86.545 Y78.211 E3.80979
G1 X87.474 Y77.42 E3.84834
G1 X88.052 Y76.955 E3.87178
G1 X89.01 Y76.214 E3.91005
G1 X89.25 Y76.037 E3.91947
G1 X90.169 Y75.372 E3.95531
G1 X91.231 Y74.63 E3.99625
G1 X91.621 Y74.373 E4.011
G1 X92.649 Y73.718 E4.04952
G1 X93.828 Y73.016 E4.09288
G1 X94.905 Y72.401 E4.13206
G1 X95.582 Y72.04 E4.15631
G1 X96.75 Y71.447 E4.1977
G1 X97.736 Y70.979 E4.23218
G1 X98.918 Y70.442 E4.2732
G1 X99.556 Y70.173 E4.29508
G1 X100.602 Y69.753 E4.3307
G1 X101.031 Y69.592 E4.34517
G1 X102.008 Y69.239 E4.378
G1 X103.236 Y68.816 E4.41904
G1 X103.75 Y68.655 E4.43606
G1 X104.642 Y68.388 E4.46548
G1 X104.966 Y68.297 E4.47611
G1 X106.294 Y67.949 E4.51949
G1 X107.443 Y67.67 E4.55685
G1 X107.77 Y67.596 E4.56744
G1 X108.196 Y67.508 E4.58119
G1 X109.507 Y67.255 E4.62337
G1 X110.697 Y67.06 E4.66148
G1 X111.759 Y66.904 E4.69539
G1 X112.756 Y66.786 E4.72711
G1 X113.939 Y66.67 E4.76467
G1 X115.252 Y66.582 E4.80625
G1 X116.54 Y66.519 E4.847
G1 X117.309 Y66.504 E4.8713
G1 X118.454 Y66.502 E4.90748
G1 X118.845 Y66.511 E4.91984
G1 X119.865 Y66.544 E4.95208
G1 X121.346 Y66.618 E4.99894
G1 X121.91 Y66.662 E5.01681
G1 X123.128 Y66.792 E5.05552
G1 X124.749 Y66.988 E5.10711
G1 X125.413 Y67.078 E5.12828
G1 X126.021 Y67.176 E5.14774
G1 X126.73 Y67.317 E5.17058
G1 X129.314 Y67.873 E5.2541
G1 X130.067 Y68.046 E5.27851
G1 X130.571 Y68.175 E5.29495
G1 X130.937 Y68.279 E5.30697
G1 X131.297 Y68.389 E5.31886
G1 X134.135 Y69.311 E5.41315
G1 X134.8 Y69.538 E5.43535
G1 X135.327 Y69.734 E5.45312
G1 X135.909 Y69.974 E5.47301
G1 X138.625 Y71.172 E5.56681
G1 X139.252 Y71.46 E5.58861
G1 X139.886 Y71.779 E5.61103
G1 X140.787 Y72.273 E5.6435
G1 X142.887 Y73.468 E5.71984
G1 X143.539 Y73.852 E5.74375
G1 X144.135 Y74.231 E5.76607
G1 X144.918 Y74.77 E5.79611
G1 X146.988 Y76.249 E5.87649
G1 X147.583 Y76.685 E5.8998
G1 X148.038 Y77.039 E5.91801
G1 X148.259 Y77.221 E5.92706
G1 X148.523 Y77.446 E5.93802
G1 X150.927 Y79.567 E6.03932
G1 X151.29 Y79.903 E6.05495
G1 X151.797 Y80.396 E6.07729
G1 X152.054 Y80.655 E6.08882
G1 X152.507 Y81.13 E6.10956
G1 X153.982 Y82.714 E6.17795
G1 X154.376 Y83.149 E6.1965
G1 X154.776 Y83.618 E6.21597
G1 X155.507 Y84.532 E6.25295
G1 X156.741 Y86.134 E6.31685
G1 X157.168 Y86.704 E6.33935
G1 X157.41 Y87.04 E6.35243
G1 X157.608 Y87.328 E6.36348
G1 X157.814 Y87.64 E6.37529
G1 X159.2 Y89.825 E6.45705
G1 X159.654 Y90.572 E6.48467
G1 X159.772 Y90.778 E6.49217
G1 X159.93 Y91.065 E6.50252
G1 X160.394 Y91.943 E6.5339
G1 X161.345 Y93.809 E6.60008
G1 X161.621 Y94.369 E6.6198
G1 X161.879 Y94.936 E6.63949
G1 X162.341 Y96.042 E6.67736
G1 X163.081 Y97.904 E6.74067
G1 X163.336 Y98.57 E6.7632
G1 X163.533 Y99.133 E6.78205
G1 X163.761 Y99.86 E6.80612
G1 X164.436 Y102.161 E6.88189
G1 X164.789 Y103.426 E6.92339
G1 X165.499 Y105.84 E7.00289
G1 X166.301 Y108.308 E7.08489
G1 X166.751 Y109.598 E7.12806
G1 X167.082 Y110.522 E7.15907
G1 X167.242 Y111.002 E7.17506
G1 X167.483 Y111.872 E7.20358
G1 X167.65 Y112.79 E7.23307
G1 X167.707 Y113.213 E7.24655
G1 X167.788 Y114.112 E7.27507
G1 X167.788 Y115.015 E7.30361
G1 X167.739 Y115.671 E7.32439
G1 X167.696 Y116.069 E7.33704
G1 X167.559 Y116.961 E7.36556
G1 X167.336 Y117.866 E7.39501
G1 X167.244 Y118.177 E7.40525
G1 X167.11 Y118.596 E7.41915
G1 X166.843 Y119.372 E7.44508
G1 X166.395 Y120.616 E7.48686
G1 X165.611 Y123.007 E7.56637
G1 X164.881 Y125.464 E7.64736
G1 X164.436 Y127.103 E7.70102
G1 X164.226 Y127.816 E7.7245
G1 X164.125 Y128.135 E7.73508
G1 X163.253 Y130.811 E7.82401
G1 X163.048 Y131.413 E7.8441
G1 X162.834 Y131.984 E7.86337
G1 X162.614 Y132.513 E7.88147
G1 X161.42 Y135.217 E7.97487
G1 X161.115 Y135.882 E7.99799
G1 X160.807 Y136.498 E8.01975
G1 X160.392 Y137.258 E8.04711
G1 X159.107 Y139.513 E8.12912
G1 X158.782 Y140.066 E8.14938
G1 X158.507 Y140.507 E8.1658
G1 X158.214 Y140.952 E8.18264
G1 X157.994 Y141.273 E8.19494
G1 X156.282 Y143.668 E8.28796
G1 X155.876 Y144.219 E8.30958
G1 X155.534 Y144.656 E8.32712
G1 X154.993 Y145.295 E8.35357
G1 X153.128 Y147.411 E8.44269
G1 X152.688 Y147.896 E8.46338
G1 X152.241 Y148.359 E8.48372
G1 X151.593 Y148.984 E8.51217
G1 X149.868 Y150.588 E8.58659
G1 X149.422 Y150.992 E8.60561
G1 X148.948 Y151.395 E8.62527
G1 X148.051 Y152.112 E8.66155
G1 X146.417 Y153.371 E8.72673
G1 X145.89 Y153.767 E8.74756
G1 X145.518 Y154.034 E8.76203
G1 X145.259 Y154.211 E8.77194
G1 X144.973 Y154.4 E8.78277
G1 X142.769 Y155.798 E8.86524
G1 X142.258 Y156.112 E8.88419
G1 X141.745 Y156.407 E8.90289
G1 X140.594 Y157.023 E8.94414
G1 X138.758 Y157.957 E9.00922
G1 X138.191 Y158.236 E9.02919
G1 X137.626 Y158.493 E9.0488
G1 X136.542 Y158.945 E9.08591
G1 X134.636 Y159.702 E9.15071
G1 X133.984 Y159.95 E9.17275
G1 X133.451 Y160.136 E9.19059
G1 X132.743 Y160.358 E9.21404
G1 X130.384 Y161.049 E9.29171
G1 X129.262 Y161.361 E9.3285
G1 X126.732 Y162.103 E9.41181
G1 X124.341 Y162.878 E9.49123
G1 X122.593 Y163.491 E9.54976
G1 X122.047 Y163.688 E9.5681
G1 X121.486 Y163.857 E9.58661
G0 F1350 X120.961 Y164.014
G0 X120.715 Y164.073
G1 F2700 E3.58661
G0 F7500 X142.944 Y144.008
G0 X145.617 Y141.514
G0 X148.192 Y138.588
G0 X150.539 Y135.29
G0 X152.454 Y131.921
G0 X154.021 Y128.37
G0 X158.23 Y115.062
G0 X158.273 Y114.558
G0 X158.217 Y114.054
G0 X154.453 Y102.01
G0 X153.13 Y98.689
G0 X151.454 Y95.413
G0 X149.552 Y92.421
G0 X147.394 Y89.631
G0 X144.899 Y86.959
G0 X142.527 Y84.872
G0 X119.885 Y66.144
G1 F2700 E9.58661
G1 F1500 X121.366 Y66.218 E9.63347
G1 X121.952 Y66.264 E9.65204
G1 X123.176 Y66.394 E9.69093
G1 X124.803 Y66.592 E9.74272
G1 X125.467 Y66.682 E9.76389
G1 X126.089 Y66.782 E9.7838
G1 X126.455 Y66.851 E9.79556
G1 X126.814 Y66.926 E9.80715
G1 X129.403 Y67.483 E9.89083
G1 X130.156 Y67.656 E9.91524
G1 X130.68 Y67.791 E9.93234
G1 X131.046 Y67.895 E9.94436
G1 X131.42 Y68.008 E9.95671
G1 X134.264 Y68.932 E10.05119
G1 X134.929 Y69.159 E10.0734
G1 X135.477 Y69.363 E10.09187
G1 X136.07 Y69.608 E10.11215
G1 X138.791 Y70.809 E10.20612
G1 X139.418 Y71.097 E10.22792
G1 X140.078 Y71.428 E10.25125
G1 X140.984 Y71.925 E10.28391
G1 X143.09 Y73.123 E10.36046
G1 X143.742 Y73.507 E10.38437
G1 X144.361 Y73.901 E10.40756
G1 X145.15 Y74.445 E10.43784
G1 X147.224 Y75.927 E10.51838
G1 X147.819 Y76.363 E10.54169
G1 X148.292 Y76.731 E10.56062
G1 X148.513 Y76.913 E10.56967
G1 X148.788 Y77.146 E10.58106
G1 X151.192 Y79.267 E10.68236
G1 X151.569 Y79.616 E10.69859
G1 X152.076 Y80.109 E10.72093
G1 X152.342 Y80.378 E10.73289
G1 X152.799 Y80.857 E10.75381
G1 X154.278 Y82.445 E10.82237
G1 X154.672 Y82.88 E10.84092
G1 X155.088 Y83.368 E10.86118
G1 X155.823 Y84.288 E10.89839
G1 X157.062 Y85.894 E10.96248
G1 X157.489 Y86.464 E10.98498
G1 X157.74 Y86.814 E10.99859
G1 X157.938 Y87.102 E11.00963
G1 X158.152 Y87.425 E11.02188
G1 X159.541 Y89.616 E11.10385
G1 X160.001 Y90.373 E11.13183
G1 X160.119 Y90.579 E11.13934
G1 X160.284 Y90.878 E11.15013
G1 X160.751 Y91.761 E11.18169
G1 X161.704 Y93.632 E11.24803
G1 X161.98 Y94.192 E11.26776
G1 X162.248 Y94.781 E11.28821
G1 X162.713 Y95.894 E11.32632
G1 X163.454 Y97.761 E11.38979
G1 X163.709 Y98.427 E11.41232
G1 X163.914 Y99.012 E11.43191
G1 X164.144 Y99.747 E11.45624
G1 X164.821 Y102.054 E11.53221
G1 X165.16 Y103.268 E11.57204
G1 X165.89 Y105.751 E11.65381
G1 X166.679 Y108.18 E11.73451
G1 X167.107 Y109.404 E11.77548
G1 X167.56 Y110.684 E11.81838
G1 X167.623 Y110.878 E11.82483
G1 X167.869 Y111.765 E11.85391
G1 X168.046 Y112.736 E11.8851
G1 X168.103 Y113.159 E11.89859
G1 X168.186 Y114.076 E11.92768
G1 X168.19 Y114.997 E11.95678
G1 X168.137 Y115.714 E11.9795
G1 X168.094 Y116.112 E11.99215
G1 X167.955 Y117.022 E12.02123
G1 X167.72 Y117.98 E12.0524
G1 X167.628 Y118.291 E12.06265
G1 X167.489 Y118.726 E12.07708
G1 X167.219 Y119.507 E12.10319
G1 X166.78 Y120.728 E12.14419
G1 X165.988 Y123.14 E12.2244
G1 X165.27 Y125.557 E12.30407
G1 X164.82 Y127.214 E12.35832
G1 X164.607 Y127.937 E12.38214
G1 X164.505 Y128.259 E12.39281
G1 X163.631 Y130.94 E12.48191
G1 X163.426 Y131.542 E12.50201
G1 X163.204 Y132.136 E12.52204
G1 X162.98 Y132.674 E12.54046
G1 X161.784 Y135.384 E12.63405
G1 X161.479 Y136.049 E12.65717
G1 X161.159 Y136.689 E12.67978
G1 X160.74 Y137.456 E12.70739
G1 X159.452 Y139.716 E12.78959
G1 X159.127 Y140.269 E12.80985
G1 X158.841 Y140.727 E12.82691
G1 X158.548 Y141.172 E12.84375
G1 X158.319 Y141.506 E12.85655
G1 X156.604 Y143.905 E12.94972
G1 X156.198 Y144.456 E12.97135
G1 X155.843 Y144.911 E12.98958
G1 X155.293 Y145.56 E13.01646
G1 X153.425 Y147.679 E13.10572
G1 X152.985 Y148.164 E13.12641
G1 X152.519 Y148.646 E13.1476
G1 X151.865 Y149.277 E13.17631
G1 X150.136 Y150.884 E13.2509
G1 X149.69 Y151.288 E13.26991
G1 X149.198 Y151.707 E13.29033
G1 X148.295 Y152.428 E13.32684
G1 X146.658 Y153.691 E13.39217
G1 X146.131 Y154.087 E13.413
G1 X145.744 Y154.365 E13.42805
G1 X145.485 Y154.542 E13.43797
G1 X145.187 Y154.738 E13.44924
G1 X142.979 Y156.139 E13.53186
G1 X142.468 Y156.453 E13.55081
G1 X141.935 Y156.76 E13.57025
G1 X140.776 Y157.379 E13.61177
G1 X138.935 Y158.316 E13.67704
G1 X138.368 Y158.595 E13.697
G1 X137.781 Y158.862 E13.71738
G1 X136.69 Y159.317 E13.75473
G1 X134.778 Y160.075 E13.81972
G1 X134.126 Y160.323 E13.84176
G1 X133.572 Y160.517 E13.86031
G1 X132.856 Y160.742 E13.88402
G1 X130.491 Y161.434 E13.96188
G1 X129.399 Y161.737 E13.99769
G1 X126.873 Y162.478 E14.08087
G1 X124.434 Y163.269 E14.16188
G1 X122.817 Y163.836 E14.21603
G1 X122.183 Y164.065 E14.23733
G1 X121.054 Y164.403 E14.27456
G1 X120.808 Y164.462 E14.28256
G1 X119.798 Y164.653 E14.31503
G1 X119.482 Y164.697 E14.32512
G1 X118.565 Y164.784 E14.35422
G1 X117.645 Y164.791 E14.38329
G1 X116.96 Y164.745 E14.40498
G1 X116.592 Y164.708 E14.41667
G1 X115.68 Y164.576 E14.44579
G1 X114.788 Y164.367 E14.47473
G1 X114.453 Y164.273 E14.48573
G1 X113.882 Y164.095 E14.50463
G1 X113.036 Y163.804 E14.5329
G1 X111.846 Y163.376 E14.57285
G1 X109.469 Y162.595 E14.65191
G1 X106.992 Y161.86 E14.73355
G1 X105.44 Y161.439 E14.78436
G1 X104.658 Y161.21 E14.81011
G1 X104.319 Y161.103 E14.82134
G1 X101.649 Y160.232 E14.91008
G1 X101.047 Y160.027 E14.93017
G1 X100.453 Y159.805 E14.95021
G1 X99.915 Y159.581 E14.96862
G1 X97.205 Y158.385 E15.06222
G1 X96.54 Y158.08 E15.08534
G1 X95.898 Y157.759 E15.10802
G1 X95.112 Y157.329 E15.13633
G1 X92.866 Y156.048 E15.21802
G1 X92.314 Y155.723 E15.23826
G1 X91.872 Y155.448 E15.25471
G1 X91.426 Y155.155 E15.27157
G1 X91.084 Y154.921 E15.28467
G1 X88.685 Y153.206 E15.37785
G1 X88.134 Y152.8 E15.39947
G1 X87.675 Y152.442 E15.41786
G1 X87.029 Y151.894 E15.44463
G1 X84.912 Y150.028 E15.5338
G1 X84.419 Y149.581 E15.55483
G1 X83.926 Y149.103 E15.57652
G1 X83.312 Y148.466 E15.60448
G1 X81.705 Y146.737 E15.67906
G1 X81.301 Y146.291 E15.69808
G1 X80.882 Y145.799 E15.7185
G1 X80.161 Y144.896 E15.75501
G1 X78.894 Y143.254 E15.82054
G1 X78.494 Y142.721 E15.8416
G1 X78.222 Y142.341 E15.85636
G1 X78.049 Y142.088 E15.86605
G1 X77.851 Y141.788 E15.8774
G1 X76.451 Y139.58 E15.96001
G1 X76.138 Y139.071 E15.97889
G1 X75.829 Y138.536 E15.99841
G1 X75.21 Y137.377 E16.03993
G1 X74.273 Y135.536 E16.1052
G1 X73.994 Y134.969 E16.12517
G1 X73.727 Y134.382 E16.14555
G1 X73.272 Y133.291 E16.1829
G1 X72.516 Y131.386 E16.24765
G1 X72.266 Y130.73 E16.26984
G1 X72.066 Y130.155 E16.28907
G1 X71.847 Y129.458 E16.31216
G1 X71.158 Y127.104 E16.38966
G1 X70.83 Y125.923 E16.42839
G1 X70.1 Y123.426 E16.51059
G1 X69.316 Y121.007 E16.59093
G1 X68.517 Y118.752 E16.66653
G1 X68.235 Y117.875 E16.69563
G1 X67.971 Y116.62 E16.73616
G1 X67.912 Y116.22 E16.74893
G1 X67.818 Y115.304 E16.77803
G1 X67.799 Y114.718 E16.79655
G1 X67.798 Y114.485 E16.80392
G1 X67.834 Y113.566 E16.83298
G1 X67.95 Y112.652 E16.86209
G1 X68.132 Y111.8 E16.88961
G1 X68.285 Y111.205 E16.90903
G1 X68.547 Y110.34 E16.93758
G1 X69.492 Y107.642 E17.02791
G1 X70.238 Y105.296 E17.1057
G1 X71.566 Y100.582 E17.26044
G1 X71.948 Y99.382 E17.30023
G1 X72.121 Y98.88 E17.31701
G1 X72.546 Y97.691 E17.35691
G1 X72.922 Y96.693 E17.39061
G1 X73.207 Y95.992 E17.41452
G1 X73.708 Y94.837 E17.4543
G1 X73.946 Y94.322 E17.47222
G1 X74.517 Y93.128 E17.51404
G1 X75.039 Y92.08 E17.55104
G1 X75.3 Y91.589 E17.56861
G1 X75.842 Y90.613 E17.60388
G1 X76.047 Y90.26 E17.61678
G1 X76.93 Y88.807 E17.6705
