;FLAVOR:Marlin
;TIME:10680
;Filament used: 13.2134m
;Layer height: 0.28
;MINX:55.21
;MINY:39.676
;MINZ:0.285
;MAXX:179.789
;MAXY:164.239
;MAXZ:21.165
;Generated with Cura_SteamEngine 4.6.1
M140 S60
M105
M190 S60
M104 S200
M105
M109 S200
M82 ;absolute extrusion mode
; Ender 3 Custom Start G-code
G92 E0 ; Reset Extruder
G28 ; Home all axes
G1 Z2.0 F3000 ; Move Z Axis up little to prevent scratching of Heat Bed
G1 X0.1 Y20 Z0.3 F5000.0 ; Move to start position
G1 X0.1 Y200.0 Z0.3 F1500.0 E15 ; Draw the first line
G1 X0.4 Y200.0 Z0.3 F5000.0 ; Move to side a little
G1 X0.4 Y20 Z0.3 F1500.0 E30 ; Draw the second line
G92 E0 ; Reset Extruder
G1 Z2.0 F3000 ; Move Z Axis up little to prevent scratching of Heat Bed
G1 X5 Y20 Z0.3 F5000.0 ; Move over to prevent blob squish
G92 E0
G92 E0
G1 F2700 E-6
;LAYER_COUNT:76
;LAYER:0
M107
M204 S500
M205 X8 Y8
G0 F7500 X119.135 Y40.516 Z0.285
;TYPE:SKIRT
G1 F2700 E0
G1 F1500 X122.113 Y40.653 E0.13423
G1 X122.77 Y40.704 E0.1639
G1 X124.318 Y40.878 E0.23404
G1 X127.39 Y41.285 E0.37357
G1 X128.06 Y41.387 E0.40408
G1 X128.566 Y41.477 E0.42722
G1 X129.409 Y41.651 E0.46598
G1 X132.261 Y42.289 E0.59757
G1 X132.924 Y42.448 E0.62827
G1 X133.414 Y42.579 E0.6511
G1 X134.654 Y42.944 E0.7093
G1 X137.648 Y43.88 E0.85055
G1 X138.261 Y44.082 E0.87961
G1 X138.819 Y44.284 E0.90633
G1 X139.737 Y44.648 E0.95079
G1 X142.228 Y45.678 E1.07216
G1 X142.849 Y45.945 E1.1026
G1 X143.35 Y46.177 E1.12746
G1 X144.924 Y46.96 E1.20661
G1 X147.499 Y48.304 E1.3374
G1 X148.087 Y48.621 E1.36747
G1 X148.608 Y48.922 E1.39457
G1 X149.435 Y49.434 E1.43836
G1 X151.663 Y50.859 E1.55744
G1 X152.954 Y51.721 E1.62734
G1 X153.394 Y52.037 E1.65173
G1 X153.833 Y52.367 E1.67646
G1 X156.046 Y54.066 E1.80208
G1 X156.687 Y54.573 E1.83888
G1 X157.034 Y54.86 E1.85915
G1 X157.77 Y55.503 E1.90316
G1 X159.998 Y57.546 E2.03926
G1 X160.677 Y58.187 E2.08131
G1 X160.993 Y58.499 E2.1013
G1 X161.727 Y59.26 E2.14891
G1 X163.806 Y61.53 E2.28751
G1 X164.392 Y62.188 E2.32718
G1 X164.671 Y62.515 E2.34653
G1 X165.218 Y63.191 E2.38569
G1 X167.186 Y65.759 E2.53136
G1 X167.597 Y66.313 E2.56242
G1 X167.889 Y66.727 E2.58523
G1 X168.784 Y68.073 E2.65801
G1 X170.063 Y70.078 E2.76509
G1 X170.459 Y70.718 E2.79898
G1 X170.742 Y71.206 E2.82438
G1 X171.512 Y72.623 E2.89699
G1 X172.512 Y74.551 E2.99479
G1 X173.18 Y75.898 E3.06248
G1 X173.419 Y76.41 E3.08793
G1 X173.52 Y76.64 E3.09924
G1 X173.731 Y77.14 E3.12367
G1 X174.87 Y79.905 E3.25832
G1 X175.155 Y80.624 E3.29314
G1 X175.333 Y81.107 E3.31632
G1 X175.886 Y82.746 E3.3942
G1 X176.482 Y84.627 E3.48305
G1 X176.758 Y85.539 E3.52595
G1 X176.882 Y85.987 E3.54688
G1 X177.152 Y87.07 E3.59714
G1 X177.832 Y90.155 E3.73938
G1 X177.978 Y90.859 E3.77175
G1 X178.082 Y91.443 E3.79846
G1 X178.266 Y92.701 E3.8557
G1 X178.61 Y95.326 E3.97491
G1 X178.705 Y96.138 E4.01172
G1 X178.753 Y96.672 E4.03586
G1 X178.859 Y98.356 E4.11183
G1 X178.959 Y100.636 E4.21459
G1 X178.986 Y101.53 E4.25486
G1 X178.989 Y102.05 E4.27827
G1 X178.945 Y104.073 E4.36938
G1 X178.879 Y105.692 E4.44234
G1 X178.823 Y106.646 E4.48537
G1 X178.766 Y107.32 E4.51582
G1 X178.734 Y107.638 E4.53021
G1 X178.595 Y108.825 E4.58403
G1 X178.262 Y111.356 E4.69897
G1 X178.178 Y111.935 E4.72531
G1 X178.072 Y112.539 E4.75292
G1 X177.851 Y113.603 E4.80185
G1 X177.746 Y114.074 E4.82358
G1 X177.104 Y116.992 E4.95811
G1 X176.96 Y117.601 E4.98629
G1 X176.817 Y118.14 E5.01139
G1 X176.552 Y119.035 E5.05342
G1 X175.696 Y121.769 E5.18242
G1 X175.467 Y122.466 E5.21545
G1 X175.321 Y122.88 E5.23521
G1 X174.971 Y123.801 E5.27958
G1 X174.842 Y124.121 E5.29511
G1 X173.739 Y126.78 E5.42473
G1 X173.441 Y127.473 E5.45869
G1 X173.213 Y127.967 E5.48319
G1 X172.418 Y129.571 E5.5638
G1 X171.406 Y131.512 E5.66236
G1 X170.952 Y132.35 E5.70527
G1 X170.711 Y132.768 E5.727
G1 X170.556 Y133.026 E5.74055
G1 X169.825 Y134.21 E5.8032
G1 X168.547 Y136.211 E5.9101
G1 X168.094 Y136.899 E5.94719
G1 X167.768 Y137.366 E5.97284
G1 X167.012 Y138.384 E6.02993
G1 X165.349 Y140.551 E6.15292
G1 X164.928 Y141.084 E6.18351
G1 X164.583 Y141.498 E6.20777
G1 X163.448 Y142.786 E6.28507
G1 X161.804 Y144.576 E6.3945
G1 X161.185 Y145.225 E6.43488
G1 X160.641 Y145.761 E6.46927
G1 X159.967 Y146.394 E6.5109
G1 X157.911 Y148.277 E6.63643
G1 X157.327 Y148.795 E6.67158
G1 X156.932 Y149.128 E6.69484
G1 X155.901 Y149.95 E6.75421
G1 X153.579 Y151.733 E6.88603
G1 X153.02 Y152.15 E6.91743
G1 X152.545 Y152.484 E6.94358
G1 X151.782 Y152.986 E6.9847
G1 X149.285 Y154.581 E7.11811
G1 X148.77 Y154.901 E7.14541
G1 X148.472 Y155.079 E7.16104
G1 X147.825 Y155.446 E7.19453
G1 X147.119 Y155.825 E7.23061
G1 X144.483 Y157.195 E7.36437
G1 X144.146 Y157.364 E7.38134
G1 X143.832 Y157.515 E7.39703
G1 X142.846 Y157.968 E7.44589
G1 X142.508 Y158.116 E7.4625
G1 X139.66 Y159.3 E7.60138
G1 X139.018 Y159.558 E7.63253
G1 X138.443 Y159.77 E7.66012
G1 X136.951 Y160.265 E7.7309
G1 X134.39 Y161.063 E7.85168
G1 X133.972 Y161.188 E7.87133
G1 X133.612 Y161.289 E7.88816
G1 X132.768 Y161.508 E7.92742
G1 X132.444 Y161.586 E7.94243
G1 X129.152 Y162.326 E8.09435
G1 X128.499 Y162.463 E8.12439
G1 X127.976 Y162.558 E8.14833
G1 X127.163 Y162.682 E8.18536
G1 X124.088 Y163.081 E8.32497
G1 X122.944 Y163.204 E8.37678
G1 X122.273 Y163.248 E8.40706
G1 X118.512 Y163.421 E8.57658
G1 X117.761 Y163.439 E8.6104
G1 X116.645 Y163.433 E8.66065
G1 X116.1 Y163.415 E8.6852
G1 X113.216 Y163.286 E8.81519
G1 X112.624 Y163.251 E8.84189
G1 X112.015 Y163.197 E8.86942
G1 X108.862 Y162.819 E9.0124
G1 X107.958 Y162.7 E9.05346
G1 X107.271 Y162.601 E9.08471
G1 X106.673 Y162.496 E9.11205
G1 X105.717 Y162.298 E9.156
G1 X102.673 Y161.623 E9.29639
G1 X101.974 Y161.457 E9.32874
G1 X101.552 Y161.347 E9.34838
G1 X100.852 Y161.145 E9.38118
G1 X97.489 Y160.099 E9.53976
G1 X96.874 Y159.898 E9.56889
G1 X96.282 Y159.684 E9.59723
G1 X95.166 Y159.24 E9.65131
G1 X92.45 Y158.105 E9.78385
G1 X91.778 Y157.812 E9.81686
G1 X91.269 Y157.573 E9.84218
G1 X90.55 Y157.21 E9.87845
G1 X87.667 Y155.707 E10.02484
G1 X87.04 Y155.369 E10.05691
G1 X86.553 Y155.089 E10.0822
G1 X85.804 Y154.629 E10.12178
G1 X83.061 Y152.888 E10.26806
G1 X82.634 Y152.608 E10.29105
G1 X82.123 Y152.25 E10.31915
G1 X80.85 Y151.298 E10.39072
G1 X78.835 Y149.75 E10.50513
G1 X78.327 Y149.349 E10.53427
G1 X77.866 Y148.963 E10.56134
G1 X77.184 Y148.354 E10.60251
G1 X74.64 Y146.021 E10.75793
G1 X74.149 Y145.557 E10.78835
G1 X73.748 Y145.157 E10.81385
G1 X73.166 Y144.539 E10.85207
G1 X71.101 Y142.28 E10.98988
G1 X70.628 Y141.747 E11.02197
G1 X70.276 Y141.329 E11.04657
G1 X69.757 Y140.675 E11.08416
G1 X67.727 Y138.039 E11.23397
G1 X67.349 Y137.534 E11.26237
G1 X66.996 Y137.032 E11.29
G1 X66.361 Y136.064 E11.34213
G1 X64.766 Y133.55 E11.47618
G1 X64.386 Y132.932 E11.50885
G1 X64.105 Y132.446 E11.53413
G1 X63.726 Y131.742 E11.57013
G1 X62.201 Y128.818 E11.71861
G1 X61.912 Y128.244 E11.74755
G1 X61.661 Y127.708 E11.7742
G1 X61.224 Y126.696 E11.82383
G1 X60.043 Y123.827 E11.96353
G1 X59.792 Y123.193 E11.99423
G1 X59.592 Y122.64 E12.02071
G1 X59.345 Y121.891 E12.05622
G1 X58.445 Y119.047 E12.19053
G1 X58.241 Y118.369 E12.22241
G1 X58.085 Y117.791 E12.24936
G1 X57.827 Y116.7 E12.29984
G1 X57.106 Y113.401 E12.45189
G1 X56.96 Y112.692 E12.48448
G1 X56.853 Y112.082 E12.51237
G1 X56.746 Y111.327 E12.5467
G1 X56.353 Y108.254 E12.68619
G1 X56.266 Y107.485 E12.72104
G1 X56.219 Y106.936 E12.74585
G1 X56.174 Y106.154 E12.78112
G1 X56.035 Y102.962 E12.92498
G1 X56.013 Y102.205 E12.95908
G1 X56.01 Y101.785 E12.97799
G1 X56.015 Y101.373 E12.99654
G1 X56.024 Y101.047 E13.01122
G1 X56.176 Y97.617 E13.16581
G1 X56.22 Y96.866 E13.19969
G1 X56.27 Y96.298 E13.22536
G1 X56.368 Y95.455 E13.26357
G1 X56.52 Y94.289 E13.31652
G1 X56.88 Y91.675 E13.43532
G1 X56.979 Y91.089 E13.46208
G1 X57.108 Y90.457 E13.49113
G1 X57.211 Y90.004 E13.51204
G1 X57.46 Y88.875 E13.5641
G1 X57.697 Y87.773 E13.61485
G1 X57.885 Y86.949 E13.65291
G1 X58.058 Y86.236 E13.68594
G1 X58.203 Y85.7 E13.71094
G1 X58.457 Y84.86 E13.75046
G1 X59.434 Y81.788 E13.8956
G1 X59.645 Y81.154 E13.92569
G1 X59.849 Y80.595 E13.95248
G1 X60.215 Y79.681 E13.99681
G1 X61.401 Y76.838 E14.13551
G1 X61.686 Y76.182 E14.16772
G1 X61.918 Y75.684 E14.19245
G1 X62.289 Y74.946 E14.22965
G1 X63.817 Y72.014 E14.37851
G1 X64.122 Y71.448 E14.40746
G1 X64.422 Y70.928 E14.43449
G1 X64.935 Y70.1 E14.47835
G1 X66.553 Y67.567 E14.61368
G1 X66.948 Y66.966 E14.64607
G1 X67.294 Y66.472 E14.67322
G1 X67.83 Y65.755 E14.71353
G1 X69.791 Y63.197 E14.85866
G1 X70.221 Y62.652 E14.88991
G1 X70.613 Y62.185 E14.91737
G1 X71.279 Y61.439 E14.96239
G1 X73.314 Y59.224 E15.09783
G1 X73.803 Y58.705 E15.12993
G1 X74.221 Y58.283 E15.15668
G1 X74.645 Y57.883 E15.18292
G1 X76.741 Y55.957 E15.31109
G1 X77.943 Y54.898 E15.38322
G1 X78.235 Y54.65 E15.40047
G1 X78.912 Y54.11 E15.43946
G1 X81.14 Y52.403 E15.56584
G1 X81.978 Y51.78 E15.61285
G1 X82.42 Y51.467 E15.63724
G1 X82.632 Y51.324 E15.64875
G1 X83.271 Y50.904 E15.68318
G1 X85.84 Y49.263 E15.82044
G1 X86.313 Y48.972 E15.84545
G1 X86.775 Y48.705 E15.86947
G1 X88.066 Y48.003 E15.93564
G1 X90.545 Y46.714 E16.06145
G1 X91.249 Y46.361 E16.0969
G1 X91.774 Y46.116 E16.12299
G1 X92.704 Y45.717 E16.16856
G1 X94.705 Y44.9 E16.26587
G1 X95.487 Y44.572 E16.30406
G1 X96.022 Y44.355 E16.33005
G1 X96.603 Y44.14 E16.35794
G1 X97.729 Y43.763 E16.41141
G1 X100.792 Y42.795 E16.55605
G1 X101.386 Y42.617 E16.58397
G1 X101.956 Y42.464 E16.61054
G1 X103.023 Y42.212 E16.65991
G1 X105.465 Y41.675 E16.77249
G1 X106.47 Y41.468 E16.81869
G1 X107.042 Y41.367 E16.84484
G1 X108.017 Y41.225 E16.8892
G1 X111.055 Y40.827 E17.02716
G1 X111.648 Y40.758 E17.05404
G1 X112.175 Y40.711 E17.07786
G1 X113.751 Y40.612 E17.14896
G1 X116.127 Y40.508 E17.25605
G1 X117.2 Y40.476 E17.30438
G1 X117.727 Y40.478 E17.32811
G1 X119.135 Y40.516 E17.39153
G0 F7500 X119.153 Y40.116
G1 F1500 X122.131 Y40.253 E17.52576
G1 X122.814 Y40.307 E17.55661
G1 X124.371 Y40.482 E17.62716
G1 X127.45 Y40.89 E17.767
G1 X128.12 Y40.992 E17.79752
G1 X128.646 Y41.085 E17.82157
G1 X129.496 Y41.261 E17.86065
G1 X132.354 Y41.9 E17.99251
G1 X133.017 Y42.059 E18.02321
G1 X133.526 Y42.195 E18.04693
G1 X134.773 Y42.562 E18.10546
G1 X137.774 Y43.501 E18.24705
G1 X138.387 Y43.703 E18.27611
G1 X138.966 Y43.912 E18.30382
G1 X139.889 Y44.279 E18.34855
G1 X142.386 Y45.311 E18.4702
G1 X143.007 Y45.578 E18.50064
G1 X143.528 Y45.819 E18.52648
G1 X145.109 Y46.605 E18.60598
G1 X147.689 Y47.952 E18.73703
G1 X148.277 Y48.269 E18.7671
G1 X148.818 Y48.581 E18.79522
G1 X149.651 Y49.097 E18.83934
G1 X151.884 Y50.526 E18.95871
G1 X152.914 Y51.209 E19.01436
G1 X153.415 Y51.558 E19.04185
G1 X153.634 Y51.717 E19.05404
G1 X154.077 Y52.049 E19.07896
G1 X156.294 Y53.752 E19.20484
G1 X156.935 Y54.259 E19.24163
G1 X157.295 Y54.558 E19.2627
G1 X158.041 Y55.208 E19.30726
G1 X160.273 Y57.255 E19.44362
G1 X160.952 Y57.896 E19.48566
G1 X161.28 Y58.22 E19.50642
G1 X162.022 Y58.99 E19.55457
G1 X164.105 Y61.264 E19.69342
G1 X164.691 Y61.922 E19.73309
G1 X164.981 Y62.262 E19.75321
G1 X165.331 Y62.69 E19.77811
G1 X165.535 Y62.948 E19.79292
G1 X167.507 Y65.52 E19.93885
G1 X167.918 Y66.074 E19.96991
G1 X168.221 Y66.505 E19.99363
G1 X169.121 Y67.857 E20.06676
G1 X170.403 Y69.868 E20.17414
G1 X170.799 Y70.508 E20.20802
G1 X171.094 Y71.014 E20.2344
G1 X171.867 Y72.438 E20.30735
G1 X172.87 Y74.374 E20.40553
G1 X173.538 Y75.721 E20.47322
G1 X173.783 Y76.245 E20.49927
G1 X173.888 Y76.484 E20.51102
G1 X174.101 Y76.987 E20.53562
G1 X175.242 Y79.758 E20.67055
G1 X175.527 Y80.477 E20.70537
G1 X175.712 Y80.979 E20.72946
G1 X176.267 Y82.625 E20.80767
G1 X176.865 Y84.512 E20.8968
G1 X177.141 Y85.424 E20.9397
G1 X177.27 Y85.889 E20.96143
G1 X177.467 Y86.666 E20.99752
G1 X177.542 Y86.984 E21.01224
G1 X178.224 Y90.074 E21.15471
G1 X178.37 Y90.778 E21.18709
G1 X178.478 Y91.384 E21.2148
G1 X178.663 Y92.649 E21.27237
G1 X179.007 Y95.279 E21.39179
G1 X179.102 Y96.091 E21.4286
G1 X179.152 Y96.647 E21.45374
G1 X179.259 Y98.338 E21.53003
G1 X179.359 Y100.624 E21.63306
G1 X179.386 Y101.518 E21.67333
G1 X179.389 Y102.058 E21.69764
G1 X179.345 Y104.089 E21.78911
G1 X179.278 Y105.713 E21.8623
G1 X179.221 Y106.679 E21.90587
G1 X179.131 Y107.684 E21.9513
G1 X178.991 Y108.877 E22.00538
G1 X178.658 Y111.414 E22.12059
G1 X178.574 Y111.993 E22.14694
G1 X178.464 Y112.62 E22.1756
G1 X178.241 Y113.69 E22.22481
G1 X178.136 Y114.161 E22.24654
G1 X177.494 Y117.084 E22.38129
G1 X177.35 Y117.693 E22.40947
G1 X177.201 Y118.253 E22.43556
G1 X176.933 Y119.155 E22.47793
G1 X176.076 Y121.894 E22.60715
G1 X175.847 Y122.591 E22.64018
G1 X175.696 Y123.021 E22.6607
G1 X175.211 Y124.274 E22.7212
G1 X174.107 Y126.938 E22.85104
G1 X173.809 Y127.631 E22.885
G1 X173.572 Y128.144 E22.91045
G1 X172.772 Y129.755 E22.99144
G1 X171.759 Y131.702 E23.09026
G1 X171.298 Y132.55 E23.13372
G1 X170.897 Y133.236 E23.16949
G1 X170.163 Y134.425 E23.23241
G1 X168.881 Y136.431 E23.3396
G1 X168.428 Y137.119 E23.37669
G1 X168.089 Y137.604 E23.40333
G1 X167.329 Y138.627 E23.46072
G1 X165.663 Y140.799 E23.58397
G1 X165.242 Y141.332 E23.61455
G1 X164.884 Y141.762 E23.63974
G1 X163.743 Y143.056 E23.71742
G1 X162.095 Y144.851 E23.82714
G1 X161.692 Y145.278 E23.85358
G1 X161.467 Y145.509 E23.8681
G1 X160.915 Y146.053 E23.90299
G1 X160.238 Y146.689 E23.94482
G1 X158.177 Y148.576 E24.07063
G1 X157.593 Y149.094 E24.10578
G1 X157.182 Y149.44 E24.12997
G1 X156.145 Y150.267 E24.18969
G1 X153.818 Y152.053 E24.32177
G1 X153.259 Y152.47 E24.35317
G1 X152.765 Y152.817 E24.38036
G1 X151.998 Y153.323 E24.42173
G1 X149.496 Y154.92 E24.55538
G1 X148.981 Y155.24 E24.58268
G1 X148.671 Y155.426 E24.59895
G1 X148.015 Y155.799 E24.63293
G1 X147.304 Y156.18 E24.66925
G1 X144.663 Y157.552 E24.80325
G1 X144.326 Y157.721 E24.82023
G1 X143.999 Y157.878 E24.83656
G1 X143.013 Y158.331 E24.88542
G1 X142.662 Y158.485 E24.90268
G1 X139.81 Y159.672 E25.04177
G1 X139.168 Y159.93 E25.07292
G1 X138.569 Y160.149 E25.10164
G1 X137.071 Y160.647 E25.17272
G1 X134.505 Y161.447 E25.29374
G1 X134.087 Y161.572 E25.31338
G1 X133.712 Y161.676 E25.33091
G1 X132.868 Y161.895 E25.37017
G1 X132.532 Y161.977 E25.38574
G1 X129.235 Y162.717 E25.53788
G1 X128.582 Y162.854 E25.56792
G1 X128.038 Y162.953 E25.59282
G1 X127.214 Y163.078 E25.63035
G1 X124.134 Y163.478 E25.77019
G1 X122.98 Y163.602 E25.82245
G1 X122.291 Y163.648 E25.85354
G1 X118.524 Y163.821 E26.02333
G1 X118.096 Y163.834 E26.04261
G1 X117.761 Y163.839 E26.0577
G1 X116.632 Y163.833 E26.10853
G1 X116.082 Y163.815 E26.13331
G1 X113.192 Y163.686 E26.26357
G1 X112.6 Y163.651 E26.29027
G1 X111.968 Y163.594 E26.31884
G1 X108.81 Y163.216 E26.46205
G1 X107.901 Y163.096 E26.50333
G1 X107.214 Y162.997 E26.53458
G1 X106.592 Y162.888 E26.56301
G1 X105.63 Y162.689 E26.60725
G1 X102.581 Y162.012 E26.74787
G1 X101.882 Y161.846 E26.78022
G1 X101.443 Y161.732 E26.80064
G1 X100.733 Y161.527 E26.83392
G1 X97.365 Y160.48 E26.99272
G1 X96.75 Y160.279 E27.02186
G1 X96.135 Y160.056 E27.05131
G1 X95.012 Y159.609 E27.10573
G1 X92.29 Y158.472 E27.23856
G1 X91.618 Y158.179 E27.27157
G1 X91.089 Y157.93 E27.29789
G1 X90.365 Y157.564 E27.33442
G1 X87.477 Y156.059 E27.48105
G1 X86.85 Y155.721 E27.51312
G1 X86.344 Y155.43 E27.5394
G1 X85.59 Y154.966 E27.57927
G1 X82.841 Y153.222 E27.72585
G1 X82.414 Y152.942 E27.74884
G1 X81.883 Y152.57 E27.77803
G1 X80.607 Y151.616 E27.84977
G1 X78.587 Y150.064 E27.96447
G1 X78.079 Y149.663 E27.99361
G1 X77.6 Y149.262 E28.02174
G1 X76.913 Y148.649 E28.06319
G1 X74.365 Y146.312 E28.21887
G1 X73.874 Y145.848 E28.24928
G1 X73.458 Y145.432 E28.27577
G1 X72.87 Y144.809 E28.31435
G1 X70.802 Y142.546 E28.45238
G1 X70.329 Y142.013 E28.48446
G1 X69.963 Y141.578 E28.51006
G1 X69.44 Y140.919 E28.54794
G1 X67.407 Y138.279 E28.69797
G1 X67.029 Y137.774 E28.72637
G1 X66.662 Y137.252 E28.7551
G1 X66.023 Y136.279 E28.80752
G1 X64.425 Y133.759 E28.94187
G1 X64.045 Y133.141 E28.97454
G1 X63.754 Y132.636 E29.00078
G1 X63.371 Y131.927 E29.03706
G1 X61.843 Y128.998 E29.18581
G1 X61.554 Y128.424 E29.21475
G1 X61.294 Y127.867 E29.24242
G1 X60.855 Y126.848 E29.29238
G1 X59.671 Y123.974 E29.43234
G1 X59.42 Y123.34 E29.46304
G1 X59.212 Y122.766 E29.49053
G1 X58.963 Y122.011 E29.52632
G1 X58.062 Y119.162 E29.66087
