;FLAVOR:Marlin
;TIME:7502
;Filament used: 6.39458m
;Layer height: 0.28
;MINX:64.476
;MINY:63.993
;MINZ:0.285
;MAXX:170.695
;MAXY:169.736
;MAXZ:7.685
;Generated with Cura_SteamEngine 4.6.1
M140 S60
M105
M190 S60
M104 S200
M105
M109 S200
M82 ;absolute extrusion mode
; Ender 3 Custom Start G-code
G92 E0 ; Reset Extruder
G28 ; Home all axes
G1 Z2.0 F3000 ; Move Z Axis up little to prevent scratching of Heat Bed
G1 X0.1 Y20 Z0.3 F5000.0 ; Move to start position
G1 X0.1 Y200.0 Z0.3 F1500.0 E15 ; Draw the first line
G1 X0.4 Y200.0 Z0.3 F5000.0 ; Move to side a little
G1 X0.4 Y20 Z0.3 F1500.0 E30 ; Draw the second line
G92 E0 ; Reset Extruder
G1 Z2.0 F3000 ; Move Z Axis up little to prevent scratching of Heat Bed
G1 X5 Y20 Z0.3 F5000.0 ; Move over to prevent blob squish
G92 E0
G92 E0
G1 F2700 E-6
;LAYER_COUNT:28
;LAYER:0
M107
M204 S500
M205 X8 Y8
G0 F7500 X117.094 Y64.856 Z0.285
;TYPE:SKIRT
G1 F2700 E0
G1 F1500 X118.528 Y64.907 E0.06461
G1 X119.388 Y64.932 E0.10335
G1 X120.386 Y64.968 E0.14831
G1 X121.567 Y65.031 E0.20156
G1 X121.997 Y65.065 E0.22098
G1 X122.942 Y65.148 E0.2637
G1 X124.027 Y65.262 E0.31282
G1 X124.408 Y65.311 E0.33012
G1 X125.602 Y65.473 E0.38437
G1 X126.738 Y65.647 E0.43612
G1 X127.931 Y65.864 E0.49071
G1 X128.855 Y66.048 E0.53313
G1 X129.16 Y66.114 E0.54718
G1 X130.323 Y66.384 E0.60094
G1 X131.158 Y66.592 E0.63969
G1 X131.458 Y66.672 E0.65367
G1 X132.443 Y66.951 E0.69976
G1 X133.06 Y67.137 E0.72878
G1 X134.079 Y67.504 E0.77754
G1 X134.747 Y67.788 E0.81023
G1 X136.17 Y68.423 E0.88039
G1 X137.166 Y68.834 E0.9289
G1 X138.984 Y69.608 E1.01787
G1 X139.825 Y69.99 E1.05946
G1 X140.66 Y70.388 E1.10111
G1 X141.374 Y70.748 E1.13711
G1 X142.32 Y71.242 E1.18517
G1 X143.483 Y71.874 E1.24476
G1 X144.331 Y72.364 E1.28886
G1 X145.218 Y72.899 E1.3355
G1 X145.855 Y73.305 E1.36951
G1 X146.63 Y73.811 E1.41119
G1 X147.76 Y74.577 E1.47265
G1 X148.58 Y75.169 E1.51819
G1 X149.512 Y75.865 E1.57057
G1 X149.811 Y76.099 E1.58766
G1 X150.606 Y76.734 E1.63347
G1 X151.253 Y77.264 E1.67113
G1 X151.624 Y77.584 E1.69319
G1 X151.912 Y77.844 E1.71066
G1 X152.56 Y78.483 E1.75164
G1 X153.177 Y79.152 E1.79262
G1 X153.942 Y80.006 E1.84424
G1 X155.31 Y81.456 E1.934
G1 X155.689 Y81.849 E1.95858
G1 X155.92 Y82.097 E1.97384
G1 X156.753 Y83.025 E2.02999
G1 X156.979 Y83.288 E2.0456
G1 X157.765 Y84.223 E2.1006
G1 X158.292 Y84.867 E2.13807
G1 X158.488 Y85.115 E2.1523
G1 X159.194 Y86.038 E2.20463
G1 X159.886 Y86.988 E2.25754
G1 X160.126 Y87.333 E2.27647
G1 X160.76 Y88.265 E2.32722
G1 X161.458 Y89.33 E2.38455
G1 X162.136 Y90.431 E2.44277
G1 X162.719 Y91.417 E2.49435
G1 X162.953 Y91.836 E2.51596
G1 X163.349 Y92.557 E2.553
G1 X163.875 Y93.554 E2.60375
G1 X164.098 Y94.003 E2.62632
G1 X164.467 Y94.764 E2.6644
G1 X164.949 Y95.803 E2.71598
G1 X165.125 Y96.208 E2.73586
G1 X165.568 Y97.252 E2.78692
G1 X165.992 Y98.301 E2.83787
G1 X166.409 Y99.431 E2.8921
G1 X166.796 Y100.547 E2.94528
G1 X166.929 Y100.958 E2.96473
G1 X167.295 Y102.134 E3.02019
G1 X167.639 Y103.31 E3.07536
G1 X167.927 Y104.407 E3.12643
G1 X168.185 Y105.467 E3.17555
G1 X168.291 Y105.955 E3.19803
G1 X168.463 Y106.785 E3.2362
G1 X168.665 Y107.854 E3.28518
G1 X168.775 Y108.525 E3.3158
G1 X168.931 Y109.553 E3.36261
G1 X169.161 Y111.211 E3.43798
G1 X169.661 Y114.408 E3.58368
G1 X169.738 Y114.854 E3.60406
G1 X169.853 Y115.75 E3.64473
G1 X169.884 Y116.316 E3.67026
G1 X169.895 Y116.717 E3.68832
G1 X169.88 Y117.62 E3.72898
G1 X169.805 Y118.377 E3.76323
G1 X169.714 Y119.019 E3.79243
G1 X169.283 Y121.676 E3.91363
G1 X169.235 Y122.026 E3.92953
G1 X168.938 Y124.019 E4.02026
G1 X168.54 Y126.442 E4.13082
G1 X168.404 Y127.176 E4.16443
G1 X168.078 Y128.694 E4.23434
G1 X167.967 Y129.16 E4.25591
G1 X167.704 Y130.197 E4.30408
G1 X167.548 Y130.755 E4.33017
G1 X167.275 Y131.69 E4.37402
G1 X166.926 Y132.82 E4.42727
G1 X166.813 Y133.16 E4.44341
G1 X166.545 Y133.942 E4.48063
G1 X166.169 Y134.979 E4.53029
G1 X165.961 Y135.512 E4.55606
G1 X165.587 Y136.443 E4.60123
G1 X165.151 Y137.478 E4.6518
G1 X164.973 Y137.874 E4.67135
G1 X164.587 Y138.713 E4.71293
G1 X164.102 Y139.725 E4.76346
G1 X163.822 Y140.272 E4.79113
G1 X163.376 Y141.121 E4.83431
G1 X162.749 Y142.271 E4.89328
G1 X162.211 Y143.193 E4.94135
G1 X161.621 Y144.165 E4.99255
G1 X161.344 Y144.6 E5.01577
G1 X160.761 Y145.486 E5.06352
G1 X160.107 Y146.448 E5.1159
G1 X159.926 Y146.705 E5.13005
G1 X159.428 Y147.391 E5.16822
G1 X158.761 Y148.277 E5.21815
G1 X158.423 Y148.705 E5.24271
G1 X157.711 Y149.588 E5.29378
G1 X156.92 Y150.536 E5.34937
G1 X156.637 Y150.859 E5.36871
G1 X156.157 Y151.395 E5.40111
G1 X155.491 Y152.119 E5.4454
G1 X153.547 Y154.18 E5.57296
G1 X152.751 Y155.065 E5.62656
G1 X151.928 Y155.881 E5.67874
G1 X151.234 Y156.489 E5.72029
G1 X150.755 Y156.887 E5.74833
G1 X149.807 Y157.649 E5.80309
G1 X148.789 Y158.419 E5.86056
G1 X147.869 Y159.087 E5.91175
G1 X147.521 Y159.329 E5.93084
G1 X146.65 Y159.92 E5.97823
G1 X145.767 Y160.501 E6.02583
G1 X145.223 Y160.838 E6.05464
G1 X144.611 Y161.208 E6.08684
G1 X143.551 Y161.827 E6.14211
G1 X142.228 Y162.549 E6.20997
G1 X141.223 Y163.073 E6.261
G1 X140.727 Y163.317 E6.28589
G1 X140.041 Y163.646 E6.32015
G1 X138.97 Y164.138 E6.37322
G1 X138.601 Y164.297 E6.39131
G1 X137.107 Y164.925 E6.46428
G1 X135.24 Y165.725 E6.55573
G1 X134.297 Y166.142 E6.60216
G1 X133.498 Y166.456 E6.64081
G1 X133.246 Y166.543 E6.65282
G1 X132.803 Y166.684 E6.67375
G1 X131.668 Y167.014 E6.72697
G1 X130.686 Y167.269 E6.77265
G1 X129.633 Y167.523 E6.82142
G1 X129.03 Y167.653 E6.8492
G1 X128.042 Y167.855 E6.8946
G1 X126.963 Y168.058 E6.94404
G1 X126.395 Y168.151 E6.96995
G1 X125.53 Y168.282 E7.00935
G1 X124.579 Y168.414 E7.05258
G1 X124.251 Y168.454 E7.06745
G1 X122.586 Y168.63 E7.14284
G1 X121.562 Y168.719 E7.18912
G1 X120.826 Y168.761 E7.22231
G1 X119.699 Y168.802 E7.27309
G1 X117.763 Y168.844 E7.36028
G1 X115.758 Y168.937 E7.45066
G1 X114.703 Y168.938 E7.49816
G1 X113.989 Y168.899 E7.53035
G1 X113.036 Y168.833 E7.57337
G1 X112.455 Y168.785 E7.59962
G1 X111.846 Y168.716 E7.62721
G1 X110.649 Y168.543 E7.68167
G1 X108.223 Y168.15 E7.79233
G1 X107.493 Y168.022 E7.8257
G1 X106.952 Y167.912 E7.85055
G1 X106.43 Y167.788 E7.87471
G1 X106.02 Y167.684 E7.89376
G1 X103.626 Y167.051 E8.00525
G1 X102.438 Y166.714 E8.06085
G1 X101.806 Y166.512 E8.09073
G1 X100.253 Y165.96 E8.16494
G1 X99.211 Y165.597 E8.21462
G1 X97.105 Y164.905 E8.31443
G1 X96.274 Y164.591 E8.35443
G1 X95.989 Y164.469 E8.36839
G1 X95.556 Y164.271 E8.38983
G1 X93.674 Y163.359 E8.48399
G1 X93.096 Y163.068 E8.51313
G1 X92.628 Y162.816 E8.53706
G1 X92.309 Y162.634 E8.5536
G1 X92.006 Y162.454 E8.56947
G1 X89.3 Y160.783 E8.71267
G1 X88.789 Y160.458 E8.73993
G1 X88.261 Y160.098 E8.76871
G1 X87.23 Y159.346 E8.82617
G1 X85.128 Y157.753 E8.94492
G1 X84.734 Y157.447 E8.96738
G1 X84.224 Y157.023 E8.99724
G1 X83.196 Y156.109 E9.05918
G1 X81.678 Y154.708 E9.15219
G1 X79.528 Y152.649 E9.28623
G1 X78.923 Y152.062 E9.32418
G1 X78.575 Y151.736 E9.34565
G1 X78.309 Y151.479 E9.36231
G1 X77.864 Y151.021 E9.39106
G1 X77.496 Y150.618 E9.41563
G1 X76.916 Y149.924 E9.45636
G1 X76.267 Y149.07 E9.50465
G1 X74.681 Y146.91 E9.62531
G1 X74.334 Y146.422 E9.65227
G1 X73.995 Y145.913 E9.67981
G1 X73.295 Y144.788 E9.73947
G1 X71.96 Y142.545 E9.85699
G1 X71.698 Y142.091 E9.8806
G1 X71.395 Y141.527 E9.90942
G1 X70.769 Y140.26 E9.97305
G1 X69.734 Y138.06 E10.08253
G1 X69.476 Y137.492 E10.11062
G1 X69.236 Y136.918 E10.13863
G1 X68.813 Y135.808 E10.19211
G1 X67.944 Y133.395 E10.30759
G1 X67.801 Y132.981 E10.32731
G1 X67.696 Y132.661 E10.34248
G1 X67.549 Y132.185 E10.36491
G1 X67.45 Y131.843 E10.38094
G1 X67.23 Y131.026 E10.41904
G1 X66.596 Y128.536 E10.53473
G1 X66.427 Y127.834 E10.56724
G1 X66.298 Y127.211 E10.59588
G1 X66.057 Y125.83 E10.65901
G1 X65.715 Y123.63 E10.75925
G1 X65.586 Y122.687 E10.80211
G1 X65.559 Y122.447 E10.81298
G1 X65.518 Y121.997 E10.83333
G1 X65.424 Y120.591 E10.89677
G1 X65.304 Y118.283 E11.00083
G1 X65.281 Y117.685 E11.02778
G1 X65.275 Y117.069 E11.05552
G1 X65.302 Y115.942 E11.10628
G1 X65.379 Y113.958 E11.19567
G1 X65.452 Y112.633 E11.25542
G1 X65.501 Y112.049 E11.28181
G1 X65.651 Y110.747 E11.34082
G1 X66.017 Y108.065 E11.4627
G1 X66.149 Y107.294 E11.49792
G1 X66.207 Y107.001 E11.51137
G1 X66.28 Y106.664 E11.5269
G1 X67.044 Y103.393 E11.67814
G1 X67.169 Y102.892 E11.70139
G1 X67.344 Y102.256 E11.73109
G1 X67.442 Y101.928 E11.7465
G1 X67.714 Y101.079 E11.78665
G1 X68.068 Y100.027 E11.83662
G1 X68.24 Y99.541 E11.85983
G1 X68.771 Y98.015 E11.93259
G1 X68.901 Y97.671 E11.94914
G1 X69.05 Y97.298 E11.96723
G1 X69.555 Y96.113 E12.02523
G1 X70.522 Y93.953 E12.13178
G1 X70.731 Y93.502 E12.15417
G1 X71.021 Y92.927 E12.18316
G1 X71.686 Y91.705 E12.2458
G1 X72.897 Y89.577 E12.35605
G1 X73.26 Y88.961 E12.38824
G1 X73.609 Y88.404 E12.41784
G1 X73.807 Y88.107 E12.43391
G1 X74.019 Y87.802 E12.45063
G1 X75.799 Y85.28 E12.58962
G1 X76.097 Y84.872 E12.61237
G1 X76.464 Y84.399 E12.63933
G1 X77.108 Y83.618 E12.68491
G1 X77.337 Y83.35 E12.70078
G1 X77.658 Y82.987 E12.7226
G1 X78.264 Y82.359 E12.76189
G1 X78.922 Y81.732 E12.80281
G1 X80.368 Y80.324 E12.89369
G1 X81.087 Y79.612 E12.93925
G1 X82.707 Y78.061 E13.04023
G1 X83.237 Y77.567 E13.07285
G1 X83.719 Y77.145 E13.1017
G1 X84.501 Y76.505 E13.1472
G1 X86.729 Y74.747 E13.27498
G1 X87.219 Y74.372 E13.30277
G1 X87.734 Y74.003 E13.33129
G1 X88.435 Y73.535 E13.36924
G1 X90.856 Y71.983 E13.49873
G1 X91.466 Y71.603 E13.53109
G1 X92.028 Y71.275 E13.56039
G1 X92.277 Y71.137 E13.5732
G1 X92.815 Y70.853 E13.6006
G1 X95.1 Y69.68 E13.71624
G1 X95.741 Y69.362 E13.74846
G1 X96.567 Y68.996 E13.78914
G1 X97.057 Y68.82 E13.81258
G1 X98.503 Y68.34 E13.88118
G1 X99.704 Y67.953 E13.938
G1 X101.495 Y67.342 E14.0232
G1 X101.834 Y67.233 E14.03924
G1 X102.538 Y67.021 E14.07234
G1 X104.981 Y66.318 E14.1868
G1 X105.471 Y66.185 E14.20966
G1 X106.075 Y66.041 E14.23762
G1 X107.456 Y65.757 E14.3011
G1 X110.025 Y65.285 E14.41871
G1 X110.534 Y65.199 E14.44196
G1 X111.154 Y65.113 E14.47014
G1 X112.521 Y64.97 E14.53202
G1 X113.733 Y64.866 E14.5868
G1 X114.487 Y64.811 E14.62084
G1 X115.638 Y64.792 E14.67267
G1 X116.685 Y64.834 E14.71985
G1 X117.094 Y64.856 E14.73829
G0 F7500 X117.134 Y64.458
G1 F1500 X118.463 Y64.505 E14.79817
G1 X119.402 Y64.532 E14.84046
G1 X120.406 Y64.569 E14.8857
G1 X121.598 Y64.632 E14.93945
G1 X122.982 Y64.75 E15.00199
G1 X124.078 Y64.865 E15.05161
G1 X124.462 Y64.915 E15.06904
G1 X125.661 Y65.078 E15.12353
G1 X126.807 Y65.253 E15.17572
G1 X128.009 Y65.472 E15.23074
G1 X129.25 Y65.724 E15.28775
G1 X130.42 Y65.996 E15.34184
G1 X131.255 Y66.204 E15.38058
G1 X131.567 Y66.287 E15.39512
G1 X132.558 Y66.568 E15.4415
G1 X133.175 Y66.754 E15.47052
G1 X134.234 Y67.136 E15.52121
G1 X134.91 Y67.423 E15.55427
G1 X136.32 Y68.052 E15.62379
G1 X137.322 Y68.466 E15.67261
G1 X139.149 Y69.243 E15.762
G1 X139.996 Y69.628 E15.80389
G1 X140.84 Y70.031 E15.846
G1 X141.559 Y70.393 E15.88225
G1 X142.509 Y70.89 E15.93052
G1 X143.683 Y71.527 E15.99066
G1 X144.536 Y72.021 E16.03505
G1 X145.433 Y72.562 E16.08221
G1 X146.073 Y72.97 E16.11639
G1 X146.854 Y73.479 E16.15836
G1 X147.72 Y74.062 E16.20536
G1 X147.994 Y74.253 E16.2204
G1 X148.819 Y74.848 E16.2662
G1 X149.759 Y75.55 E16.31903
G1 X150.06 Y75.786 E16.33625
G1 X150.859 Y76.425 E16.38231
G1 X151.506 Y76.955 E16.41997
G1 X151.892 Y77.287 E16.4429
G1 X152.18 Y77.547 E16.46037
G1 X152.853 Y78.212 E16.50297
G1 X153.475 Y78.885 E16.54423
G1 X154.247 Y79.747 E16.59633
G1 X155.606 Y81.187 E16.68548
G1 X156.217 Y81.828 E16.72536
G1 X157.057 Y82.765 E16.78202
G1 X157.285 Y83.031 E16.79779
G1 X158.074 Y83.97 E16.85302
G1 X158.806 Y84.872 E16.90532
G1 X159.516 Y85.802 E16.958
G1 X160.215 Y86.759 E17.01136
G1 X160.457 Y87.108 E17.03048
G1 X161.094 Y88.044 E17.08146
G1 X161.62 Y88.84 E17.12442
G1 X161.798 Y89.12 E17.13936
G1 X162.479 Y90.227 E17.19788
G1 X163.068 Y91.221 E17.2499
G1 X163.304 Y91.643 E17.27167
G1 X163.702 Y92.37 E17.30899
G1 X164.233 Y93.376 E17.36021
G1 X164.458 Y93.828 E17.38294
G1 X164.829 Y94.595 E17.42131
G1 X165.315 Y95.642 E17.47328
G1 X165.494 Y96.052 E17.49342
G1 X165.938 Y97.1 E17.54467
G1 X166.367 Y98.161 E17.5962
G1 X166.786 Y99.299 E17.6508
G1 X167.177 Y100.423 E17.70439
G1 X167.311 Y100.839 E17.72407
G1 X167.679 Y102.02 E17.77976
G1 X167.937 Y102.889 E17.82058
G1 X168.026 Y103.208 E17.83549
G1 X168.315 Y104.311 E17.88683
G1 X168.575 Y105.382 E17.93645
G1 X168.683 Y105.873 E17.95909
G1 X168.856 Y106.71 E17.99757
G1 X169.059 Y107.789 E18.04701
G1 X169.17 Y108.464 E18.07781
G1 X169.327 Y109.498 E18.1249
G1 X169.557 Y111.151 E18.20004
G1 X170.054 Y114.334 E18.3451
G1 X170.132 Y114.785 E18.36571
G1 X170.25 Y115.699 E18.4072
G1 X170.284 Y116.305 E18.43453
G1 X170.295 Y116.706 E18.45259
G1 X170.28 Y117.627 E18.49407
G1 X170.201 Y118.432 E18.53049
G1 X170.109 Y119.083 E18.56009
G1 X169.682 Y121.716 E18.68019
G1 X169.631 Y122.084 E18.69692
G1 X169.332 Y124.083 E18.78793
G1 X168.934 Y126.513 E18.8988
G1 X168.863 Y126.911 E18.917
G1 X168.795 Y127.26 E18.93301
G1 X168.467 Y128.786 E19.00329
G1 X168.355 Y129.256 E19.02505
G1 X168.09 Y130.304 E19.07372
G1 X167.932 Y130.866 E19.1
G1 X167.658 Y131.807 E19.14413
G1 X167.306 Y132.946 E19.19781
G1 X167.192 Y133.289 E19.21408
G1 X166.921 Y134.077 E19.2516
G1 X166.542 Y135.124 E19.30174
G1 X166.333 Y135.661 E19.32769
G1 X165.956 Y136.597 E19.37312
G1 X165.516 Y137.641 E19.42413
G1 X165.336 Y138.041 E19.44388
G1 X164.948 Y138.885 E19.48571
G1 X164.458 Y139.907 E19.53674
G1 X164.176 Y140.458 E19.56461
G1 X163.728 Y141.312 E19.60803
G1 X163.095 Y142.472 E19.66753
G1 X162.554 Y143.4 E19.7159
G1 X161.959 Y144.38 E19.76752
G1 X161.678 Y144.819 E19.79099
G1 X161.092 Y145.71 E19.839
G1 X160.25 Y146.94 E19.90612
G1 X159.748 Y147.63 E19.94454
G1 X159.075 Y148.525 E19.99496
G1 X158.734 Y148.956 E20.0197
G1 X158.019 Y149.843 E20.071
G1 X157.221 Y150.8 E20.12711
G1 X156.452 Y151.666 E20.17925
G1 X155.782 Y152.394 E20.2238
G1 X153.834 Y154.46 E20.35166
G1 X153.049 Y155.332 E20.40448
G1 X152.193 Y156.18 E20.45874
G1 X151.49 Y156.796 E20.50082
G1 X151.006 Y157.199 E20.52918
G1 X150.05 Y157.967 E20.58439
G1 X149.025 Y158.742 E20.64225
G1 X148.098 Y159.415 E20.69383
G1 X147.746 Y159.66 E20.71314
G1 X146.871 Y160.254 E20.76076
G1 X145.979 Y160.84 E20.80882
G1 X145.43 Y161.181 E20.83792
G1 X144.814 Y161.552 E20.87029
G1 X143.745 Y162.177 E20.92605
G1 X143.459 Y162.335 E20.94076
G1 X142.413 Y162.903 E20.99435
G1 X141.4 Y163.432 E21.04581
G1 X140.9 Y163.678 E21.0709
G1 X140.21 Y164.009 E21.10536
G1 X139.129 Y164.505 E21.15891
G1 X138.756 Y164.665 E21.17718
G1 X137.297 Y165.278 E21.24844
G1 X135.35 Y166.112 E21.34381
G1 X134.458 Y166.507 E21.38773
G1 X133.628 Y166.834 E21.4279
G1 X133.376 Y166.921 E21.4399
G1 X132.917 Y167.068 E21.46161
G1 X132.09 Y167.312 E21.50043
G1 X131.769 Y167.401 E21.51543
G1 X130.781 Y167.658 E21.56139
G1 X129.718 Y167.914 E21.61062
G1 X129.111 Y168.045 E21.63858
G1 X128.117 Y168.248 E21.68426
G1 X127.028 Y168.453 E21.73416
G1 X126.455 Y168.547 E21.7603
G1 X125.585 Y168.678 E21.79992
G1 X124.634 Y168.81 E21.84315
G1 X124.294 Y168.852 E21.85857
G1 X122.622 Y169.028 E21.93427
G1 X121.587 Y169.118 E21.98105
G1 X120.84 Y169.161 E22.01474
G1 X119.707 Y169.201 E22.06579
G1 X117.835 Y169.242 E22.15009
G1 X115.779 Y169.337 E22.24277
G1 X114.682 Y169.337 E22.29216
G1 X113.962 Y169.298 E22.32463
G1 X113.003 Y169.232 E22.36791
G1 X112.422 Y169.184 E22.39416
G1 X111.789 Y169.112 E22.42284
G1 X110.585 Y168.938 E22.47762
G1 X108.154 Y168.544 E22.5885
G1 X107.424 Y168.416 E22.62187
G1 X106.862 Y168.301 E22.6477
G1 X106.331 Y168.176 E22.67226
G1 X105.918 Y168.071 E22.69145
G1 X103.517 Y167.436 E22.80328
G1 X102.329 Y167.099 E22.85888
G1 X101.672 Y166.889 E22.88993
G1 X100.178 Y166.358 E22.96132
G1 X99.064 Y165.969 E23.01445
G1 X96.98 Y165.285 E23.11321
G1 X96.117 Y164.959 E23.15475
G1 X95.832 Y164.837 E23.16871
G1 X95.381 Y164.631 E23.19103
G1 X93.494 Y163.716 E23.28546
G1 X92.916 Y163.425 E23.3146
G1 X92.43 Y163.164 E23.33943
G1 X92.111 Y162.982 E23.35597
G1 X91.796 Y162.795 E23.37247
G1 X89.085 Y161.12 E23.51595
G1 X88.574 Y160.795 E23.54322
G1 X88.026 Y160.422 E23.57307
G1 X86.989 Y159.665 E23.63087
