;FLAVOR:Marlin
;TIME:5833
;Filament used: 3.97643m
;Layer height: 0.28
;MINX:64.74
;MINY:52.622
;MINZ:0.28
;MAXX:170.263
;MAXY:158.192
;MAXZ:7.84
;Generated with Cura_SteamEngine 4.5.0
M140 S60
M105
M190 S60
M104 S205
M105
M109 S205
M82 ;absolute extrusion mode
; Ender 3 Custom Start G-code
G92 E0 ; Reset Extruder
G28 ; Home all axes
G1 Z2.0 F3000 ; Move Z Axis up little to prevent scratching of Heat Bed
G1 X0.1 Y20 Z0.3 F5000.0 ; Move to start position
G1 X0.1 Y200.0 Z0.3 F1500.0 E15 ; Draw the first line
G1 X0.4 Y200.0 Z0.3 F5000.0 ; Move to side a little
G1 X0.4 Y20 Z0.3 F1500.0 E30 ; Draw the second line
G92 E0 ; Reset Extruder
G1 Z2.0 F3000 ; Move Z Axis up little to prevent scratching of Heat Bed
G1 X5 Y20 Z0.3 F5000.0 ; Move over to prevent blob squish
G92 E0
G92 E0
G1 F1500 E-6
;LAYER_COUNT:28
;LAYER:0
M107
G0 F7500 X78.184 Y70.199 Z0.28
;TYPE:SKIRT
G1 F1500 E0
G1 X78.424 Y69.931 E0.01675
G1 X79.181 Y69.119 E0.06844
G1 X79.865 Y68.408 E0.11438
G1 X80.12 Y68.151 E0.13124
G1 X81.163 Y67.137 E0.19898
G1 X81.979 Y66.37 E0.25112
G1 X82.877 Y65.575 E0.30697
G1 X83.808 Y64.782 E0.36392
G1 X84.121 Y64.526 E0.38275
G1 X85.069 Y63.771 E0.43918
G1 X85.987 Y63.064 E0.49313
G1 X86.913 Y62.393 E0.54638
G1 X87.924 Y61.691 E0.60369
G1 X88.296 Y61.445 E0.62446
G1 X89.216 Y60.849 E0.6755
G1 X90.041 Y60.329 E0.72091
G1 X90.336 Y60.149 E0.737
G1 X91.276 Y59.6 E0.78769
G1 X92.279 Y59.039 E0.8412
G1 X92.683 Y58.825 E0.86249
G1 X93.768 Y58.264 E0.91937
G1 X94.778 Y57.762 E0.97189
G1 X95.197 Y57.565 E0.99345
G1 X95.81 Y57.286 E1.02481
G1 X97.292 Y56.645 E1.09999
G1 X98.475 Y56.174 E1.15928
G1 X99.936 Y55.628 E1.23191
G1 X100.662 Y55.38 E1.26763
G1 X101.887 Y54.982 E1.32761
G1 X103.355 Y54.556 E1.39879
G1 X104.513 Y54.242 E1.45465
G1 X105.317 Y54.048 E1.49317
G1 X107.156 Y53.648 E1.5808
G1 X107.489 Y53.581 E1.59662
G1 X108.343 Y53.424 E1.63705
G1 X109.634 Y53.207 E1.69801
G1 X110.395 Y53.103 E1.73377
G1 X112.226 Y52.888 E1.81962
G1 X112.564 Y52.854 E1.83543
G1 X113.497 Y52.775 E1.87903
G1 X114.994 Y52.677 E1.94889
G1 X115.56 Y52.657 E1.97526
G1 X117.249 Y52.623 E2.05393
G1 X117.582 Y52.622 E2.06943
G1 X118.464 Y52.631 E2.1105
G1 X119.822 Y52.668 E2.17376
G1 X120.755 Y52.722 E2.21728
G1 X122.613 Y52.868 E2.30406
G1 X123.714 Y52.989 E2.35564
G1 X124.631 Y53.102 E2.39866
G1 X124.976 Y53.15 E2.41488
G1 X125.89 Y53.294 E2.45796
G1 X127.51 Y53.58 E2.53456
G1 X128.07 Y53.692 E2.56116
G1 X128.801 Y53.847 E2.59595
G1 X130.026 Y54.126 E2.65445
G1 X130.933 Y54.362 E2.69809
G1 X132.499 Y54.799 E2.7738
G1 X133.008 Y54.953 E2.79856
G1 X133.755 Y55.189 E2.83504
G1 X134.931 Y55.581 E2.89276
G1 X135.224 Y55.686 E2.90725
G1 X135.914 Y55.942 E2.94152
G1 X137.25 Y56.457 E3.00819
G1 X138.575 Y57.015 E3.07514
G1 X139.392 Y57.376 E3.11673
G1 X139.684 Y57.511 E3.13171
G1 X140.727 Y58.011 E3.18557
G1 X141.794 Y58.548 E3.24119
G1 X143.169 Y59.289 E3.31392
G1 X144.299 Y59.933 E3.37448
G1 X145.07 Y60.402 E3.41651
G1 X146.451 Y61.275 E3.49258
G1 X147.545 Y62.015 E3.55408
G1 X148.316 Y62.555 E3.59791
G1 X148.606 Y62.765 E3.61459
G1 X149.405 Y63.366 E3.66114
G1 X150.485 Y64.207 E3.72488
G1 X151.565 Y65.098 E3.79007
G1 X152.547 Y65.946 E3.85049
G1 X153.412 Y66.736 E3.90504
G1 X154.217 Y67.497 E3.95662
G1 X154.947 Y68.221 E4.00449
G1 X155.393 Y68.675 E4.03413
G1 X156.185 Y69.507 E4.08762
G1 X156.452 Y69.799 E4.10604
G1 X157.062 Y70.481 E4.14865
G1 X157.696 Y71.211 E4.19367
G1 X158.386 Y72.043 E4.244
G1 X158.765 Y72.514 E4.27215
G1 X159.521 Y73.481 E4.3293
G1 X159.734 Y73.767 E4.34591
G1 X160.242 Y74.461 E4.38596
G1 X160.805 Y75.251 E4.43113
G1 X161.454 Y76.208 E4.48497
G1 X161.788 Y76.716 E4.51328
G1 X162.397 Y77.673 E4.5661
G1 X162.633 Y78.062 E4.58729
G1 X163.12 Y78.885 E4.63182
G1 X163.499 Y79.551 E4.6675
G1 X164.379 Y81.186 E4.75396
G1 X165.063 Y82.556 E4.82526
G1 X165.673 Y83.872 E4.8928
G1 X165.796 Y84.154 E4.90713
G1 X166.498 Y85.827 E4.99161
G1 X166.948 Y86.986 E5.0495
G1 X167.087 Y87.372 E5.0686
G1 X167.592 Y88.828 E5.14036
G1 X168.03 Y90.215 E5.20809
G1 X168.189 Y90.753 E5.23422
G1 X168.496 Y91.85 E5.28726
G1 X168.606 Y92.281 E5.30797
G1 X168.825 Y93.168 E5.35051
G1 X168.996 Y93.907 E5.38583
G1 X169.258 Y95.158 E5.44535
G1 X169.376 Y95.77 E5.47437
G1 X169.586 Y96.958 E5.53055
G1 X169.736 Y97.99 E5.57911
G1 X169.972 Y99.885 E5.66803
G1 X170.059 Y100.823 E5.71189
G1 X170.2 Y102.757 E5.80219
G1 X170.223 Y103.193 E5.82252
G1 X170.26 Y104.449 E5.88103
G1 X170.263 Y105.933 E5.95013
G1 X170.24 Y106.928 E5.99647
G1 X170.194 Y107.804 E6.03732
G1 X169.96 Y110.871 E6.18055
G1 X169.904 Y111.49 E6.20949
G1 X169.826 Y112.138 E6.23988
G1 X169.66 Y113.223 E6.29099
G1 X169.174 Y115.987 E6.42167
G1 X169.071 Y116.532 E6.44749
G1 X168.92 Y117.21 E6.47984
G1 X168.619 Y118.381 E6.53614
G1 X167.892 Y120.994 E6.66243
G1 X167.748 Y121.489 E6.68643
G1 X167.531 Y122.154 E6.71901
G1 X167.119 Y123.288 E6.77519
G1 X166.13 Y125.843 E6.90276
G1 X165.934 Y126.328 E6.92712
G1 X165.664 Y126.94 E6.95827
G1 X165.068 Y128.185 E7.02254
G1 X163.923 Y130.459 E7.14109
G1 X163.683 Y130.92 E7.16529
G1 X163.343 Y131.525 E7.19761
G1 X162.571 Y132.8 E7.26701
G1 X161.286 Y134.827 E7.37877
G1 X160.975 Y135.306 E7.40536
G1 X160.561 Y135.9 E7.43907
G1 X159.716 Y137.028 E7.5047
G1 X158.169 Y139.012 E7.62185
G1 X157.824 Y139.441 E7.64748
G1 X157.384 Y139.954 E7.67895
G1 X156.423 Y141.006 E7.7453
G1 X154.699 Y142.821 E7.86186
G1 X154.319 Y143.209 E7.88715
G1 X153.832 Y143.676 E7.91857
G1 X152.762 Y144.639 E7.9856
G1 X150.868 Y146.277 E8.1022
G1 X150.484 Y146.601 E8.1256
G1 X149.922 Y147.045 E8.15895
G1 X148.762 Y147.898 E8.22599
G1 X146.722 Y149.34 E8.34232
G1 X146.296 Y149.633 E8.36639
G1 X145.701 Y150.015 E8.39932
G1 X144.484 Y150.739 E8.46526
G1 X142.279 Y151.994 E8.5834
G1 X141.844 Y152.234 E8.60653
G1 X141.218 Y152.554 E8.63927
G1 X139.912 Y153.167 E8.70644
G1 X137.647 Y154.178 E8.82194
G1 X137.165 Y154.386 E8.84639
G1 X136.5 Y154.648 E8.87967
G1 X135.146 Y155.128 E8.94656
G1 X132.784 Y155.915 E9.06249
G1 X132.261 Y156.081 E9.08804
G1 X131.61 Y156.265 E9.11954
G1 X130.214 Y156.613 E9.18653
G1 X127.811 Y157.16 E9.30129
G1 X127.29 Y157.273 E9.32611
G1 X126.56 Y157.406 E9.36067
G1 X125.156 Y157.61 E9.42673
G1 X122.712 Y157.92 E9.54144
G1 X121.941 Y158.007 E9.57757
G1 X121.363 Y158.059 E9.60459
G1 X121.054 Y158.08 E9.61902
G1 X119.745 Y158.149 E9.68005
G1 X118.823 Y158.184 E9.72302
G1 X118.414 Y158.192 E9.74206
G1 X116.873 Y158.192 E9.81382
G1 X115.828 Y158.174 E9.86249
G1 X115.153 Y158.145 E9.89395
G1 X114.191 Y158.092 E9.93881
G1 X113.372 Y158.037 E9.97703
G1 X112.953 Y158.001 E9.99661
G1 X112.284 Y157.93 E10.02794
G1 X110.418 Y157.711 E10.11542
G1 X109.376 Y157.57 E10.16439
G1 X108.55 Y157.426 E10.20343
G1 X106.477 Y157.024 E10.30175
G1 X105.833 Y156.891 E10.33238
G1 X105.191 Y156.738 E10.36311
G1 X104.264 Y156.486 E10.40784
G1 X101.643 Y155.738 E10.53476
G1 X101.115 Y155.58 E10.56042
G1 X100.443 Y155.355 E10.59342
G1 X99.096 Y154.853 E10.66035
G1 X96.7 Y153.905 E10.78034
G1 X96.294 Y153.738 E10.80078
G1 X95.663 Y153.455 E10.83298
G1 X94.362 Y152.819 E10.90041
G1 X92.091 Y151.654 E11.01926
G1 X91.664 Y151.427 E11.04178
G1 X91.062 Y151.083 E11.07406
G1 X89.837 Y150.326 E11.14112
G1 X87.77 Y148.997 E11.25554
G1 X87.298 Y148.685 E11.28189
G1 X86.723 Y148.278 E11.31469
G1 X85.617 Y147.438 E11.37936
G1 X83.746 Y145.96 E11.49039
G1 X83.242 Y145.553 E11.52055
G1 X82.831 Y145.204 E11.54566
G1 X82.47 Y144.882 E11.56818
G1 X82.17 Y144.604 E11.58723
G1 X80.024 Y142.54 E11.72587
G1 X79.461 Y141.982 E11.76278
G1 X78.987 Y141.482 E11.79487
G1 X78.088 Y140.469 E11.85793
G1 X76.725 Y138.874 E11.95562
G1 X75.872 Y137.836 E12.01818
G1 X75.432 Y137.263 E12.05183
G1 X75.002 Y136.662 E12.08624
G1 X73.495 Y134.506 E12.20872
G1 X73.086 Y133.904 E12.24261
G1 X72.811 Y133.477 E12.26626
G1 X72.539 Y133.028 E12.2907
G1 X72.214 Y132.466 E12.32093
G1 X70.885 Y130.102 E12.44721
G1 X70.522 Y129.437 E12.48249
G1 X70.278 Y128.963 E12.50732
G1 X70.038 Y128.461 E12.53323
G1 X69.794 Y127.922 E12.56078
G1 X68.691 Y125.413 E12.6884
G1 X68.401 Y124.73 E12.72295
G1 X68.223 Y124.284 E12.74531
G1 X68.031 Y123.757 E12.77143
G1 X67.811 Y123.111 E12.8032
G1 X66.967 Y120.538 E12.92929
G1 X66.745 Y119.828 E12.96393
G1 X66.556 Y119.145 E12.99693
G1 X66.309 Y118.121 E13.04598
G1 X65.738 Y115.555 E13.16839
G1 X65.583 Y114.81 E13.20382
G1 X65.492 Y114.319 E13.22707
G1 X65.408 Y113.777 E13.25261
G1 X65.322 Y113.138 E13.28263
G1 X64.985 Y110.367 E13.41261
G1 X64.937 Y109.92 E13.43355
G1 X64.905 Y109.575 E13.44968
G1 X64.866 Y109.059 E13.47378
G1 X64.845 Y108.699 E13.49057
G1 X64.795 Y107.485 E13.54715
G1 X64.748 Y105.447 E13.64207
G1 X64.74 Y104.614 E13.68086
G1 X64.748 Y104.058 E13.70675
G1 X64.807 Y102.646 E13.77256
G1 X64.847 Y101.952 E13.80493
G1 X64.898 Y101.23 E13.83863
G1 X64.925 Y100.919 E13.85316
G1 X64.999 Y100.176 E13.88793
G1 X65.157 Y98.775 E13.95358
G1 X65.297 Y97.709 E14.00365
G1 X65.402 Y97.03 E14.03564
G1 X65.529 Y96.283 E14.07092
G1 X65.724 Y95.22 E14.12125
G1 X65.823 Y94.746 E14.14379
G1 X66.076 Y93.589 E14.19894
G1 X66.328 Y92.52 E14.25008
G1 X66.445 Y92.071 E14.27169
G1 X66.655 Y91.298 E14.30899
G1 X66.983 Y90.161 E14.36409
G1 X67.142 Y89.652 E14.38892
G1 X67.443 Y88.727 E14.43422
G1 X67.968 Y87.209 E14.50901
G1 X68.254 Y86.454 E14.5466
G1 X68.69 Y85.353 E14.60174
G1 X68.89 Y84.88 E14.62565
G1 X69.32 Y83.892 E14.67583
G1 X69.818 Y82.797 E14.73184
G1 X69.991 Y82.438 E14.7504
G1 X70.375 Y81.663 E14.79067
G1 X70.881 Y80.677 E14.84228
G1 X71.078 Y80.316 E14.86143
G1 X71.678 Y79.24 E14.91879
G1 X72.223 Y78.297 E14.96951
G1 X72.493 Y77.853 E14.99371
G1 X72.874 Y77.241 E15.02727
G1 X73.511 Y76.253 E15.08201
G1 X73.746 Y75.904 E15.1016
G1 X74.435 Y74.911 E15.15788
G1 X75.091 Y73.994 E15.21038
G1 X75.345 Y73.655 E15.23011
G1 X75.854 Y72.994 E15.26896
G1 X76.565 Y72.097 E15.32225
G1 X76.836 Y71.771 E15.34199
G1 X77.586 Y70.887 E15.39597
G1 X77.81 Y70.629 E15.41188
G0 F1350 X78.184 Y70.199
G0 F7500 X78.486 Y70.461
G1 F1500 X78.718 Y70.203 E15.42804
G1 X79.469 Y69.396 E15.47937
G1 X80.153 Y68.685 E15.52531
G1 X80.399 Y68.438 E15.54154
G1 X81.438 Y67.428 E15.60902
G1 X82.246 Y66.667 E15.6607
G1 X83.137 Y65.879 E15.71609
G1 X84.061 Y65.091 E15.77263
G1 X84.371 Y64.839 E15.79124
G1 X85.314 Y64.087 E15.8474
G1 X85.962 Y63.584 E15.8856
G1 X86.223 Y63.388 E15.90079
G1 X87.142 Y62.721 E15.95367
G1 X88.144 Y62.025 E16.01048
G1 X88.514 Y61.781 E16.03112
G1 X89.429 Y61.188 E16.08189
G1 X90.539 Y60.494 E16.14284
G1 X91.472 Y59.949 E16.19316
G1 X92.467 Y59.392 E16.24626
G1 X92.867 Y59.18 E16.26734
G1 X93.947 Y58.622 E16.32394
G1 X94.949 Y58.124 E16.37604
G1 X95.363 Y57.929 E16.39735
G1 X95.971 Y57.652 E16.42846
G1 X97.441 Y57.016 E16.50304
G1 X98.617 Y56.547 E16.562
G1 X100.066 Y56.006 E16.63402
G1 X100.787 Y55.76 E16.66949
G1 X102 Y55.366 E16.72888
G1 X103.461 Y54.941 E16.79973
G1 X104.609 Y54.63 E16.85511
G1 X105.402 Y54.439 E16.89309
G1 X107.241 Y54.039 E16.98073
G1 X107.562 Y53.975 E16.99597
G1 X108.41 Y53.818 E17.03612
G1 X109.69 Y53.603 E17.09656
G1 X110.442 Y53.5 E17.1319
G1 X112.273 Y53.285 E17.21775
G1 X112.598 Y53.252 E17.23296
G1 X113.525 Y53.174 E17.27628
G1 X115.01 Y53.077 E17.34557
G1 X115.568 Y53.057 E17.37157
G1 X117.257 Y53.023 E17.45024
G1 X117.578 Y53.022 E17.46518
G1 X118.46 Y53.031 E17.50625
G1 X119.8 Y53.067 E17.56867
G1 X120.725 Y53.121 E17.61182
G1 X122.57 Y53.266 E17.69799
G1 X123.665 Y53.386 E17.74929
G1 X124.582 Y53.499 E17.79231
G1 X124.914 Y53.545 E17.80792
G1 X125.821 Y53.688 E17.85067
G1 X127.432 Y53.972 E17.92684
G1 X127.988 Y54.084 E17.95325
G1 X128.713 Y54.237 E17.98776
G1 X129.602 Y54.436 E18.03018
G1 X129.926 Y54.514 E18.04569
G1 X130.826 Y54.747 E18.08898
G1 X132.383 Y55.182 E18.16426
G1 X132.888 Y55.335 E18.18883
G1 X133.629 Y55.569 E18.22501
G1 X134.796 Y55.957 E18.28228
G1 X135.771 Y56.316 E18.33066
G1 X137.097 Y56.827 E18.39683
G1 X138.413 Y57.381 E18.46332
G1 X139.512 Y57.872 E18.51937
G1 X140.548 Y58.368 E18.57285
G1 X141.606 Y58.901 E18.62801
G1 X142.972 Y59.637 E18.70027
G1 X144.092 Y60.275 E18.76028
G1 X144.857 Y60.74 E18.80197
G1 X146.229 Y61.608 E18.87757
G1 X147.316 Y62.343 E18.93867
G1 X148.087 Y62.883 E18.9825
G1 X148.366 Y63.085 E18.99854
G1 X149.16 Y63.682 E19.0448
G1 X150.231 Y64.516 E19.108
G1 X151.304 Y65.402 E19.1728
G1 X152.279 Y66.243 E19.23275
G1 X152.558 Y66.494 E19.25023
G1 X153.138 Y67.027 E19.28691
G1 X153.935 Y67.782 E19.33803
G1 X154.662 Y68.502 E19.38567
G1 X155.104 Y68.952 E19.41504
G1 X155.89 Y69.776 E19.46807
G1 X156.154 Y70.066 E19.48633
G1 X156.761 Y70.745 E19.52874
G1 X157.389 Y71.467 E19.5733
G1 X158.075 Y72.294 E19.62333
G1 X158.45 Y72.761 E19.65122
G1 X159.201 Y73.721 E19.70797
G1 X159.412 Y74.003 E19.72437
G1 X159.917 Y74.694 E19.76422
G1 X160.474 Y75.476 E19.80893
G1 X161.12 Y76.429 E19.86254
G1 X161.451 Y76.931 E19.89054
G1 X162.055 Y77.881 E19.94296
G1 X162.289 Y78.266 E19.96394
G1 X162.773 Y79.084 E20.0082
G1 X163.148 Y79.742 E20.04346
G1 X163.87 Y81.075 E20.11405
G1 X164.021 Y81.365 E20.12928
G1 X164.7 Y82.726 E20.2001
G1 X165.116 Y83.614 E20.24576
G1 X165.428 Y84.31 E20.28128
G1 X166.125 Y85.973 E20.36524
G1 X166.572 Y87.123 E20.42269
G1 X166.71 Y87.505 E20.4416
G1 X167.211 Y88.949 E20.51277
G1 X167.646 Y90.329 E20.58015
G1 X167.804 Y90.862 E20.60604
G1 X168.108 Y91.949 E20.65859
G1 X168.218 Y92.377 E20.67917
G1 X168.436 Y93.26 E20.72152
G1 X168.605 Y93.99 E20.75641
G1 X168.866 Y95.234 E20.8156
G1 X168.983 Y95.842 E20.84443
G1 X169.136 Y96.688 E20.88446
G1 X169.19 Y97.016 E20.89994
G1 X169.34 Y98.04 E20.94813
G1 X169.574 Y99.923 E21.03649
G1 X169.66 Y100.852 E21.07993
G1 X169.801 Y102.786 E21.17022
G1 X169.823 Y103.206 E21.18981
G1 X169.86 Y104.45 E21.24776
G1 X169.863 Y105.926 E21.31649
G1 X169.841 Y106.909 E21.36227
G1 X169.795 Y107.774 E21.40261
G1 X169.562 Y110.835 E21.54555
G1 X169.506 Y111.454 E21.57449
G1 X169.431 Y112.078 E21.60376
G1 X169.266 Y113.154 E21.65445
G1 X168.781 Y115.912 E21.78484
G1 X168.678 Y116.457 E21.81067
G1 X168.533 Y117.111 E21.84186
G1 X168.233 Y118.274 E21.89779
G1 X167.508 Y120.882 E22.02383
G1 X167.364 Y121.377 E22.04784
G1 X167.155 Y122.018 E22.07923
G1 X166.746 Y123.144 E22.13501
G1 X165.759 Y125.693 E22.26229
G1 X165.563 Y126.178 E22.28665
G1 X165.303 Y126.768 E22.31667
G1 X164.71 Y128.005 E22.38055
G1 X163.568 Y130.274 E22.49883
G1 X163.328 Y130.735 E22.52303
G1 X163 Y131.318 E22.55418
G1 X162.233 Y132.586 E22.62318
G1 X160.95 Y134.609 E22.73473
G1 X160.639 Y135.088 E22.76132
G1 X160.241 Y135.66 E22.79377
G1 X159.4 Y136.782 E22.85906
G1 X157.857 Y138.761 E22.97591
G1 X157.512 Y139.19 E23.00155
G1 X157.089 Y139.685 E23.03187
G1 X156.133 Y140.73 E23.09782
G1 X154.413 Y142.541 E23.21412
G1 X154.033 Y142.929 E23.23941
G1 X153.564 Y143.38 E23.2697
G1 X152.5 Y144.336 E23.33631
G1 X150.61 Y145.971 E23.45267
G1 X150.226 Y146.295 E23.47607
G1 X149.684 Y146.723 E23.50823
G1 X148.531 Y147.571 E23.57487
G1 X146.495 Y149.011 E23.69099
G1 X146.069 Y149.304 E23.71507
G1 X145.496 Y149.671 E23.74675
G1 X144.286 Y150.391 E23.81232
G1 X142.086 Y151.644 E23.93021
G1 X141.651 Y151.884 E23.95334
G1 X141.047 Y152.192 E23.98491
G1 X139.748 Y152.802 E24.05174
G1 X137.489 Y153.81 E24.16692
G1 X137.007 Y154.018 E24.19137
G1 X136.366 Y154.271 E24.22345
G1 X135.02 Y154.748 E24.28995
G1 X132.663 Y155.533 E24.40563
G1 X132.14 Y155.699 E24.43118
G1 X131.512 Y155.877 E24.46157
G1 X130.125 Y156.223 E24.52814
G1 X127.726 Y156.769 E24.6427
G1 X127.205 Y156.882 E24.66752
G1 X126.502 Y157.01 E24.7008
G1 X125.105 Y157.213 E24.76653
G1 X122.668 Y157.522 E24.88092
G1 X121.574 Y157.641 E24.93216
G1 X121.032 Y157.681 E24.95746
G1 X119.73 Y157.749 E25.01817
G1 X118.808 Y157.784 E25.06114
G1 X118.414 Y157.792 E25.07949
G1 X116.878 Y157.792 E25.15101
G1 X115.844 Y157.774 E25.19916
G1 X115.175 Y157.746 E25.23034
G1 X114.218 Y157.693 E25.27497
G1 X113.399 Y157.638 E25.3132
G1 X112.995 Y157.603 E25.33208
G1 X112.33 Y157.532 E25.36322
G1 X110.47 Y157.314 E25.45042
G1 X109.44 Y157.175 E25.49882
G1 X108.626 Y157.033 E25.53729
G1 X106.558 Y156.632 E25.63538
G1 X105.914 Y156.499 E25.666
G1 X105.296 Y156.352 E25.69558
G1 X104.373 Y156.102 E25.74011
