;FLAVOR:Marlin
;TIME:13667
;Filament used: 11.421m
;Layer height: 0.28
;MINX:55.236
;MINY:29.467
;MINZ:0.28
;MAXX:179.78
;MAXY:154.037
;MAXZ:21.28
;Generated with Cura_SteamEngine 4.5.0
M140 S60
M105
M190 S60
M104 S205
M105
M109 S205
M82 ;absolute extrusion mode
; Ender 3 Custom Start G-code
G92 E0 ; Reset Extruder
G28 ; Home all axes
G1 Z2.0 F3000 ; Move Z Axis up little to prevent scratching of Heat Bed
G1 X0.1 Y20 Z0.3 F5000.0 ; Move to start position
G1 X0.1 Y200.0 Z0.3 F1500.0 E15 ; Draw the first line
G1 X0.4 Y200.0 Z0.3 F5000.0 ; Move to side a little
G1 X0.4 Y20 Z0.3 F1500.0 E30 ; Draw the second line
G92 E0 ; Reset Extruder
G1 Z2.0 F3000 ; Move Z Axis up little to prevent scratching of Heat Bed
G1 X5 Y20 Z0.3 F5000.0 ; Move over to prevent blob squish
G92 E0
G92 E0
G1 F1500 E-6
;LAYER_COUNT:76
;LAYER:0
M107
G0 F7500 X68.641 Y53.114 Z0.28
;TYPE:SKIRT
G1 F1500 E0
G1 X68.971 Y52.704 E0.02451
G1 X69.556 Y52.009 E0.06681
G1 X71.244 Y50.061 E0.18683
G1 X72.171 Y49.025 E0.25156
G1 X72.361 Y48.823 E0.26448
G1 X72.61 Y48.567 E0.28111
G1 X73.268 Y47.914 E0.32427
G1 X75.104 Y46.139 E0.44319
G1 X75.837 Y45.448 E0.49009
G1 X76.104 Y45.204 E0.50693
G1 X76.542 Y44.822 E0.534
G1 X77.38 Y44.122 E0.58484
G1 X79.203 Y42.648 E0.694
G1 X80.325 Y41.767 E0.76043
G1 X80.541 Y41.606 E0.77297
G1 X80.829 Y41.399 E0.78949
G1 X81.746 Y40.762 E0.84148
G1 X83.645 Y39.485 E0.94804
G1 X84.826 Y38.717 E1.01364
G1 X85.415 Y38.36 E1.04571
G1 X86.418 Y37.787 E1.09949
G1 X88.423 Y36.682 E1.2061
G1 X89.54 Y36.087 E1.26503
G1 X90.151 Y35.785 E1.29676
G1 X91.377 Y35.219 E1.35964
G1 X93.336 Y34.356 E1.45932
G1 X94.502 Y33.861 E1.5183
G1 X94.857 Y33.72 E1.53609
G1 X95.184 Y33.596 E1.55237
G1 X96.506 Y33.121 E1.61778
G1 X98.392 Y32.48 E1.71054
G1 X99.669 Y32.066 E1.77305
G1 X100.035 Y31.956 E1.79084
G1 X100.395 Y31.855 E1.80825
G1 X101.766 Y31.495 E1.87426
G1 X103.605 Y31.047 E1.96239
G1 X104.977 Y30.73 E2.02796
G1 X105.368 Y30.65 E2.04655
G1 X105.711 Y30.586 E2.06279
G1 X107.158 Y30.339 E2.13115
G1 X109.079 Y30.047 E2.22162
G1 X110.26 Y29.882 E2.27715
G1 X110.702 Y29.829 E2.29788
G1 X111.105 Y29.788 E2.31674
G1 X112.633 Y29.664 E2.38812
G1 X114.593 Y29.542 E2.47957
G1 X115.553 Y29.493 E2.52433
G1 X116.081 Y29.474 E2.54893
G1 X116.532 Y29.467 E2.56993
G1 X117.934 Y29.474 E2.63522
G1 X119.947 Y29.524 E2.72898
G1 X121.156 Y29.568 E2.78531
G1 X121.635 Y29.595 E2.80765
G1 X122.034 Y29.625 E2.82628
G1 X123.586 Y29.772 E2.89887
G1 X125.476 Y29.988 E2.98745
G1 X126.571 Y30.126 E3.03884
G1 X127.008 Y30.189 E3.0594
G1 X127.41 Y30.254 E3.07836
G1 X129.052 Y30.556 E3.15611
G1 X130.877 Y30.93 E3.24285
G1 X132.022 Y31.178 E3.2974
G1 X133.036 Y31.421 E3.34596
G1 X133.693 Y31.602 E3.37769
G1 X136.298 Y32.382 E3.50431
G1 X137.28 Y32.686 E3.55218
G1 X138.254 Y33.012 E3.6
G1 X138.501 Y33.101 E3.61223
G1 X138.849 Y33.233 E3.62956
G1 X142.265 Y34.6 E3.80089
G1 X143.036 Y34.93 E3.83994
G1 X143.475 Y35.13 E3.8624
G1 X144.09 Y35.428 E3.89422
G1 X147.267 Y37.038 E4.06007
G1 X148.198 Y37.543 E4.10939
G1 X148.935 Y37.982 E4.14933
G1 X151.984 Y39.883 E4.31664
G1 X152.55 Y40.254 E4.34815
G1 X153.204 Y40.709 E4.38525
G1 X153.569 Y40.978 E4.40636
G1 X156.467 Y43.16 E4.57528
G1 X156.934 Y43.529 E4.60299
G1 X157.55 Y44.044 E4.64038
G1 X157.884 Y44.338 E4.6611
G1 X160.522 Y46.715 E4.82645
G1 X161.008 Y47.172 E4.85751
G1 X161.386 Y47.545 E4.88224
G1 X161.973 Y48.156 E4.92169
G1 X164.339 Y50.7 E5.08346
G1 X164.745 Y51.155 E5.11186
G1 X165.093 Y51.566 E5.13694
G1 X165.607 Y52.204 E5.17509
G1 X167.686 Y54.88 E5.33288
G1 X168.087 Y55.412 E5.3639
G1 X168.452 Y55.925 E5.39321
G1 X169.016 Y56.773 E5.44064
G1 X170.724 Y59.423 E5.58744
G1 X171.09 Y60.01 E5.61965
G1 X171.399 Y60.538 E5.64814
G1 X171.887 Y61.429 E5.69544
G1 X173.369 Y64.244 E5.84358
G1 X173.674 Y64.844 E5.87492
G1 X173.944 Y65.416 E5.90437
G1 X174.334 Y66.31 E5.94979
G1 X175.589 Y69.307 E6.10108
G1 X175.818 Y69.875 E6.1296
G1 X176.043 Y70.485 E6.15987
G1 X176.35 Y71.401 E6.20486
G1 X177.323 Y74.458 E6.35424
G1 X177.521 Y75.109 E6.38593
G1 X177.693 Y75.743 E6.41652
G1 X177.911 Y76.654 E6.46013
G1 X178.62 Y79.824 E6.61139
G1 X178.744 Y80.412 E6.63937
G1 X178.863 Y81.076 E6.67078
G1 X179.024 Y82.171 E6.72232
G1 X179.434 Y85.26 E6.86742
G1 X179.506 Y85.866 E6.89583
G1 X179.564 Y86.521 E6.92645
G1 X179.63 Y87.669 E6.98
G1 X179.762 Y90.678 E7.12024
G1 X179.775 Y91.108 E7.14027
G1 X179.78 Y91.489 E7.15802
G1 X179.769 Y93.113 E7.23364
G1 X179.716 Y94.796 E7.31204
G1 X179.634 Y96.113 E7.37349
G1 X179.548 Y97.22 E7.42519
G1 X179.484 Y97.932 E7.45848
G1 X179.45 Y98.254 E7.47355
G1 X179.352 Y99.042 E7.51053
G1 X178.838 Y102.525 E7.67447
G1 X178.733 Y103.169 E7.70485
G1 X178.62 Y103.775 E7.73356
G1 X178.541 Y104.15 E7.7514
G1 X178.428 Y104.64 E7.77482
G1 X177.665 Y107.825 E7.92732
G1 X177.399 Y108.851 E7.97667
G1 X177.33 Y109.093 E7.98839
G1 X177.219 Y109.459 E8.0062
G1 X177.051 Y109.977 E8.03156
G1 X175.924 Y113.324 E8.19601
G1 X175.746 Y113.814 E8.22028
G1 X175.39 Y114.726 E8.26587
G1 X175.22 Y115.137 E8.28658
G1 X173.794 Y118.395 E8.45218
G1 X173.574 Y118.866 E8.47639
G1 X173.153 Y119.716 E8.52056
G1 X172.954 Y120.1 E8.54069
G1 X171.329 Y123.076 E8.69858
G1 X171.14 Y123.411 E8.71649
G1 X170.952 Y123.732 E8.73381
G1 X170.513 Y124.452 E8.77308
G1 X170.155 Y125.009 E8.80391
G1 X168.372 Y127.682 E8.95353
G1 X168.112 Y128.06 E8.97489
G1 X167.906 Y128.35 E8.99145
G1 X167.481 Y128.927 E9.02482
G1 X167.265 Y129.209 E9.04136
G1 X166.973 Y129.58 E9.06335
G1 X165.031 Y131.998 E9.20776
G1 X164.697 Y132.402 E9.23217
G1 X164.471 Y132.666 E9.24835
G1 X163.818 Y133.4 E9.29409
G1 X163.451 Y133.791 E9.31906
G1 X161.274 Y136.06 E9.46548
G1 X160.644 Y136.69 E9.50697
G1 X160.059 Y137.241 E9.54439
G1 X159.55 Y137.696 E9.57618
G1 X157.187 Y139.755 E9.72212
G1 X156.493 Y140.339 E9.76436
G1 X156.286 Y140.505 E9.77671
G1 X155.999 Y140.728 E9.79364
G1 X155.282 Y141.264 E9.83532
G1 X152.842 Y143.04 E9.97585
G1 X152.306 Y143.419 E10.00642
G1 X151.8 Y143.76 E10.03483
G1 X151.503 Y143.951 E10.05127
G1 X150.813 Y144.377 E10.08903
G1 X148.083 Y146.016 E10.2373
G1 X147.349 Y146.436 E10.27668
G1 X146.838 Y146.711 E10.3037
G1 X145.975 Y147.145 E10.34868
G1 X143.277 Y148.456 E10.48836
G1 X142.625 Y148.762 E10.52189
G1 X142.043 Y149.015 E10.55144
G1 X140.887 Y149.477 E10.60941
G1 X138.202 Y150.499 E10.74319
G1 X137.529 Y150.745 E10.77655
G1 X136.944 Y150.941 E10.80528
G1 X135.645 Y151.333 E10.86846
G1 X132.897 Y152.11 E11.00144
G1 X132.25 Y152.283 E11.03262
G1 X131.659 Y152.424 E11.06091
G1 X130.345 Y152.696 E11.1234
G1 X127.502 Y153.236 E11.25815
G1 X126.838 Y153.352 E11.28953
G1 X126.221 Y153.442 E11.31857
G1 X124.963 Y153.587 E11.37753
G1 X122.065 Y153.876 E11.51314
G1 X121.396 Y153.933 E11.54441
G1 X120.789 Y153.968 E11.57272
G1 X119.477 Y154.005 E11.63384
G1 X116.572 Y154.037 E11.76911
G1 X115.949 Y154.035 E11.79812
G1 X115.355 Y154.017 E11.8258
G1 X113.881 Y153.931 E11.89455
G1 X111.081 Y153.714 E12.02532
G1 X110.4 Y153.652 E12.05716
G1 X109.767 Y153.576 E12.08685
G1 X108.547 Y153.391 E12.1443
G1 X105.628 Y152.903 E12.28211
G1 X105.005 Y152.79 E12.31159
G1 X104.405 Y152.664 E12.34014
G1 X103.208 Y152.376 E12.39747
G1 X100.308 Y151.625 E12.53696
G1 X99.722 Y151.465 E12.56525
G1 X99.15 Y151.292 E12.59307
G1 X97.923 Y150.881 E12.65333
G1 X95.144 Y149.891 E12.79069
G1 X94.463 Y149.638 E12.82452
G1 X93.875 Y149.4 E12.85406
G1 X92.698 Y148.882 E12.91394
G1 X90.066 Y147.675 E13.04877
G1 X89.476 Y147.395 E13.07918
G1 X88.904 Y147.103 E13.10908
G1 X87.758 Y146.473 E13.16998
G1 X85.295 Y145.067 E13.30204
G1 X84.691 Y144.71 E13.33471
G1 X84.199 Y144.401 E13.36176
G1 X82.979 Y143.588 E13.43003
G1 X80.655 Y141.974 E13.56178
G1 X80.178 Y141.632 E13.58911
G1 X79.714 Y141.28 E13.61623
G1 X78.514 Y140.316 E13.6879
G1 X76.436 Y138.581 E13.81395
G1 X75.798 Y138.032 E13.85315
G1 X75.443 Y137.712 E13.8754
G1 X74.834 Y137.134 E13.9145
G1 X72.436 Y134.745 E14.07211
G1 X71.891 Y134.186 E14.10847
G1 X71.553 Y133.823 E14.13156
G1 X71.013 Y133.211 E14.16957
G1 X68.865 Y130.655 E14.32503
G1 X68.46 Y130.16 E14.35481
G1 X68.092 Y129.683 E14.38287
G1 X67.144 Y128.381 E14.45786
G1 X65.766 Y126.41 E14.56985
G1 X64.927 Y125.158 E14.64002
G1 X64.609 Y124.654 E14.66777
G1 X64.383 Y124.271 E14.68848
G1 X62.877 Y121.651 E14.8292
G1 X62.23 Y120.476 E14.89166
G1 X61.954 Y119.939 E14.91977
G1 X61.683 Y119.373 E14.94899
G1 X60.477 Y116.768 E15.08266
G1 X59.878 Y115.402 E15.15211
G1 X59.686 Y114.936 E15.17558
G1 X59.52 Y114.497 E15.19743
G1 X58.448 Y111.513 E15.34508
G1 X58.061 Y110.369 E15.40131
G1 X57.893 Y109.826 E15.42778
G1 X57.697 Y109.125 E15.46167
G1 X56.961 Y106.323 E15.59657
G1 X56.646 Y105.03 E15.65854
G1 X56.519 Y104.439 E15.68669
G1 X56.412 Y103.859 E15.71415
G1 X55.903 Y100.87 E15.85533
G1 X55.722 Y99.681 E15.91134
G1 X55.65 Y99.104 E15.93841
G1 X55.575 Y98.327 E15.97476
G1 X55.338 Y95.389 E16.11201
G1 X55.263 Y94.191 E16.1679
G1 X55.243 Y93.62 E16.19451
G1 X55.236 Y92.86 E16.2299
G1 X55.258 Y90.03 E16.36168
G1 X55.296 Y88.607 E16.42796
G1 X55.326 Y88.04 E16.4544
G1 X55.377 Y87.407 E16.48397
G1 X55.651 Y84.57 E16.61669
G1 X55.817 Y83.134 E16.684
G1 X55.896 Y82.577 E16.7102
G1 X56.002 Y81.952 E16.73972
G1 X56.525 Y79.139 E16.87295
G1 X56.801 Y77.793 E16.93693
G1 X56.929 Y77.244 E16.96317
G1 X57.123 Y76.5 E16.99898
G1 X57.885 Y73.775 E17.13073
G1 X58.249 Y72.555 E17.19001
G1 X58.426 Y72.014 E17.21652
G1 X58.729 Y71.169 E17.25832
G1 X59.687 Y68.627 E17.38481
G1 X60.174 Y67.398 E17.44637
G1 X60.409 Y66.848 E17.47422
G1 X60.768 Y66.072 E17.51403
G1 X61.961 Y63.595 E17.64205
G1 X62.507 Y62.508 E17.69869
G1 X62.776 Y62.005 E17.72526
G1 X63.292 Y61.103 E17.77364
G1 X64.657 Y58.811 E17.89786
G1 X65.272 Y57.813 E17.95245
G1 X65.598 Y57.315 E17.98016
G1 X66.241 Y56.391 E18.03258
G1 X67.748 Y54.305 E18.15241
G1 X68.299 Y53.57 E18.19518
G0 F1350 X68.641 Y53.114
G0 F7500 X69.097 Y53.183
G1 F1500 X69.278 Y52.961 E18.20852
G1 X69.858 Y52.271 E18.25049
G1 X71.542 Y50.327 E18.37025
G1 X72.463 Y49.3 E18.43449
G1 X72.653 Y49.098 E18.4474
G1 X72.893 Y48.851 E18.46344
G1 X73.546 Y48.202 E18.50631
G1 X75.378 Y46.43 E18.62499
G1 X76.111 Y45.739 E18.6719
G1 X76.59 Y45.309 E18.70187
G1 X76.799 Y45.129 E18.71471
G1 X77.632 Y44.433 E18.76526
G1 X79.451 Y42.962 E18.87419
G1 X80.564 Y42.088 E18.94008
G1 X80.78 Y41.927 E18.95263
G1 X81.057 Y41.727 E18.96854
G1 X81.969 Y41.094 E19.02023
G1 X83.864 Y39.82 E19.12656
G1 X85.036 Y39.057 E19.19168
G1 X85.614 Y38.707 E19.22314
G1 X86.611 Y38.137 E19.27662
G1 X88.612 Y37.034 E19.38301
G1 X89.72 Y36.444 E19.44146
G1 X90.014 Y36.296 E19.45679
G1 X90.32 Y36.148 E19.47262
G1 X91.538 Y35.585 E19.5351
G1 X93.493 Y34.723 E19.63459
G1 X94.649 Y34.233 E19.69305
G1 X95.004 Y34.092 E19.71084
G1 X95.32 Y33.972 E19.72658
G1 X96.634 Y33.5 E19.79159
G1 X98.516 Y32.861 E19.88414
G1 X99.784 Y32.45 E19.9462
G1 X100.15 Y32.34 E19.964
G1 X100.497 Y32.242 E19.98079
G1 X101.861 Y31.884 E20.04645
G1 X103.696 Y31.436 E20.13441
G1 X105.057 Y31.122 E20.19945
G1 X105.448 Y31.042 E20.21803
G1 X105.778 Y30.98 E20.23367
G1 X107.219 Y30.735 E20.30173
G1 X109.136 Y30.443 E20.39202
G1 X110.308 Y30.279 E20.44713
G1 X110.75 Y30.226 E20.46785
G1 X111.138 Y30.187 E20.48601
G1 X112.657 Y30.064 E20.55698
G1 X114.615 Y29.942 E20.64832
G1 X115.568 Y29.893 E20.69276
G1 X116.096 Y29.874 E20.71736
G1 X116.53 Y29.867 E20.73757
G1 X117.932 Y29.874 E20.80286
G1 X119.834 Y29.92 E20.89145
G1 X121.134 Y29.968 E20.95202
G1 X121.613 Y29.995 E20.97436
G1 X121.997 Y30.024 E20.99229
G1 X123.541 Y30.169 E21.0645
G1 X125.427 Y30.385 E21.1529
G1 X126.514 Y30.521 E21.20391
G1 X126.951 Y30.584 E21.22447
G1 X127.338 Y30.648 E21.24273
G1 X128.971 Y30.948 E21.32004
G1 X130.793 Y31.322 E21.40665
G1 X131.93 Y31.567 E21.46081
G1 X132.615 Y31.728 E21.49358
G1 X132.932 Y31.808 E21.5088
G1 X133.579 Y31.986 E21.54005
G1 X136.181 Y32.764 E21.66651
G1 X137.154 Y33.065 E21.71393
G1 X138.118 Y33.389 E21.76129
G1 X138.365 Y33.478 E21.77351
G1 X138.701 Y33.605 E21.79024
G1 X142.108 Y34.968 E21.96111
G1 X142.879 Y35.298 E22.00016
G1 X143.302 Y35.49 E22.02179
G1 X143.909 Y35.784 E22.0532
G1 X147.077 Y37.39 E22.21858
G1 X147.998 Y37.89 E22.26738
G1 X148.724 Y38.321 E22.30669
G1 X151.765 Y40.218 E22.47359
G1 X152.331 Y40.589 E22.5051
G1 X152.968 Y41.032 E22.54123
G1 X153.329 Y41.298 E22.56211
G1 X156.219 Y43.474 E22.73056
G1 X156.923 Y44.036 E22.77251
G1 X157.286 Y44.344 E22.79467
G1 X157.616 Y44.635 E22.81516
G1 X160.248 Y47.007 E22.98014
G1 X160.734 Y47.464 E23.01121
G1 X161.098 Y47.823 E23.03501
G1 X161.681 Y48.429 E23.07417
G1 X164.04 Y50.967 E23.23552
G1 X164.446 Y51.422 E23.26391
G1 X164.782 Y51.817 E23.28806
G1 X165.291 Y52.45 E23.32588
G1 X167.367 Y55.121 E23.4834
G1 X167.768 Y55.653 E23.51442
G1 X168.119 Y56.147 E23.54264
G1 X168.68 Y56.99 E23.58979
G1 X170.385 Y59.635 E23.73633
G1 X170.751 Y60.222 E23.76854
G1 X171.048 Y60.73 E23.79594
G1 X171.533 Y61.615 E23.84293
G1 X173.012 Y64.426 E23.99083
G1 X173.317 Y65.026 E24.02217
G1 X173.578 Y65.577 E24.05056
G1 X173.965 Y66.464 E24.09563
G1 X175.218 Y69.456 E24.24667
G1 X175.447 Y70.024 E24.27519
G1 X175.664 Y70.612 E24.30437
G1 X175.968 Y71.522 E24.34905
G1 X176.94 Y74.575 E24.49824
G1 X177.138 Y75.226 E24.52992
G1 X177.304 Y75.836 E24.55936
G1 X177.52 Y76.742 E24.60273
G1 X178.229 Y79.907 E24.75376
G1 X178.353 Y80.495 E24.78174
G1 X178.467 Y81.135 E24.81201
G1 X178.627 Y82.224 E24.86326
G1 X179.037 Y85.307 E25.00808
G1 X179.109 Y85.913 E25.0365
G1 X179.165 Y86.544 E25.066
G1 X179.231 Y87.687 E25.11931
G1 X179.362 Y90.69 E25.25928
G1 X179.375 Y91.12 E25.27931
G1 X179.38 Y91.487 E25.2964
G1 X179.37 Y93.101 E25.37155
G1 X179.332 Y94.428 E25.43337
G1 X179.316 Y94.771 E25.44936
G1 X179.235 Y96.082 E25.51052
G1 X179.149 Y97.184 E25.56199
G1 X179.053 Y98.207 E25.60983
G1 X178.956 Y98.984 E25.6463
G1 X178.443 Y102.461 E25.80995
G1 X178.284 Y103.409 E25.85471
G1 X178.228 Y103.699 E25.86847
G1 X178.151 Y104.061 E25.8857
G1 X178.039 Y104.547 E25.90892
G1 X177.278 Y107.726 E26.06113
G1 X177.015 Y108.741 E26.10995
G1 X176.946 Y108.983 E26.12167
G1 X176.839 Y109.336 E26.13885
G1 X176.672 Y109.85 E26.16401
G1 X175.545 Y113.197 E26.32846
G1 X175.373 Y113.668 E26.35181
G1 X175.017 Y114.58 E26.3974
G1 X174.854 Y114.976 E26.41734
G1 X173.428 Y118.234 E26.58294
G1 X173.216 Y118.689 E26.60631
G1 X172.795 Y119.539 E26.65048
G1 X172.602 Y119.909 E26.66991
G1 X170.981 Y122.88 E26.82751
G1 X170.792 Y123.215 E26.84542
G1 X170.61 Y123.524 E26.86212
G1 X170.171 Y124.244 E26.90138
G1 X169.822 Y124.787 E26.93144
G1 X168.042 Y127.455 E27.08078
G1 X167.782 Y127.833 E27.10215
G1 X167.584 Y128.112 E27.11808
G1 X167.159 Y128.689 E27.15145
G1 X166.951 Y128.962 E27.16743
G1 X166.661 Y129.33 E27.18924
G1 X164.723 Y131.743 E27.33336
G1 X164.389 Y132.147 E27.35776
G1 X164.171 Y132.402 E27.37339
G1 X163.526 Y133.127 E27.41857
G1 X163.162 Y133.515 E27.44334
G1 X160.99 Y135.778 E27.5894
G1 X160.368 Y136.401 E27.63039
G1 X159.792 Y136.943 E27.66722
G1 X159.287 Y137.394 E27.69875
G1 X156.928 Y139.45 E27.84446
G1 X156.243 Y140.027 E27.88616
G1 X156.036 Y140.193 E27.89852
G1 X155.759 Y140.407 E27.91482
G1 X155.046 Y140.94 E27.95627
G1 X152.611 Y142.713 E28.09652
G1 X151.827 Y143.262 E28.14109
G1 X151.579 Y143.427 E28.15496
G1 X151.292 Y143.611 E28.17084
G1 X150.607 Y144.035 E28.20835
G1 X147.884 Y145.669 E28.35622
G1 X147.15 Y146.089 E28.3956
G1 X146.658 Y146.354 E28.42162
G1 X145.8 Y146.785 E28.46633
G1 X143.108 Y148.094 E28.60571
G1 X142.456 Y148.4 E28.63925
G1 X141.894 Y148.644 E28.66778
G1 X140.744 Y149.103 E28.72544
G1 X138.065 Y150.124 E28.85893
G1 X137.392 Y150.37 E28.8923
G1 X136.828 Y150.558 E28.91998
G1 X135.536 Y150.948 E28.98282
G1 X132.794 Y151.723 E29.11551
G1 X132.147 Y151.896 E29.14669
G1 X131.577 Y152.032 E29.17398
G1 X130.271 Y152.303 E29.23609
G1 X127.433 Y152.842 E29.3706
G1 X126.769 Y152.958 E29.40198
G1 X126.174 Y153.044 E29.42998
G1 X124.923 Y153.189 E29.48862
G1 X122.031 Y153.478 E29.62395
G1 X121.362 Y153.535 E29.65522
G1 X120.777 Y153.568 E29.6825
G1 X119.473 Y153.605 E29.74325
G1 X116.573 Y153.637 E29.87829
G1 X115.95 Y153.635 E29.9073
G1 X115.378 Y153.618 E29.93395
G1 X113.912 Y153.532 E30.00233
