;FLAVOR:Marlin
M117 Time Left 3h05m31s
;Filament used: 4.80578m
;Layer height: 0.2
;MINX:64.641
;MINY:64.625
;MINZ:0.28
;MAXX:170.383
;MAXY:170.38
;MAXZ:7.88
;POSTPROCESSED
;ChangeAtZ instances: 1
;Generated with Cura_SteamEngine 4.6.1
M140 S80
M105
M190 S80
M104 S240
M105
M109 S240
M82 ;absolute extrusion mode
; Ender 3 Custom Start G-code
G92 E0 ; Reset Extruder
G28 ; Home all axes
G1 Z2.0 F3000 ; Move Z Axis up little to prevent scratching of Heat Bed
G1 X0.1 Y20 Z0.3 F5000.0 ; Move to start position
G1 X0.1 Y200.0 Z0.3 F1500.0 E15 ; Draw the first line
G1 X0.4 Y200.0 Z0.3 F5000.0 ; Move to side a little
G1 X0.4 Y20 Z0.3 F1500.0 E30 ; Draw the second line
G92 E0 ; Reset Extruder
G1 Z2.0 F3000 ; Move Z Axis up little to prevent scratching of Heat Bed
G1 X5 Y20 Z0.3 F5000.0 ; Move over to prevent blob squish
G92 E0
G92 E0
G1 F2700 E-5
;LAYER_COUNT:39
;LAYER:0
M107
M204 S300
M205 X8 Y8
G0 F7500 X120.03 Y65.487 Z0.28
;TYPE:SKIRT
G1 F2700 E0
G1 F1500 X120.712 Y65.513 E0.03019
G1 X121.247 Y65.546 E0.0539
G1 X121.591 Y65.576 E0.06918
G1 X122.804 Y65.704 E0.12313
G1 X125.447 Y66.03 E0.24093
G1 X125.927 Y66.101 E0.2624
G1 X126.683 Y66.231 E0.29633
G1 X127.029 Y66.296 E0.31191
G1 X127.57 Y66.41 E0.33636
G1 X130.181 Y66.989 E0.45467
G1 X130.869 Y67.158 E0.48601
G1 X131.537 Y67.339 E0.51662
G1 X131.893 Y67.443 E0.53303
G1 X132.475 Y67.624 E0.55999
G1 X134.923 Y68.422 E0.67389
G1 X135.66 Y68.673 E0.70833
G1 X136.285 Y68.908 E0.73787
G1 X137.12 Y69.257 E0.7779
G1 X139.658 Y70.364 E0.90039
G1 X140.286 Y70.656 E0.93102
G1 X140.968 Y70.993 E0.96467
G1 X141.28 Y71.155 E0.98023
G1 X141.754 Y71.411 E1.00406
G1 X144.097 Y72.716 E1.12269
G1 X144.682 Y73.052 E1.15254
G1 X145.237 Y73.395 E1.1814
G1 X145.993 Y73.898 E1.22157
G1 X148.271 Y75.473 E1.34407
G1 X148.839 Y75.877 E1.37491
G1 X149.332 Y76.25 E1.40226
G1 X150.041 Y76.826 E1.44266
G1 X152.207 Y78.657 E1.56813
G1 X152.728 Y79.111 E1.5987
G1 X153.196 Y79.545 E1.62693
G1 X153.91 Y80.253 E1.67141
G1 X155.783 Y82.175 E1.79013
G1 X156.267 Y82.685 E1.82123
G1 X156.662 Y83.122 E1.84729
G1 X156.908 Y83.413 E1.86414
G1 X157.196 Y83.765 E1.88426
G1 X159.038 Y86.062 E2.01451
G1 X159.439 Y86.577 E2.04338
G1 X159.704 Y86.934 E2.06305
G1 X159.918 Y87.235 E2.07939
G1 X160.136 Y87.554 E2.09648
G1 X161.854 Y90.178 E2.23522
G1 X162.237 Y90.782 E2.26686
G1 X162.534 Y91.276 E2.29235
G1 X162.721 Y91.612 E2.30936
G1 X162.951 Y92.042 E2.33093
G1 X164.267 Y94.552 E2.4563
G1 X164.6 Y95.208 E2.48885
G1 X164.857 Y95.752 E2.51546
G1 X165.159 Y96.455 E2.54931
G1 X166.281 Y99.215 E2.6811
G1 X166.531 Y99.853 E2.71141
G1 X166.731 Y100.411 E2.73763
G1 X166.963 Y101.131 E2.7711
G1 X167.818 Y104.007 E2.90382
G1 X168.009 Y104.686 E2.93502
G1 X168.143 Y105.217 E2.95925
G1 X168.319 Y106.022 E2.9957
G1 X168.878 Y108.882 E3.12461
G1 X168.98 Y109.445 E3.14992
G1 X169.075 Y110.091 E3.1788
G1 X169.242 Y111.547 E3.24363
G1 X169.483 Y114.104 E3.35725
G1 X169.539 Y114.794 E3.38787
G1 X169.573 Y115.421 E3.41565
G1 X169.583 Y115.873 E3.43565
G1 X169.581 Y118.908 E3.5699
G1 X169.572 Y119.463 E3.59446
G1 X169.543 Y120.075 E3.62156
G1 X169.441 Y121.393 E3.68004
G1 X169.197 Y123.938 E3.79313
G1 X169.138 Y124.478 E3.81716
G1 X169.045 Y125.129 E3.84625
G1 X168.796 Y126.541 E3.90968
G1 X168.33 Y128.916 E4.01674
G1 X168.215 Y129.466 E4.0416
G1 X168.06 Y130.106 E4.07073
G1 X167.7 Y131.393 E4.12984
G1 X166.982 Y133.798 E4.24087
G1 X166.822 Y134.309 E4.26456
G1 X166.608 Y134.922 E4.29328
G1 X166.121 Y136.185 E4.35316
G1 X165.169 Y138.518 E4.46462
G1 X164.971 Y138.985 E4.48706
G1 X164.703 Y139.565 E4.51533
G1 X164.072 Y140.823 E4.57758
G1 X162.942 Y142.972 E4.68499
G1 X162.658 Y143.493 E4.71124
G1 X162.347 Y144.025 E4.73849
G1 X161.618 Y145.185 E4.7991
G1 X160.225 Y147.308 E4.91142
G1 X159.961 Y147.698 E4.93226
G1 X159.593 Y148.207 E4.96004
G1 X158.716 Y149.342 E5.02349
G1 X157.165 Y151.27 E5.13295
G1 X156.83 Y151.674 E5.15617
G1 X156.417 Y152.141 E5.18374
G1 X155.451 Y153.168 E5.24611
G1 X153.733 Y154.923 E5.35475
G1 X153.343 Y155.311 E5.37909
G1 X152.883 Y155.741 E5.40694
G1 X151.862 Y156.636 E5.46701
G1 X149.925 Y158.267 E5.57902
G1 X149.545 Y158.579 E5.60077
G1 X149.023 Y158.98 E5.62989
G1 X147.916 Y159.773 E5.69013
G1 X145.853 Y161.195 E5.80096
G1 X145.426 Y161.481 E5.8237
G1 X144.874 Y161.826 E5.85249
G1 X143.667 Y162.524 E5.91417
G1 X141.471 Y163.742 E6.02525
G1 X141.037 Y163.975 E6.04704
G1 X140.461 Y164.261 E6.07549
G1 X139.214 Y164.83 E6.13613
G1 X136.945 Y165.816 E6.24556
G1 X136.455 Y166.022 E6.26908
G1 X135.827 Y166.262 E6.29882
G1 X134.514 Y166.713 E6.36023
G1 X132.197 Y167.462 E6.46795
G1 X131.649 Y167.631 E6.49332
G1 X131.036 Y167.799 E6.52143
G1 X129.713 Y168.116 E6.58161
G1 X127.289 Y168.649 E6.6914
G1 X126.778 Y168.755 E6.71449
G1 X126.12 Y168.87 E6.74404
G1 X124.75 Y169.059 E6.80521
G1 X122.32 Y169.35 E6.91348
G1 X121.529 Y169.434 E6.94866
G1 X120.86 Y169.483 E6.97834
G1 X120.114 Y169.511 E7.01136
G1 X117.289 Y169.576 E7.13636
G1 X116.768 Y169.58 E7.15941
G1 X116.154 Y169.566 E7.18657
G1 X114.842 Y169.495 E7.2447
G1 X112.229 Y169.302 E7.3606
G1 X111.73 Y169.259 E7.38276
G1 X111.084 Y169.183 E7.41153
G1 X109.691 Y168.97 E7.47387
G1 X107.287 Y168.556 E7.58178
G1 X106.714 Y168.449 E7.60756
G1 X106.089 Y168.312 E7.63586
G1 X104.78 Y167.979 E7.69561
G1 X102.394 Y167.325 E7.80505
G1 X101.852 Y167.169 E7.83
G1 X101.231 Y166.969 E7.85886
G1 X99.979 Y166.518 E7.91773
G1 X97.665 Y165.636 E8.02728
G1 X97.16 Y165.437 E8.05129
G1 X96.546 Y165.171 E8.08089
G1 X95.278 Y164.57 E8.14296
G1 X93.099 Y163.488 E8.25058
G1 X92.612 Y163.238 E8.2748
G1 X92.044 Y162.924 E8.30351
G1 X90.825 Y162.194 E8.36636
G1 X88.82 Y160.944 E8.47088
G1 X88.283 Y160.599 E8.49911
G1 X87.752 Y160.233 E8.52764
G1 X86.684 Y159.445 E8.58635
G1 X84.699 Y157.923 E8.697
G1 X84.285 Y157.597 E8.72031
G1 X83.787 Y157.179 E8.74907
G1 X82.758 Y156.253 E8.81031
G1 X80.918 Y154.534 E8.9217
G1 X80.527 Y154.158 E8.94569
G1 X80.096 Y153.718 E8.97294
G1 X79.246 Y152.792 E9.02854
G1 X77.683 Y151.025 E9.1329
G1 X77.173 Y150.43 E9.16756
G1 X76.784 Y149.948 E9.19496
G1 X75.988 Y148.893 E9.25343
G1 X74.763 Y147.203 E9.34576
G1 X74.016 Y146.131 E9.40356
G1 X73.665 Y145.591 E9.43205
G1 X73.288 Y144.968 E9.46426
G1 X72.028 Y142.821 E9.57438
G1 X71.525 Y141.93 E9.61964
G1 X71.228 Y141.364 E9.64792
G1 X70.796 Y140.47 E9.69184
G1 X69.747 Y138.207 E9.80218
G1 X69.425 Y137.486 E9.83711
G1 X69.184 Y136.9 E9.86514
G1 X68.841 Y135.977 E9.9087
G1 X68.037 Y133.682 E10.01627
G1 X67.656 Y132.528 E10.07003
G1 X67.475 Y131.916 E10.09826
G1 X67.271 Y131.131 E10.13414
G1 X66.724 Y128.906 E10.23549
G1 X66.425 Y127.581 E10.29558
G1 X66.3 Y126.929 E10.32494
G1 X66.198 Y126.279 E10.35405
G1 X65.815 Y123.639 E10.47206
G1 X65.716 Y122.883 E10.50578
G1 X65.666 Y122.419 E10.52643
G1 X65.634 Y122.041 E10.54321
G1 X65.609 Y121.665 E10.55988
G1 X65.46 Y118.496 E10.70022
G1 X65.442 Y117.936 E10.725
G1 X65.441 Y117.316 E10.75243
G1 X65.481 Y116.003 E10.81054
G1 X65.594 Y113.649 E10.91479
G1 X65.642 Y112.883 E10.94874
G1 X65.681 Y112.425 E10.96907
G1 X65.747 Y111.849 E10.99472
G1 X65.819 Y111.324 E11.01816
G1 X66.213 Y108.635 E11.13838
G1 X66.338 Y107.857 E11.17324
G1 X66.458 Y107.223 E11.20178
G1 X66.524 Y106.923 E11.21537
G1 X66.679 Y106.268 E11.24515
G1 X67.318 Y103.687 E11.36277
G1 X67.505 Y102.974 E11.39537
G1 X67.623 Y102.56 E11.41442
G1 X67.8 Y101.999 E11.44044
G1 X67.98 Y101.474 E11.46499
G1 X68.876 Y98.932 E11.58422
G1 X69.146 Y98.198 E11.61881
G1 X69.389 Y97.597 E11.64749
G1 X69.782 Y96.713 E11.69029
G1 X70.902 Y94.306 E11.80772
G1 X71.224 Y93.637 E11.84057
G1 X71.466 Y93.166 E11.86399
G1 X71.787 Y92.587 E11.89328
G1 X71.95 Y92.307 E11.90761
G1 X73.355 Y89.922 E12.03006
G1 X73.761 Y89.255 E12.0646
G1 X73.993 Y88.892 E12.08366
G1 X74.329 Y88.397 E12.11012
G1 X74.614 Y87.999 E12.13178
G1 X76.215 Y85.798 E12.25217
G1 X76.674 Y85.184 E12.28608
G1 X77.004 Y84.766 E12.30964
G1 X77.624 Y84.037 E12.35198
G1 X79.5 Y81.922 E12.47704
G1 X79.992 Y81.382 E12.50935
G1 X80.379 Y80.98 E12.53404
G1 X80.892 Y80.482 E12.56566
G1 X83.095 Y78.434 E12.69872
G1 X83.516 Y78.053 E12.72384
G1 X84.001 Y77.641 E12.75199
G1 X85.245 Y76.652 E12.82229
G1 X87.043 Y75.282 E12.92228
G1 X87.636 Y74.842 E12.95495
G1 X88.092 Y74.522 E12.97959
G1 X88.712 Y74.118 E13.01233
G1 X91.242 Y72.547 E13.14406
G1 X91.799 Y72.212 E13.17282
G1 X92.365 Y71.896 E13.20149
G1 X93.599 Y71.259 E13.26292
G1 X95.749 Y70.198 E13.36898
G1 X96.253 Y69.959 E13.39365
G1 X96.813 Y69.713 E13.42071
G1 X98.268 Y69.13 E13.49005
G1 X100.429 Y68.312 E13.59226
G1 X101.166 Y68.05 E13.62686
G1 X101.577 Y67.916 E13.64599
G1 X101.91 Y67.814 E13.66139
G1 X102.739 Y67.576 E13.69955
G1 X105.213 Y66.904 E13.81295
G1 X105.991 Y66.708 E13.84844
G1 X106.329 Y66.631 E13.86378
G1 X106.725 Y66.549 E13.88167
G1 X107.681 Y66.372 E13.92467
G1 X110.184 Y65.946 E14.03699
G1 X110.821 Y65.846 E14.06551
G1 X111.467 Y65.763 E14.09432
G1 X111.834 Y65.727 E14.11064
G1 X112.524 Y65.673 E14.14125
G1 X115.379 Y65.475 E14.26785
G1 X115.994 Y65.441 E14.2951
G1 X116.607 Y65.425 E14.32222
G1 X117.636 Y65.43 E14.36774
G1 X119.46 Y65.474 E14.44845
G0 F1350 X120.03 Y65.487
G0 F7500 X120.04 Y65.087
G1 F1500 X120.728 Y65.113 E14.47891
G1 X121.275 Y65.147 E14.50315
G1 X121.633 Y65.178 E14.51905
G1 X122.853 Y65.307 E14.57332
G1 X125.496 Y65.633 E14.69112
G1 X125.994 Y65.706 E14.71338
G1 X126.75 Y65.836 E14.74732
G1 X127.11 Y65.905 E14.76353
G1 X127.657 Y66.019 E14.78825
G1 X130.275 Y66.6 E14.90687
G1 X130.973 Y66.772 E14.93868
G1 X131.641 Y66.953 E14.96929
G1 X132.012 Y67.061 E14.98638
G1 X132.599 Y67.244 E15.01358
G1 X135.052 Y68.043 E15.1277
G1 X135.789 Y68.294 E15.16214
G1 X136.439 Y68.539 E15.19287
G1 X137.28 Y68.89 E15.23319
G1 X139.824 Y70.001 E15.35599
G1 X140.463 Y70.298 E15.38716
G1 X141.145 Y70.635 E15.42081
G1 X141.47 Y70.802 E15.43697
G1 X141.949 Y71.061 E15.46106
G1 X144.296 Y72.369 E15.57992
G1 X144.881 Y72.705 E15.60976
G1 X145.458 Y73.061 E15.63975
G1 X146.22 Y73.569 E15.68026
G1 X148.503 Y75.147 E15.80303
G1 X149.071 Y75.551 E15.83386
G1 X149.583 Y75.939 E15.86228
G1 X150.3 Y76.521 E15.90313
G1 X152.47 Y78.355 E16.02881
G1 X152.991 Y78.809 E16.05938
G1 X153.477 Y79.26 E16.08871
G1 X154.197 Y79.974 E16.13357
G1 X156.073 Y81.899 E16.25247
G1 X156.557 Y82.409 E16.28357
G1 X156.962 Y82.858 E16.31032
G1 X157.218 Y83.16 E16.32784
G1 X157.507 Y83.515 E16.34809
G1 X159.354 Y85.817 E16.47864
G1 X159.755 Y86.332 E16.50752
G1 X160.03 Y86.702 E16.52791
G1 X160.244 Y87.003 E16.54425
G1 X160.471 Y87.335 E16.56204
G1 X162.192 Y89.964 E16.70104
G1 X162.575 Y90.568 E16.73267
G1 X162.879 Y91.075 E16.75882
G1 X163.074 Y91.423 E16.77647
G1 X163.305 Y91.856 E16.79818
G1 X164.624 Y94.371 E16.9238
G1 X164.957 Y95.027 E16.95635
G1 X165.223 Y95.592 E16.98397
G1 X165.53 Y96.304 E17.01827
G1 X166.653 Y99.069 E17.15029
G1 X166.903 Y99.707 E17.1806
G1 X167.111 Y100.287 E17.20786
G1 X167.346 Y101.017 E17.24178
G1 X168.203 Y103.899 E17.37479
G1 X168.394 Y104.578 E17.40599
G1 X168.533 Y105.13 E17.43117
G1 X168.712 Y105.945 E17.46808
G1 X169.271 Y108.81 E17.59721
G1 X169.373 Y109.373 E17.62252
G1 X169.473 Y110.045 E17.65257
G1 X169.64 Y111.51 E17.7178
G1 X169.881 Y114.072 E17.83163
G1 X169.937 Y114.762 E17.86225
G1 X169.973 Y115.403 E17.89065
G1 X169.983 Y115.873 E17.91145
G1 X169.981 Y118.915 E18.04601
G1 X169.972 Y119.47 E18.07057
G1 X169.942 Y120.106 E18.09873
G1 X169.839 Y121.431 E18.15752
G1 X169.594 Y123.981 E18.27084
G1 X169.535 Y124.521 E18.29487
G1 X169.439 Y125.198 E18.32512
G1 X169.188 Y126.618 E18.38891
G1 X168.722 Y128.997 E18.49615
G1 X168.607 Y129.547 E18.521
G1 X168.445 Y130.213 E18.55132
G1 X168.084 Y131.507 E18.61075
G1 X167.364 Y133.917 E18.72201
G1 X167.204 Y134.428 E18.7457
G1 X166.982 Y135.066 E18.77558
G1 X166.491 Y136.335 E18.83577
G1 X165.537 Y138.674 E18.94752
G1 X165.339 Y139.141 E18.96996
G1 X165.061 Y139.743 E18.99929
G1 X164.426 Y141.009 E19.06194
G1 X163.293 Y143.163 E19.1696
G1 X163.009 Y143.684 E19.19585
G1 X162.686 Y144.237 E19.22418
G1 X161.952 Y145.404 E19.28517
G1 X160.556 Y147.532 E19.39775
G1 X160.292 Y147.922 E19.41858
G1 X159.909 Y148.451 E19.44747
G1 X159.027 Y149.592 E19.51127
G1 X157.473 Y151.525 E19.62098
G1 X157.138 Y151.929 E19.6442
G1 X156.709 Y152.415 E19.67287
G1 X155.737 Y153.448 E19.73562
G1 X154.015 Y155.207 E19.84451
G1 X153.625 Y155.595 E19.86884
G1 X153.147 Y156.041 E19.89776
G1 X152.12 Y156.942 E19.9582
G1 X150.178 Y158.576 E20.07047
G1 X149.798 Y158.888 E20.09222
G1 X149.256 Y159.305 E20.12247
G1 X148.143 Y160.103 E20.18305
G1 X146.076 Y161.527 E20.29408
G1 X145.649 Y161.813 E20.31682
G1 X145.075 Y162.171 E20.34674
G1 X143.861 Y162.874 E20.4088
G1 X141.66 Y164.094 E20.52012
G1 X141.226 Y164.327 E20.54191
G1 X140.628 Y164.625 E20.57147
G1 X139.374 Y165.197 E20.63244
G1 X137.1 Y166.185 E20.74211
G1 X136.61 Y166.391 E20.76563
G1 X135.958 Y166.64 E20.7965
G1 X134.637 Y167.093 E20.85828
G1 X132.315 Y167.844 E20.96623
G1 X131.767 Y168.013 E20.9916
G1 X131.13 Y168.188 E21.02082
G1 X129.799 Y168.507 E21.08137
G1 X127.37 Y169.041 E21.19138
G1 X126.859 Y169.147 E21.21447
G1 X126.175 Y169.266 E21.24518
G1 X124.797 Y169.456 E21.30671
G1 X122.362 Y169.748 E21.4152
G1 X121.571 Y169.832 E21.45039
G1 X120.876 Y169.883 E21.48121
G1 X120.123 Y169.911 E21.51455
G1 X117.292 Y169.976 E21.63981
G1 X116.771 Y169.98 E21.66286
G1 X116.133 Y169.965 E21.69109
G1 X114.813 Y169.894 E21.74957
G1 X112.195 Y169.701 E21.86569
G1 X111.696 Y169.658 E21.88785
G1 X111.024 Y169.578 E21.91778
G1 X109.623 Y169.365 E21.98047
G1 X107.213 Y168.949 E22.08865
G1 X106.64 Y168.842 E22.11444
G1 X105.991 Y168.7 E22.14383
G1 X104.675 Y168.365 E22.2039
G1 X102.283 Y167.709 E22.31362
G1 X101.741 Y167.553 E22.33857
G1 X101.097 Y167.345 E22.3685
G1 X99.836 Y166.892 E22.42778
G1 X97.519 Y166.008 E22.53748
G1 X97.014 Y165.809 E22.56149
G1 X96.376 Y165.533 E22.59224
G1 X95.1 Y164.929 E22.65469
G1 X92.916 Y163.844 E22.76257
G1 X92.429 Y163.594 E22.78678
G1 X91.839 Y163.267 E22.81662
G1 X90.614 Y162.534 E22.87977
G1 X88.603 Y161.28 E22.98461
G1 X88.066 Y160.935 E23.01284
G1 X87.515 Y160.555 E23.04245
G1 X86.44 Y159.762 E23.10154
G1 X84.451 Y158.237 E23.21241
G1 X84.037 Y157.911 E23.23572
G1 X83.52 Y157.477 E23.26558
G1 X82.485 Y156.545 E23.32719
G1 X80.641 Y154.822 E23.43883
G1 X80.25 Y154.446 E23.46283
G1 X79.802 Y153.989 E23.49114
G1 X78.946 Y153.058 E23.54708
G1 X77.379 Y151.285 E23.65176
G1 X76.869 Y150.69 E23.68642
G1 X76.465 Y150.19 E23.71486
G1 X75.664 Y149.128 E23.7737
G1 X74.435 Y147.432 E23.86635
G1 X73.688 Y146.36 E23.92415
G1 X73.323 Y145.799 E23.95376
G1 X72.943 Y145.171 E23.98623
G1 X71.679 Y143.018 E24.09667
G1 X71.176 Y142.127 E24.14193
G1 X70.868 Y141.538 E24.17133
G1 X70.433 Y140.638 E24.21555
G1 X69.381 Y138.37 E24.32614
G1 X69.059 Y137.649 E24.36107
G1 X68.81 Y137.04 E24.39018
G1 X68.464 Y136.109 E24.43411
G1 X67.657 Y133.807 E24.54202
G1 X67.276 Y132.653 E24.59578
G1 X67.088 Y132.017 E24.62512
G1 X66.882 Y131.226 E24.66128
G1 X66.334 Y128.994 E24.76294
G1 X66.035 Y127.669 E24.82303
G1 X65.905 Y126.991 E24.85357
G1 X65.802 Y126.337 E24.88285
G1 X65.419 Y123.691 E25.00112
G1 X65.32 Y122.935 E25.03485
G1 X65.268 Y122.453 E25.0563
G1 X65.236 Y122.075 E25.07308
G1 X65.21 Y121.684 E25.09041
G1 X65.06 Y118.509 E25.23102
G1 X65.042 Y117.949 E25.2558
G1 X65.041 Y117.305 E25.28429
G1 X65.081 Y115.984 E25.34275
G1 X65.195 Y113.624 E25.44727
G1 X65.243 Y112.858 E25.48122
G1 X65.283 Y112.382 E25.50235
G1 X65.351 Y111.795 E25.52849
G1 X65.423 Y111.266 E25.55211
G1 X65.818 Y108.571 E25.6726
G1 X65.943 Y107.793 E25.70746
G1 X66.066 Y107.143 E25.73672
G1 X66.135 Y106.831 E25.75086
G1 X66.291 Y106.172 E25.78081
G1 X66.931 Y103.586 E25.89866
G1 X67.118 Y102.873 E25.93127
G1 X67.241 Y102.442 E25.95109
G1 X67.422 Y101.87 E25.97763
G1 X67.602 Y101.341 E26.00235
G1 X68.501 Y98.794 E26.12183
G1 X68.771 Y98.06 E26.15643
G1 X69.023 Y97.436 E26.1862
G1 X69.419 Y96.544 E26.22937
G1 X70.542 Y94.133 E26.34702
G1 X70.864 Y93.464 E26.37987
G1 X71.115 Y92.974 E26.40422
G1 X71.441 Y92.386 E26.43396
G1 X71.605 Y92.104 E26.44839
G1 X73.013 Y89.714 E26.5711
G1 X73.419 Y89.047 E26.60564
G1 X73.66 Y88.669 E26.62547
