;FLAVOR:Marlin
M117 Time Left 1h18m16s
;Filament used: 3.98966m
;Layer height: 0.28
;MINX:64.644
;MINY:64.626
;MINZ:0.285
;MAXX:170.381
;MAXY:170.378
;MAXZ:5.045
;POSTPROCESSED
;Generated with Cura_SteamEngine 4.6.1
M140 S80
M105
M190 S80
M104 S240
M105
M109 S240
M82 ;absolute extrusion mode
; Ender 3 Custom Start G-code
G92 E0 ; Reset Extruder
G28 ; Home all axes
G1 Z2.0 F3000 ; Move Z Axis up little to prevent scratching of Heat Bed
G1 X0.1 Y20 Z0.3 F5000.0 ; Move to start position
G1 X0.1 Y200.0 Z0.3 F1500.0 E15 ; Draw the first line
G1 X0.4 Y200.0 Z0.3 F5000.0 ; Move to side a little
G1 X0.4 Y20 Z0.3 F1500.0 E30 ; Draw the second line
G92 E0 ; Reset Extruder
G1 Z2.0 F3000 ; Move Z Axis up little to prevent scratching of Heat Bed
G1 X5 Y20 Z0.3 F5000.0 ; Move over to prevent blob squish
G92 E0
G92 E0
G1 F2700 E-6
;LAYER_COUNT:18
;LAYER:0
M107
M204 S500
M205 X8 Y8
G0 F7500 X120.081 Y65.491 Z0.285
;TYPE:SKIRT
G1 F2700 E0
G1 F1500 X120.61 Y65.511 E0.02384
G1 X120.943 Y65.53 E0.03885
G1 X121.537 Y65.573 E0.06567
G1 X121.879 Y65.603 E0.08113
G1 X122.659 Y65.687 E0.11645
G1 X125.189 Y65.997 E0.23122
G1 X125.635 Y66.057 E0.25148
G1 X126.006 Y66.114 E0.26838
G1 X126.858 Y66.265 E0.30734
G1 X127.659 Y66.43 E0.34416
G1 X130.196 Y66.995 E0.46119
G1 X130.899 Y67.166 E0.49377
G1 X131.4 Y67.301 E0.51713
G1 X131.747 Y67.401 E0.53339
G1 X132.544 Y67.648 E0.57096
G1 X134.926 Y68.425 E0.68377
G1 X135.353 Y68.57 E0.70408
G1 X135.694 Y68.692 E0.72039
G1 X136.297 Y68.921 E0.74943
G1 X136.626 Y69.053 E0.76539
G1 X137.272 Y69.325 E0.79695
G1 X139.602 Y70.342 E0.91142
G1 X139.996 Y70.521 E0.9309
G1 X140.3 Y70.666 E0.94607
G1 X140.971 Y70.998 E0.97978
G1 X141.276 Y71.155 E0.99522
G1 X141.745 Y71.408 E1.01922
G1 X144.083 Y72.711 E1.13973
G1 X144.675 Y73.052 E1.17049
G1 X145.194 Y73.373 E1.19797
G1 X146.002 Y73.908 E1.2416
G1 X148.244 Y75.457 E1.3643
G1 X148.859 Y75.894 E1.39827
G1 X149.393 Y76.301 E1.4285
G1 X150.111 Y76.888 E1.47026
G1 X152.174 Y78.632 E1.59189
G1 X152.711 Y79.098 E1.62391
G1 X153.164 Y79.516 E1.65166
G1 X153.77 Y80.113 E1.68996
G1 X155.782 Y82.176 E1.81971
G1 X156.247 Y82.665 E1.8501
G1 X156.671 Y83.14 E1.87876
G1 X157.214 Y83.791 E1.91693
G1 X159.003 Y86.022 E2.04569
G1 X159.44 Y86.582 E2.07768
G1 X159.817 Y87.097 E2.10641
G1 X160.297 Y87.802 E2.14482
G1 X161.851 Y90.178 E2.27265
G1 X162.245 Y90.799 E2.30576
G1 X162.56 Y91.326 E2.33341
G1 X162.904 Y91.956 E2.36573
G1 X164.299 Y94.617 E2.50101
G1 X164.593 Y95.196 E2.53024
G1 X164.846 Y95.733 E2.55697
G1 X165.156 Y96.452 E2.59223
G1 X166.291 Y99.244 E2.72793
G1 X166.526 Y99.846 E2.75703
G1 X166.724 Y100.402 E2.7836
G1 X166.968 Y101.16 E2.81946
G1 X167.816 Y104.004 E2.95308
G1 X168.009 Y104.687 E2.98504
G1 X168.141 Y105.206 E3.00915
G1 X168.307 Y105.96 E3.04391
G1 X168.884 Y108.929 E3.1801
G1 X168.977 Y109.442 E3.20357
G1 X169.074 Y110.091 E3.23312
G1 X169.237 Y111.521 E3.29792
G1 X169.484 Y114.15 E3.41682
G1 X169.535 Y114.777 E3.44514
G1 X169.569 Y115.362 E3.47152
G1 X169.58 Y115.798 E3.49116
G1 X169.581 Y116.099 E3.50472
G1 X169.577 Y118.942 E3.63272
G1 X169.568 Y119.512 E3.65839
G1 X169.539 Y120.136 E3.68652
G1 X169.436 Y121.445 E3.74564
G1 X169.19 Y123.981 E3.86036
G1 X169.131 Y124.514 E3.88451
G1 X169.04 Y125.151 E3.91348
G1 X168.801 Y126.507 E3.97548
G1 X168.328 Y128.918 E4.0861
G1 X168.215 Y129.459 E4.11099
G1 X168.059 Y130.1 E4.14069
G1 X167.695 Y131.406 E4.20174
G1 X166.985 Y133.779 E4.31326
G1 X166.825 Y134.292 E4.33746
G1 X166.609 Y134.913 E4.36706
G1 X166.122 Y136.177 E4.42805
G1 X165.165 Y138.524 E4.54218
G1 X164.964 Y138.996 E4.56528
G1 X164.707 Y139.551 E4.59281
G1 X164.078 Y140.807 E4.65606
G1 X162.938 Y142.974 E4.76631
G1 X162.652 Y143.5 E4.79327
G1 X162.333 Y144.046 E4.82174
G1 X161.643 Y145.143 E4.88009
G1 X160.213 Y147.321 E4.99741
G1 X159.957 Y147.699 E5.01796
G1 X159.591 Y148.206 E5.04612
G1 X158.714 Y149.341 E5.1107
G1 X157.153 Y151.28 E5.22278
G1 X156.812 Y151.69 E5.24679
G1 X156.416 Y152.14 E5.27378
G1 X155.469 Y153.147 E5.33602
G1 X153.731 Y154.923 E5.44791
G1 X153.332 Y155.319 E5.47322
G1 X152.882 Y155.739 E5.50094
G1 X151.85 Y156.643 E5.56271
G1 X149.924 Y158.265 E5.67609
G1 X149.537 Y158.582 E5.69861
G1 X149.027 Y158.974 E5.72757
G1 X147.899 Y159.782 E5.79005
G1 X145.846 Y161.197 E5.90232
G1 X145.409 Y161.489 E5.92598
G1 X144.864 Y161.829 E5.9549
G1 X143.675 Y162.517 E6.01676
G1 X141.551 Y163.695 E6.12611
G1 X141.013 Y163.984 E6.15361
G1 X140.44 Y164.269 E6.18243
G1 X139.231 Y164.821 E6.24227
G1 X136.944 Y165.814 E6.35453
G1 X136.454 Y166.02 E6.37846
G1 X135.826 Y166.26 E6.40874
G1 X134.513 Y166.711 E6.47124
G1 X132.183 Y167.464 E6.5815
G1 X131.644 Y167.63 E6.60689
G1 X131.035 Y167.797 E6.63532
G1 X129.712 Y168.114 E6.69658
G1 X127.288 Y168.647 E6.80833
G1 X126.777 Y168.753 E6.83183
G1 X126.119 Y168.868 E6.8619
G1 X124.749 Y169.057 E6.92417
G1 X122.319 Y169.348 E7.03437
G1 X121.528 Y169.432 E7.07018
G1 X120.856 Y169.481 E7.10052
G1 X120.11 Y169.509 E7.13413
G1 X117.286 Y169.574 E7.26132
G1 X116.752 Y169.578 E7.28537
G1 X116.144 Y169.564 E7.31275
G1 X114.873 Y169.496 E7.37006
G1 X112.353 Y169.314 E7.48382
G1 X111.359 Y169.223 E7.52876
G1 X110.783 Y169.148 E7.55492
G1 X110.229 Y169.06 E7.58017
G1 X107.288 Y168.554 E7.71454
G1 X106.746 Y168.454 E7.73936
G1 X106.095 Y168.311 E7.76937
G1 X104.768 Y167.974 E7.83101
G1 X102.411 Y167.328 E7.94105
G1 X101.849 Y167.166 E7.96739
G1 X101.231 Y166.966 E7.99663
G1 X99.961 Y166.509 E8.05741
G1 X97.655 Y165.63 E8.16852
G1 X97.144 Y165.428 E8.19327
G1 X96.545 Y165.168 E8.22267
G1 X95.308 Y164.583 E8.28428
G1 X93.063 Y163.467 E8.39716
G1 X92.611 Y163.235 E8.42004
G1 X92.049 Y162.924 E8.44896
G1 X90.839 Y162.201 E8.51242
G1 X88.789 Y160.922 E8.62122
G1 X88.271 Y160.589 E8.64895
G1 X87.751 Y160.232 E8.67735
G1 X86.715 Y159.469 E8.73528
G1 X84.86 Y158.049 E8.84046
G1 X84.331 Y157.634 E8.87074
G1 X83.823 Y157.208 E8.90059
G1 X82.759 Y156.253 E8.96496
G1 X81.062 Y154.671 E9.06943
G1 X80.583 Y154.211 E9.09933
G1 X80.159 Y153.779 E9.12658
G1 X79.215 Y152.755 E9.18929
G1 X77.706 Y151.049 E9.29184
G1 X77.12 Y150.364 E9.33243
G1 X76.731 Y149.879 E9.36043
G1 X76.05 Y148.975 E9.41139
G1 X74.719 Y147.139 E9.51349
G1 X74.071 Y146.212 E9.56442
G1 X73.717 Y145.669 E9.5936
G1 X73.258 Y144.913 E9.63343
G1 X72.108 Y142.955 E9.73567
G1 X71.443 Y141.769 E9.79689
G1 X71.149 Y141.203 E9.82561
G1 X70.858 Y140.596 E9.85592
G1 X69.792 Y138.296 E9.97006
G1 X69.389 Y137.386 E10.01487
G1 X69.15 Y136.798 E10.04345
G1 X68.775 Y135.783 E10.09217
G1 X68.043 Y133.693 E10.19188
G1 X67.654 Y132.513 E10.24782
G1 X67.475 Y131.909 E10.27619
G1 X67.278 Y131.155 E10.31128
G1 X66.654 Y128.619 E10.42887
G1 X66.487 Y127.901 E10.46206
G1 X66.381 Y127.383 E10.48587
G1 X66.307 Y126.96 E10.5052
G1 X66.208 Y126.324 E10.53418
G1 X65.822 Y123.674 E10.65476
G1 X65.767 Y123.261 E10.67352
G1 X65.725 Y122.894 E10.69015
G1 X65.661 Y122.23 E10.72019
G1 X65.633 Y121.874 E10.73627
G1 X65.577 Y120.938 E10.77849
G1 X65.461 Y118.405 E10.89266
G1 X65.444 Y117.86 E10.91721
G1 X65.443 Y117.244 E10.94494
G1 X65.482 Y115.985 E11.00166
G1 X65.597 Y113.644 E11.10719
G1 X65.645 Y112.874 E11.14193
G1 X65.685 Y112.402 E11.16326
G1 X65.741 Y111.922 E11.18502
G1 X65.829 Y111.269 E11.21468
G1 X66.179 Y108.889 E11.323
G1 X66.407 Y107.529 E11.38509
G1 X66.533 Y106.9 E11.41397
G1 X66.681 Y106.271 E11.44307
G1 X67.313 Y103.71 E11.56184
G1 X67.516 Y102.938 E11.59778
G1 X67.639 Y102.511 E11.61779
G1 X67.808 Y101.978 E11.64296
G1 X67.968 Y101.512 E11.66515
G1 X68.887 Y98.907 E11.78952
G1 X69.145 Y98.206 E11.82316
G1 X69.324 Y97.752 E11.84513
G1 X69.476 Y97.393 E11.86268
G1 X69.62 Y97.07 E11.87861
G1 X70.903 Y94.311 E12.01561
G1 X71.231 Y93.63 E12.04964
G1 X71.439 Y93.223 E12.07022
G1 X71.69 Y92.763 E12.09382
G1 X71.996 Y92.23 E12.12149
G1 X73.351 Y89.932 E12.24161
G1 X73.76 Y89.259 E12.27707
G1 X74.087 Y88.755 E12.30412
G1 X74.565 Y88.069 E12.34176
G1 X76.234 Y85.777 E12.46943
G1 X76.684 Y85.176 E12.50323
G1 X76.978 Y84.802 E12.52465
G1 X77.367 Y84.335 E12.55202
G1 X77.679 Y83.978 E12.57336
G1 X79.482 Y81.947 E12.69565
G1 X79.995 Y81.385 E12.72991
G1 X80.369 Y80.996 E12.75421
G1 X80.921 Y80.459 E12.78888
G1 X83.094 Y78.439 E12.92247
G1 X83.642 Y77.942 E12.95578
G1 X84.081 Y77.565 E12.98183
G1 X84.658 Y77.103 E13.01511
G1 X87.093 Y75.246 E13.153
G1 X87.499 Y74.946 E13.17573
G1 X87.998 Y74.599 E13.20309
G1 X89.343 Y73.727 E13.27527
G1 X91.252 Y72.544 E13.37639
G1 X91.765 Y72.237 E13.40331
G1 X92.287 Y71.945 E13.43024
G1 X93.696 Y71.213 E13.50173
G1 X95.714 Y70.217 E13.60306
G1 X96.265 Y69.955 E13.63053
G1 X96.805 Y69.717 E13.6571
G1 X98.115 Y69.189 E13.72069
G1 X100.381 Y68.332 E13.82977
G1 X100.896 Y68.145 E13.85444
G1 X101.458 Y67.956 E13.88114
G1 X101.776 Y67.858 E13.89612
G1 X102.864 Y67.543 E13.94712
G1 X105.197 Y66.909 E14.05598
G1 X106.006 Y66.705 E14.09355
G1 X106.254 Y66.648 E14.105
G1 X106.655 Y66.564 E14.12345
G1 X107.745 Y66.361 E14.17337
G1 X110.107 Y65.962 E14.28123
G1 X110.863 Y65.844 E14.31568
G1 X111.531 Y65.762 E14.34599
G1 X112.627 Y65.667 E14.39552
G1 X115.404 Y65.474 E14.52086
G1 X116.002 Y65.441 E14.54782
G1 X116.625 Y65.426 E14.57588
G1 X117.636 Y65.432 E14.6214
G1 X120.081 Y65.491 E14.73153
G0 F7500 X120.091 Y65.091
G1 F1500 X120.626 Y65.111 E14.75563
G1 X120.972 Y65.131 E14.77124
G1 X121.566 Y65.174 E14.79805
G1 X121.921 Y65.205 E14.8141
G1 X122.707 Y65.29 E14.84969
G1 X125.242 Y65.601 E14.96469
G1 X125.688 Y65.661 E14.98495
G1 X126.073 Y65.72 E15.00249
G1 X126.619 Y65.814 E15.02744
G1 X126.938 Y65.874 E15.04205
G1 X127.746 Y66.04 E15.07919
G1 X130.289 Y66.605 E15.19648
G1 X130.697 Y66.702 E15.21537
G1 X131.003 Y66.78 E15.22959
G1 X131.504 Y66.915 E15.25295
G1 X131.864 Y67.019 E15.26982
G1 X132.668 Y67.268 E15.30772
G1 X135.054 Y68.046 E15.42072
G1 X135.481 Y68.191 E15.44102
G1 X135.836 Y68.319 E15.45801
G1 X136.439 Y68.548 E15.48705
G1 X136.781 Y68.684 E15.50363
G1 X137.432 Y68.958 E15.53543
G1 X139.767 Y69.978 E15.65016
G1 X140.161 Y70.157 E15.66964
G1 X140.478 Y70.307 E15.68543
G1 X141.149 Y70.639 E15.71914
G1 X141.465 Y70.803 E15.73517
G1 X141.94 Y71.059 E15.75947
G1 X144.283 Y72.365 E15.88024
G1 X144.875 Y72.706 E15.91101
G1 X145.414 Y73.039 E15.93953
G1 X146.229 Y73.578 E15.98353
G1 X148.476 Y75.131 E16.10651
G1 X149.091 Y75.568 E16.14048
G1 X149.645 Y75.99 E16.17184
G1 X150.369 Y76.582 E16.21395
G1 X152.436 Y78.33 E16.33584
G1 X152.973 Y78.796 E16.36785
G1 X153.444 Y79.23 E16.39669
G1 X154.056 Y79.834 E16.4354
G1 X156.071 Y81.901 E16.56538
G1 X156.536 Y82.39 E16.59576
G1 X156.977 Y82.883 E16.62554
G1 X157.526 Y83.541 E16.66413
G1 X159.319 Y85.776 E16.79314
G1 X159.756 Y86.336 E16.82513
G1 X160.147 Y86.871 E16.85496
G1 X160.631 Y87.583 E16.89373
G1 X162.189 Y89.963 E17.02181
G1 X162.583 Y90.584 E17.05492
G1 X162.906 Y91.125 E17.08329
G1 X163.259 Y91.77 E17.1164
G1 X164.655 Y94.436 E17.2519
G1 X164.949 Y95.015 E17.28114
G1 X165.213 Y95.573 E17.30893
G1 X165.527 Y96.302 E17.34467
G1 X166.663 Y99.098 E17.48056
G1 X166.898 Y99.7 E17.50965
G1 X167.105 Y100.278 E17.5373
G1 X167.351 Y101.046 E17.57361
G1 X168.201 Y103.896 E17.70752
G1 X168.394 Y104.579 E17.73947
G1 X168.531 Y105.118 E17.76452
G1 X168.633 Y105.568 E17.78529
G1 X168.699 Y105.883 E17.79978
G1 X169.278 Y108.857 E17.9362
G1 X169.371 Y109.37 E17.95968
G1 X169.471 Y110.045 E17.9904
G1 X169.635 Y111.484 E18.05561
G1 X169.883 Y114.118 E18.17474
G1 X169.934 Y114.745 E18.20306
G1 X169.968 Y115.343 E18.23003
G1 X169.98 Y115.796 E18.25043
G1 X169.981 Y116.1 E18.26412
G1 X169.977 Y118.948 E18.39236
G1 X169.968 Y119.518 E18.41802
G1 X169.938 Y120.167 E18.44728
G1 X169.834 Y121.483 E18.50672
G1 X169.588 Y124.025 E18.62171
G1 X169.529 Y124.558 E18.64585
G1 X169.434 Y125.22 E18.67596
G1 X169.193 Y126.584 E18.73833
G1 X168.719 Y129 E18.84919
G1 X168.606 Y129.541 E18.87407
G1 X168.444 Y130.207 E18.90493
G1 X168.078 Y131.521 E18.96635
G1 X167.367 Y133.898 E19.07806
G1 X167.207 Y134.411 E19.10226
G1 X166.983 Y135.056 E19.133
G1 X166.492 Y136.328 E19.19439
G1 X165.533 Y138.681 E19.3088
G1 X165.332 Y139.153 E19.3319
G1 X165.065 Y139.73 E19.36053
G1 X164.432 Y140.994 E19.42418
G1 X163.289 Y143.165 E19.53465
G1 X163.003 Y143.691 E19.56161
G1 X162.672 Y144.258 E19.59117
G1 X161.977 Y145.363 E19.64994
G1 X160.545 Y147.545 E19.76746
G1 X160.289 Y147.923 E19.78801
G1 X159.907 Y148.45 E19.81732
G1 X159.025 Y149.591 E19.88225
G1 X157.461 Y151.536 E19.99463
G1 X157.12 Y151.946 E20.01864
G1 X156.708 Y152.413 E20.04668
G1 X155.755 Y153.427 E20.10934
G1 X154.013 Y155.207 E20.22148
G1 X153.614 Y155.603 E20.24679
G1 X153.146 Y156.04 E20.27562
G1 X152.108 Y156.949 E20.33775
G1 X150.178 Y158.574 E20.45135
G1 X149.791 Y158.891 E20.47387
G1 X149.26 Y159.298 E20.50399
G1 X148.126 Y160.111 E20.56682
G1 X146.068 Y161.53 E20.67937
G1 X145.631 Y161.822 E20.70304
G1 X145.065 Y162.175 E20.73307
G1 X143.869 Y162.866 E20.79527
G1 X141.74 Y164.047 E20.90489
G1 X141.202 Y164.336 E20.93239
G1 X140.606 Y164.632 E20.96235
G1 X139.39 Y165.188 E21.02255
G1 X137.099 Y166.183 E21.13502
G1 X136.609 Y166.389 E21.15895
G1 X135.957 Y166.638 E21.19037
G1 X134.636 Y167.091 E21.25325
G1 X132.301 Y167.846 E21.36375
G1 X131.762 Y168.012 E21.38914
G1 X131.129 Y168.186 E21.4187
G1 X129.798 Y168.505 E21.48033
G1 X127.369 Y169.039 E21.59231
G1 X126.858 Y169.145 E21.6158
G1 X126.174 Y169.264 E21.64706
G1 X124.796 Y169.454 E21.7097
G1 X122.361 Y169.746 E21.82012
G1 X121.57 Y169.83 E21.85594
G1 X120.872 Y169.881 E21.88745
G1 X120.119 Y169.909 E21.92138
G1 X117.289 Y169.974 E22.04883
G1 X116.755 Y169.978 E22.07288
G1 X116.124 Y169.964 E22.1013
G1 X114.844 Y169.895 E22.15901
G1 X112.319 Y169.713 E22.273
G1 X111.317 Y169.621 E22.3183
G1 X110.728 Y169.544 E22.34505
G1 X110.161 Y169.454 E22.3709
G1 X107.216 Y168.947 E22.50545
G1 X106.674 Y168.847 E22.53027
G1 X105.996 Y168.699 E22.56151
G1 X104.663 Y168.359 E22.62345
G1 X102.3 Y167.712 E22.73377
G1 X101.738 Y167.55 E22.7601
G1 X101.096 Y167.343 E22.79047
G1 X99.819 Y166.883 E22.85159
G1 X97.508 Y166.002 E22.96295
G1 X96.997 Y165.8 E22.98769
G1 X96.374 Y165.53 E23.01826
G1 X95.13 Y164.941 E23.08023
G1 X92.881 Y163.823 E23.19332
G1 X92.429 Y163.591 E23.2162
G1 X91.844 Y163.267 E23.24631
G1 X90.628 Y162.541 E23.31007
G1 X88.573 Y161.258 E23.41915
G1 X88.055 Y160.925 E23.44688
G1 X87.515 Y160.554 E23.47638
G1 X86.472 Y159.786 E23.5347
G1 X84.613 Y158.364 E23.64008
G1 X84.084 Y157.949 E23.67036
G1 X83.556 Y157.506 E23.70139
G1 X82.487 Y156.546 E23.76608
G1 X80.785 Y154.959 E23.87086
G1 X80.306 Y154.499 E23.90077
G1 X79.865 Y154.05 E23.9291
G1 X78.916 Y153.02 E23.99216
G1 X77.402 Y151.309 E24.09503
G1 X76.816 Y150.624 E24.13562
G1 X76.411 Y150.12 E24.16473
G1 X75.727 Y149.21 E24.21599
G1 X74.391 Y147.368 E24.31845
G1 X73.743 Y146.441 E24.36937
G1 X73.375 Y145.877 E24.39969
G1 X72.914 Y145.116 E24.43976
G1 X71.759 Y143.15 E24.54242
G1 X71.094 Y141.964 E24.60364
G1 X70.789 Y141.377 E24.63343
G1 X70.495 Y140.765 E24.664
G1 X69.426 Y138.458 E24.77848
G1 X69.023 Y137.548 E24.8233
G1 X68.775 Y136.937 E24.85299
G1 X68.398 Y135.916 E24.90199
G1 X67.663 Y133.819 E25.00204
G1 X67.274 Y132.639 E25.05799
G1 X67.088 Y132.01 E25.08752
G1 X66.89 Y131.251 E25.12284
G1 X66.265 Y128.709 E25.2407
G1 X66.098 Y127.991 E25.2739
G1 X65.987 Y127.453 E25.29863
G1 X65.912 Y127.022 E25.31833
G1 X65.812 Y126.382 E25.34749
G1 X65.371 Y123.314 E25.48705
G1 X65.327 Y122.932 E25.50437
G1 X65.263 Y122.268 E25.5344
G1 X65.234 Y121.899 E25.55107
G1 X65.177 Y120.956 E25.5936
G1 X65.061 Y118.417 E25.70804
G1 X65.044 Y117.872 E25.7326
G1 X65.044 Y117.233 E25.76137
G1 X65.083 Y115.965 E25.81849
G1 X65.198 Y113.62 E25.9242
G1 X65.246 Y112.85 E25.95894
G1 X65.288 Y112.359 E25.98113
G1 X65.344 Y111.869 E26.00333
G1 X65.433 Y111.211 E26.03323
G1 X65.785 Y108.822 E26.14196
G1 X66.013 Y107.462 E26.20405
G1 X66.144 Y106.809 E26.23403
G1 X66.292 Y106.175 E26.26335
G1 X66.926 Y103.608 E26.3824
G1 X67.129 Y102.836 E26.41834
G1 X67.257 Y102.393 E26.43911
G1 X67.429 Y101.849 E26.4648
G1 X67.59 Y101.379 E26.48717
G1 X68.511 Y98.769 E26.61179
G1 X68.769 Y98.068 E26.64542
G1 X68.956 Y97.596 E26.66828
G1 X69.108 Y97.237 E26.68583
G1 X69.257 Y96.902 E26.70234
