;FLAVOR:Marlin
M117 Time Left 3h16m54s
;Filament used: 15.4149m
;Layer height: 0.28
;MINX:53.225
;MINY:53.222
;MINZ:0.285
;MAXX:181.761
;MAXY:181.776
;MAXZ:21.285
;POSTPROCESSED
;Generated with Cura_SteamEngine 4.6.1
M140 S80
M105
M190 S80
M104 S240
M105
M109 S240
M82 ;absolute extrusion mode
; Ender 3 Custom Start G-code
G92 E0 ; Reset Extruder
G28 ; Home all axes
G1 Z2.0 F3000 ; Move Z Axis up little to prevent scratching of Heat Bed
G1 X0.1 Y20 Z0.3 F5000.0 ; Move to start position
G1 X0.1 Y200.0 Z0.3 F1500.0 E15 ; Draw the first line
G1 X0.4 Y200.0 Z0.3 F5000.0 ; Move to side a little
G1 X0.4 Y20 Z0.3 F1500.0 E30 ; Draw the second line
G92 E0 ; Reset Extruder
G1 Z2.0 F3000 ; Move Z Axis up little to prevent scratching of Heat Bed
G1 X5 Y20 Z0.3 F5000.0 ; Move over to prevent blob squish
G92 E0
G92 E0
G1 F2700 E-6
;LAYER_COUNT:76
;LAYER:0
M107
M204 S500
M205 X8 Y8
G0 F7500 X119.987 Y54.079 Z0.285
;TYPE:SKIRT
G1 F2700 E0
G1 F1500 X123.288 Y54.294 E0.14895
G1 X123.986 Y54.349 E0.18047
G1 X124.573 Y54.412 E0.20705
G1 X125.464 Y54.535 E0.24755
G1 X128.714 Y55.029 E0.39557
G1 X129.403 Y55.144 E0.42702
G1 X129.961 Y55.253 E0.45262
G1 X130.803 Y55.444 E0.49149
G1 X134.09 Y56.239 E0.64376
G1 X134.712 Y56.399 E0.67268
G1 X135.263 Y56.557 E0.69849
G1 X136.124 Y56.832 E0.73918
G1 X139.254 Y57.879 E0.88779
G1 X139.882 Y58.098 E0.91774
G1 X140.439 Y58.311 E0.94459
G1 X141.229 Y58.64 E0.98312
G1 X144.312 Y59.979 E1.13446
G1 X144.924 Y60.255 E1.16469
G1 X145.419 Y60.494 E1.18944
G1 X146.178 Y60.889 E1.22797
G1 X149.178 Y62.51 E1.3815
G1 X149.73 Y62.818 E1.40996
G1 X150.231 Y63.116 E1.43621
G1 X150.991 Y63.6 E1.47678
G1 X153.769 Y65.426 E1.62646
G1 X154.308 Y65.79 E1.65575
G1 X154.757 Y66.112 E1.68062
G1 X155.385 Y66.589 E1.71613
G1 X158.065 Y68.702 E1.8698
G1 X158.639 Y69.168 E1.90309
G1 X159.075 Y69.543 E1.92898
G1 X159.74 Y70.15 E1.96952
G1 X162.106 Y72.369 E2.11557
G1 X162.635 Y72.881 E2.14872
G1 X163.025 Y73.28 E2.17384
G1 X163.731 Y74.044 E2.22068
G1 X165.854 Y76.41 E2.36381
G1 X166.307 Y76.93 E2.39486
G1 X166.633 Y77.324 E2.41789
G1 X167.127 Y77.955 E2.45397
G1 X169.227 Y80.748 E2.61131
G1 X169.597 Y81.255 E2.63957
G1 X169.916 Y81.718 E2.66489
G1 X170.444 Y82.535 E2.70869
G1 X172.151 Y85.262 E2.85354
G1 X172.533 Y85.892 E2.88672
G1 X172.818 Y86.394 E2.91271
G1 X173.235 Y87.181 E2.95281
G1 X174.715 Y90.072 E3.09905
G1 X175.042 Y90.732 E3.13221
G1 X175.292 Y91.277 E3.15921
G1 X175.636 Y92.091 E3.199
G1 X176.861 Y95.093 E3.34499
G1 X177.122 Y95.757 E3.37711
G1 X177.327 Y96.327 E3.40439
G1 X177.635 Y97.276 E3.44931
G1 X178.587 Y100.346 E3.59403
G1 X178.773 Y100.979 E3.62374
G1 X178.92 Y101.536 E3.64968
G1 X179.156 Y102.552 E3.69664
G1 X179.824 Y105.606 E3.8374
G1 X179.965 Y106.288 E3.86876
G1 X180.073 Y106.909 E3.89714
G1 X180.199 Y107.797 E3.93752
G1 X180.618 Y111.035 E4.08453
G1 X180.698 Y111.729 E4.11599
G1 X180.748 Y112.316 E4.14251
G1 X180.802 Y113.28 E4.18599
G1 X180.94 Y116.475 E4.32998
G1 X180.961 Y117.203 E4.36277
G1 X180.961 Y117.786 E4.38902
G1 X180.936 Y118.643 E4.42762
G1 X180.792 Y121.952 E4.57676
G1 X180.753 Y122.642 E4.60787
G1 X180.703 Y123.226 E4.63426
G1 X180.598 Y124.13 E4.67524
G1 X180.17 Y127.417 E4.82449
G1 X180.074 Y128.082 E4.85474
G1 X179.977 Y128.647 E4.88056
G1 X179.819 Y129.419 E4.91604
G1 X179.092 Y132.737 E5.06898
G1 X178.935 Y133.411 E5.10014
G1 X178.793 Y133.953 E5.12536
G1 X178.56 Y134.747 E5.16262
G1 X177.56 Y137.963 E5.31426
G1 X177.345 Y138.624 E5.34556
G1 X177.144 Y139.186 E5.37244
G1 X176.809 Y140.038 E5.41366
G1 X175.562 Y143.09 E5.5621
G1 X175.303 Y143.7 E5.59194
G1 X175.056 Y144.238 E5.6186
G1 X174.656 Y145.043 E5.65907
G1 X173.193 Y147.898 E5.80352
G1 X172.834 Y148.577 E5.8381
G1 X172.539 Y149.098 E5.86506
G1 X172.062 Y149.882 E5.90638
G1 X170.35 Y152.612 E6.05147
G1 X169.981 Y153.184 E6.08212
G1 X169.642 Y153.677 E6.10906
G1 X168.984 Y154.575 E6.15918
G1 X167.108 Y157.066 E6.29959
G1 X166.683 Y157.614 E6.33082
G1 X166.321 Y158.055 E6.35651
G1 X165.786 Y158.668 E6.39314
G1 X163.562 Y161.143 E6.54296
G1 X163.064 Y161.683 E6.57604
G1 X162.641 Y162.116 E6.60329
G1 X162.004 Y162.727 E6.64303
G1 X159.614 Y164.968 E6.79055
G1 X159.141 Y165.401 E6.81943
G1 X158.669 Y165.808 E6.84749
G1 X157.863 Y166.458 E6.89411
G1 X155.353 Y168.433 E7.03792
G1 X154.806 Y168.85 E7.06889
G1 X154.352 Y169.176 E7.09405
G1 X153.602 Y169.684 E7.13484
G1 X150.856 Y171.487 E7.28275
G1 X150.257 Y171.868 E7.31471
G1 X149.761 Y172.164 E7.34072
G1 X149.02 Y172.577 E7.37892
G1 X146.055 Y174.176 E7.53059
G1 X145.488 Y174.472 E7.55939
G1 X144.951 Y174.733 E7.58628
G1 X144.149 Y175.092 E7.62584
G1 X141.115 Y176.407 E7.77473
G1 X140.491 Y176.668 E7.80518
G1 X139.925 Y176.885 E7.83248
G1 X139.047 Y177.191 E7.87434
G1 X135.957 Y178.223 E8.02103
G1 X135.297 Y178.433 E8.05221
G1 X134.761 Y178.587 E8.07732
G1 X133.896 Y178.81 E8.11754
G1 X130.625 Y179.598 E8.26904
G1 X130.003 Y179.739 E8.29775
G1 X129.439 Y179.85 E8.32363
G1 X128.598 Y179.99 E8.36202
G1 X125.305 Y180.488 E8.51198
G1 X124.596 Y180.586 E8.54421
G1 X124.006 Y180.65 E8.57093
G1 X123.176 Y180.715 E8.60841
G1 X119.827 Y180.93 E8.75951
G1 X119.176 Y180.963 E8.78886
G1 X118.58 Y180.976 E8.81571
G1 X117.546 Y180.967 E8.86226
G1 X114.36 Y180.898 E9.00575
G1 X113.686 Y180.874 E9.03612
G1 X113.106 Y180.836 E9.06229
G1 X112.264 Y180.757 E9.10037
G1 X108.944 Y180.397 E9.25073
G1 X108.27 Y180.315 E9.2813
G1 X107.691 Y180.228 E9.30766
G1 X106.782 Y180.063 E9.34926
G1 X103.536 Y179.424 E9.49822
G1 X102.92 Y179.295 E9.52656
G1 X102.338 Y179.156 E9.5535
G1 X101.428 Y178.907 E9.59598
G1 X98.322 Y178.014 E9.74149
G1 X97.638 Y177.808 E9.77366
G1 X97.063 Y177.616 E9.80095
G1 X96.261 Y177.32 E9.83945
G1 X93.109 Y176.112 E9.99143
G1 X92.527 Y175.878 E10.01968
G1 X92.017 Y175.656 E10.04472
G1 X91.079 Y175.217 E10.09135
G1 X88.23 Y173.834 E10.23395
G1 X87.615 Y173.526 E10.26492
G1 X87.08 Y173.238 E10.29227
G1 X86.28 Y172.774 E10.33391
G1 X83.515 Y171.123 E10.47892
G1 X82.902 Y170.747 E10.5113
G1 X82.387 Y170.409 E10.53903
G1 X81.671 Y169.907 E10.5784
G1 X78.996 Y167.979 E10.72687
G1 X78.451 Y167.575 E10.75742
G1 X77.988 Y167.211 E10.78394
G1 X77.264 Y166.605 E10.82645
G1 X74.783 Y164.471 E10.9738
G1 X74.29 Y164.035 E11.00343
G1 X73.868 Y163.64 E11.02946
G1 X73.214 Y162.99 E11.07097
G1 X70.923 Y160.648 E11.21849
G1 X70.442 Y160.143 E11.24989
G1 X70.039 Y159.694 E11.27705
G1 X69.461 Y159.009 E11.31741
G1 X67.365 Y156.461 E11.46597
G1 X66.952 Y155.944 E11.49576
G1 X66.602 Y155.481 E11.52189
G1 X66.086 Y154.752 E11.56211
G1 X64.216 Y152.03 E11.7108
G1 X63.835 Y151.459 E11.74171
G1 X63.519 Y150.954 E11.76853
G1 X63.019 Y150.099 E11.81313
G1 X61.425 Y147.288 E11.95863
G1 X61.112 Y146.719 E11.98787
G1 X60.845 Y146.199 E12.01419
G1 X60.501 Y145.476 E12.05024
G1 X59.097 Y142.415 E12.20187
G1 X58.805 Y141.752 E12.23449
G1 X58.591 Y141.228 E12.25998
G1 X58.249 Y140.312 E12.304
G1 X57.166 Y137.289 E12.44859
G1 X56.944 Y136.638 E12.47955
G1 X56.774 Y136.09 E12.50539
G1 X56.486 Y135.056 E12.55372
G1 X55.676 Y131.984 E12.69676
G1 X55.524 Y131.372 E12.72516
G1 X55.403 Y130.823 E12.75047
G1 X55.232 Y129.915 E12.79207
G1 X54.661 Y126.624 E12.94247
G1 X54.556 Y125.964 E12.97256
G1 X54.482 Y125.396 E12.99835
G1 X54.402 Y124.599 E13.03441
G1 X54.112 Y121.221 E13.18707
G1 X54.062 Y120.53 E13.21827
G1 X54.036 Y119.937 E13.24499
G1 X54.025 Y119.08 E13.28358
G1 X54.026 Y115.776 E13.43235
G1 X54.035 Y115.11 E13.46234
G1 X54.061 Y114.505 E13.4896
G1 X54.14 Y113.44 E13.53769
G1 X54.41 Y110.317 E13.67883
G1 X54.479 Y109.632 E13.70983
G1 X54.551 Y109.072 E13.73525
G1 X54.693 Y108.179 E13.77596
G1 X55.268 Y104.885 E13.92652
G1 X55.393 Y104.224 E13.95681
G1 X55.511 Y103.68 E13.98187
G1 X55.701 Y102.913 E14.01745
G1 X56.576 Y99.61 E14.1713
G1 X56.754 Y98.97 E14.20121
G1 X56.933 Y98.393 E14.22841
G1 X57.225 Y97.545 E14.2688
G1 X58.321 Y94.49 E14.41494
G1 X58.567 Y93.832 E14.44656
G1 X58.797 Y93.269 E14.47395
G1 X59.231 Y92.291 E14.52212
G1 X60.514 Y89.5 E14.66043
G1 X60.832 Y88.829 E14.69387
G1 X61.104 Y88.295 E14.72085
G1 X61.488 Y87.596 E14.75676
G1 X63.164 Y84.648 E14.90945
G1 X63.499 Y84.076 E14.9393
G1 X63.814 Y83.573 E14.96602
G1 X64.303 Y82.841 E15.00565
G1 X66.182 Y80.112 E15.15484
G1 X66.565 Y79.57 E15.18472
G1 X66.929 Y79.086 E15.21199
G1 X67.505 Y78.367 E15.25347
G1 X69.574 Y75.856 E15.39997
G1 X70.019 Y75.329 E15.43102
G1 X70.425 Y74.876 E15.45841
G1 X71.039 Y74.233 E15.49844
G1 X73.315 Y71.908 E15.64494
G1 X73.834 Y71.393 E15.67786
G1 X74.259 Y70.994 E15.70411
G1 X74.959 Y70.377 E15.74612
G1 X77.389 Y68.287 E15.89044
G1 X77.964 Y67.806 E15.92419
G1 X78.439 Y67.433 E15.95138
G1 X79.105 Y66.941 E15.98867
G1 X81.816 Y64.99 E16.13906
G1 X82.373 Y64.601 E16.16965
G1 X82.852 Y64.287 E16.19543
G1 X83.635 Y63.804 E16.23686
G1 X86.457 Y62.121 E16.3848
G1 X87.051 Y61.778 E16.41569
G1 X87.533 Y61.517 E16.44037
G1 X88.266 Y61.146 E16.47736
G1 X91.329 Y59.662 E16.6306
G1 X91.976 Y59.36 E16.66275
G1 X92.489 Y59.138 E16.68792
G1 X93.28 Y58.821 E16.72629
G1 X96.419 Y57.62 E16.87762
G1 X97.045 Y57.391 E16.90763
G1 X97.588 Y57.209 E16.93342
G1 X98.488 Y56.937 E16.97575
G1 X101.618 Y56.039 E17.12237
G1 X102.279 Y55.859 E17.15321
G1 X102.835 Y55.725 E17.17897
G1 X103.711 Y55.54 E17.21928
G1 X106.992 Y54.897 E17.36982
G1 X107.614 Y54.784 E17.39828
G1 X108.203 Y54.695 E17.4251
G1 X109.186 Y54.576 E17.46969
G1 X112.429 Y54.226 E17.61655
G1 X113.08 Y54.165 E17.64599
G1 X113.656 Y54.128 E17.67198
G1 X114.493 Y54.098 E17.70969
G1 X117.869 Y54.027 E17.86174
G1 X118.528 Y54.022 E17.89141
G1 X119.112 Y54.035 E17.91771
G1 X119.987 Y54.079 E17.95716
G0 F7500 X120.012 Y53.68
G1 F1500 X123.32 Y53.895 E18.10642
G1 X124.018 Y53.95 E18.13794
G1 X124.627 Y54.016 E18.16552
G1 X125.524 Y54.14 E18.2063
G1 X128.78 Y54.635 E18.35459
G1 X129.469 Y54.75 E18.38604
G1 X130.049 Y54.863 E18.41264
G1 X130.896 Y55.055 E18.45175
G1 X134.19 Y55.851 E18.60433
G1 X134.812 Y56.011 E18.63325
G1 X135.384 Y56.176 E18.66005
G1 X136.251 Y56.453 E18.70104
G1 X139.385 Y57.501 E18.84983
G1 X140.013 Y57.72 E18.87977
G1 X140.592 Y57.941 E18.90768
G1 X141.388 Y58.273 E18.94651
G1 X144.477 Y59.614 E19.09814
G1 X145.089 Y59.89 E19.12837
G1 X145.603 Y60.139 E19.15408
G1 X146.368 Y60.537 E19.19291
G1 X149.373 Y62.16 E19.34669
G1 X149.925 Y62.468 E19.37515
G1 X150.445 Y62.779 E19.40243
G1 X151.21 Y63.266 E19.44326
G1 X153.992 Y65.095 E19.59317
G1 X154.531 Y65.459 E19.62245
G1 X154.999 Y65.793 E19.64834
G1 X155.632 Y66.275 E19.68417
G1 X158.317 Y68.392 E19.83812
G1 X158.891 Y68.858 E19.87141
G1 X159.344 Y69.247 E19.89829
G1 X160.014 Y69.858 E19.93912
G1 X162.384 Y72.081 E20.08543
G1 X162.913 Y72.593 E20.11858
G1 X163.319 Y73.008 E20.14472
G1 X164.028 Y73.776 E20.19178
G1 X166.156 Y76.147 E20.33523
G1 X166.609 Y76.667 E20.36628
G1 X166.948 Y77.077 E20.39023
G1 X167.446 Y77.715 E20.42668
G1 X169.55 Y80.512 E20.58427
G1 X169.92 Y81.019 E20.61253
G1 X170.251 Y81.5 E20.63882
G1 X170.783 Y82.322 E20.6829
G1 X172.493 Y85.055 E20.82806
G1 X172.875 Y85.685 E20.86123
G1 X173.171 Y86.206 E20.88821
G1 X173.591 Y86.999 E20.92862
G1 X175.073 Y89.894 E21.07506
G1 X175.4 Y90.554 E21.10822
G1 X175.66 Y91.121 E21.13631
G1 X176.007 Y91.939 E21.17631
G1 X177.233 Y94.946 E21.32253
G1 X177.494 Y95.61 E21.35465
G1 X177.707 Y96.203 E21.38302
G1 X178.017 Y97.158 E21.42823
G1 X178.971 Y100.234 E21.57324
G1 X179.157 Y100.867 E21.60295
G1 X179.309 Y101.445 E21.62986
G1 X179.547 Y102.467 E21.6771
G1 X180.215 Y105.525 E21.81804
G1 X180.356 Y106.207 E21.8494
G1 X180.469 Y106.852 E21.87888
G1 X180.596 Y107.746 E21.91954
G1 X181.015 Y110.989 E22.06677
G1 X181.095 Y111.683 E22.09823
G1 X181.148 Y112.293 E22.12579
G1 X181.202 Y113.262 E22.16949
G1 X181.34 Y116.463 E22.31375
G1 X181.361 Y117.191 E22.34655
G1 X181.361 Y117.797 E22.37383
G1 X181.335 Y118.66 E22.41271
G1 X181.191 Y121.974 E22.56206
G1 X181.152 Y122.664 E22.59318
G1 X181.1 Y123.272 E22.62066
G1 X180.995 Y124.182 E22.6619
G1 X180.566 Y127.475 E22.81143
G1 X180.47 Y128.14 E22.84168
G1 X180.369 Y128.727 E22.8685
G1 X180.21 Y129.504 E22.90421
G1 X179.482 Y132.828 E23.05742
G1 X179.325 Y133.502 E23.08858
G1 X179.177 Y134.065 E23.11479
G1 X178.942 Y134.866 E23.15238
G1 X177.94 Y138.087 E23.30426
G1 X177.725 Y138.748 E23.33556
G1 X177.516 Y139.332 E23.36349
G1 X177.18 Y140.189 E23.40493
G1 X175.93 Y143.247 E23.55368
G1 X175.671 Y143.857 E23.58352
G1 X175.414 Y144.415 E23.61118
G1 X175.012 Y145.226 E23.65194
G1 X173.547 Y148.085 E23.79658
G1 X173.188 Y148.764 E23.83117
G1 X172.881 Y149.305 E23.85917
G1 X172.401 Y150.095 E23.90079
G1 X170.686 Y152.829 E24.04611
G1 X170.317 Y153.401 E24.07676
G1 X169.965 Y153.914 E24.10477
G1 X169.304 Y154.816 E24.15512
G1 X167.424 Y157.311 E24.29578
G1 X166.999 Y157.859 E24.32701
G1 X166.623 Y158.318 E24.35373
G1 X166.083 Y158.936 E24.39068
G1 X163.856 Y161.414 E24.54069
G1 X163.358 Y161.954 E24.57376
G1 X162.918 Y162.404 E24.6021
G1 X162.278 Y163.019 E24.64207
G1 X159.884 Y165.263 E24.78981
G1 X159.411 Y165.696 E24.81868
G1 X158.92 Y166.119 E24.84786
G1 X158.11 Y166.772 E24.89471
G1 X155.595 Y168.751 E25.0388
G1 X155.048 Y169.168 E25.06977
G1 X154.577 Y169.507 E25.0959
G1 X153.822 Y170.019 E25.13698
G1 X151.071 Y171.824 E25.28513
G1 X150.472 Y172.205 E25.31709
G1 X149.957 Y172.513 E25.34411
G1 X149.21 Y172.929 E25.38261
G1 X146.24 Y174.531 E25.53455
G1 X145.673 Y174.827 E25.56335
G1 X145.115 Y175.097 E25.59126
G1 X144.309 Y175.459 E25.63104
G1 X141.269 Y176.776 E25.78021
G1 X140.645 Y177.037 E25.81067
G1 X140.057 Y177.263 E25.83903
G1 X139.174 Y177.571 E25.88114
G1 X136.078 Y178.604 E26.02809
G1 X135.418 Y178.814 E26.05928
G1 X134.861 Y178.975 E26.08538
G1 X133.99 Y179.199 E26.12588
G1 X130.713 Y179.988 E26.27764
G1 X130.091 Y180.129 E26.30636
G1 X129.506 Y180.244 E26.3332
G1 X128.658 Y180.385 E26.37191
G1 X125.359 Y180.884 E26.52214
G1 X124.65 Y180.982 E26.55437
G1 X124.038 Y181.049 E26.58209
G1 X123.202 Y181.114 E26.61984
G1 X119.848 Y181.329 E26.77117
G1 X119.197 Y181.362 E26.80052
G1 X118.577 Y181.376 E26.82844
G1 X117.537 Y181.367 E26.87527
G1 X114.346 Y181.297 E27.01898
G1 X113.672 Y181.273 E27.04935
G1 X113.069 Y181.235 E27.07656
G1 X112.221 Y181.155 E27.11491
G1 X108.896 Y180.794 E27.2655
G1 X108.222 Y180.712 E27.29607
G1 X107.62 Y180.622 E27.32348
G1 X106.705 Y180.455 E27.36536
G1 X103.454 Y179.816 E27.51454
G1 X102.838 Y179.687 E27.54287
G1 X102.233 Y179.542 E27.57088
G1 X101.317 Y179.292 E27.61364
G1 X98.206 Y178.397 E27.75939
G1 X97.522 Y178.191 E27.79156
G1 X96.926 Y177.991 E27.81986
G1 X96.118 Y177.694 E27.85863
G1 X92.96 Y176.483 E28.01091
G1 X92.378 Y176.249 E28.03916
G1 X91.847 Y176.019 E28.06521
G1 X90.904 Y175.577 E28.1121
G1 X88.051 Y174.192 E28.2549
G1 X87.436 Y173.884 E28.28587
G1 X86.88 Y173.584 E28.31432
G1 X86.074 Y173.117 E28.35626
G1 X83.306 Y171.464 E28.50142
G1 X82.693 Y171.088 E28.5338
G1 X82.157 Y170.737 E28.56265
G1 X81.438 Y170.232 E28.60221
G1 X78.758 Y168.3 E28.75097
G1 X78.213 Y167.896 E28.78151
G1 X77.731 Y167.518 E28.80909
G1 X77.003 Y166.908 E28.85186
G1 X74.518 Y164.77 E28.99946
G1 X74.025 Y164.334 E29.02909
G1 X73.586 Y163.924 E29.05614
G1 X72.928 Y163.27 E29.09791
G1 X70.633 Y160.924 E29.24568
G1 X70.152 Y160.419 E29.27708
G1 X69.734 Y159.952 E29.3053
G1 X69.152 Y159.263 E29.34591
G1 X67.052 Y156.711 E29.49472
G1 X66.639 Y156.194 E29.52451
G1 X66.276 Y155.712 E29.55168
G1 X65.757 Y154.978 E29.59216
G1 X63.884 Y152.252 E29.74108
G1 X63.503 Y151.681 E29.77199
G1 X63.174 Y151.156 E29.79988
G1 X62.671 Y150.296 E29.84474
G1 X61.074 Y147.481 E29.99047
G1 X60.761 Y146.912 E30.01971
G1 X60.484 Y146.372 E30.04703
G1 X60.137 Y145.643 E30.08339
G1 X58.731 Y142.576 E30.2353
G1 X58.439 Y141.913 E30.26792
G1 X58.217 Y141.369 E30.29437
G1 X57.872 Y140.447 E30.3387
G1 X56.787 Y137.418 E30.48357
G1 X56.565 Y136.767 E30.51454
G1 X56.389 Y136.198 E30.54136
G1 X56.1 Y135.158 E30.58996
G1 X55.288 Y132.08 E30.73329
G1 X55.136 Y131.468 E30.76168
G1 X55.01 Y130.898 E30.78797
G1 X54.838 Y129.983 E30.82989
G1 X54.266 Y126.686 E30.98055
G1 X54.161 Y126.026 E31.01064
G1 X54.084 Y125.437 E31.03739
G1 X54.003 Y124.634 E31.07373
G1 X53.713 Y121.25 E31.22666
G1 X53.663 Y120.559 E31.25785
