;FLAVOR:Marlin
M117 Time Left 2h35m03s
;Filament used: 4.73593m
;Layer height: 0.2
;MINX:64.603
;MINY:64.587
;MINZ:0.2
;MAXX:170.42
;MAXY:170.418
;MAXZ:8.2
;POSTPROCESSED
;Generated with Cura_SteamEngine 4.6.1
M140 S75
M105
M190 S75
M104 S235
M105
M109 S235
M82 ;absolute extrusion mode
; Ender 3 Custom Start G-code
G92 E0 ; Reset Extruder
G28 ; Home all axes
G1 Z2.0 F3000 ; Move Z Axis up little to prevent scratching of Heat Bed
G1 X0.1 Y20 Z0.3 F5000.0 ; Move to start position
G1 X0.1 Y200.0 Z0.3 F1500.0 E15 ; Draw the first line
G1 X0.4 Y200.0 Z0.3 F5000.0 ; Move to side a little
G1 X0.4 Y20 Z0.3 F1500.0 E30 ; Draw the second line
G92 E0 ; Reset Extruder
G1 Z2.0 F3000 ; Move Z Axis up little to prevent scratching of Heat Bed
G1 X5 Y20 Z0.3 F5000.0 ; Move over to prevent blob squish
G92 E0
G92 E0
G1 F2100 E-6
;LAYER_COUNT:40
;LAYER:0
M107
M204 S500
M205 X8 Y8
G1 F300 Z0.4
G0 F7500 X120.006 Y65.449 Z0.4
;TYPE:SKIRT
G1 F300 Z0.2
G1 F2100 E0
G1 F1500 X120.769 Y65.478 E0.02413
G1 X121.398 Y65.522 E0.04405
G1 X122.906 Y65.677 E0.09195
G1 X125.22 Y65.959 E0.16561
G1 X125.688 Y66.023 E0.18053
G1 X126.026 Y66.075 E0.19134
G1 X126.552 Y66.165 E0.2082
G1 X126.887 Y66.228 E0.21897
G1 X127.594 Y66.375 E0.24179
G1 X130.202 Y66.953 E0.32619
G1 X130.984 Y67.144 E0.35163
G1 X131.353 Y67.244 E0.36371
G1 X131.68 Y67.339 E0.37446
G1 X132.526 Y67.6 E0.40244
G1 X134.981 Y68.399 E0.48401
G1 X135.376 Y68.534 E0.4972
G1 X135.705 Y68.653 E0.50826
G1 X136.375 Y68.908 E0.53091
G1 X136.68 Y69.03 E0.54129
G1 X137.15 Y69.228 E0.5574
G1 X139.62 Y70.306 E0.64256
G1 X140.055 Y70.502 E0.65763
G1 X140.385 Y70.658 E0.66917
G1 X140.826 Y70.876 E0.68471
G1 X141.125 Y71.03 E0.69534
G1 X141.848 Y71.419 E0.72128
G1 X144.113 Y72.681 E0.80321
G1 X144.486 Y72.896 E0.81681
G1 X144.76 Y73.06 E0.8269
G1 X145.235 Y73.354 E0.84455
G1 X145.541 Y73.551 E0.85605
G1 X146.163 Y73.969 E0.87973
G1 X148.357 Y75.486 E0.96401
G1 X148.631 Y75.682 E0.97466
G1 X148.9 Y75.881 E0.98523
G1 X149.503 Y76.343 E1.00923
G1 X149.776 Y76.559 E1.02023
G1 X150.138 Y76.858 E1.03507
G1 X152.234 Y78.629 E1.12177
G1 X152.769 Y79.094 E1.14417
G1 X153.237 Y79.528 E1.16433
G1 X153.789 Y80.074 E1.18887
G1 X155.85 Y82.188 E1.28215
G1 X156.272 Y82.633 E1.30153
G1 X156.669 Y83.076 E1.32033
G1 X157.234 Y83.751 E1.34814
G1 X159.033 Y85.994 E1.43899
G1 X159.476 Y86.562 E1.46175
G1 X159.853 Y87.074 E1.48184
G1 X160.06 Y87.373 E1.49333
G1 X160.269 Y87.687 E1.50525
G1 X161.92 Y90.21 E1.60052
G1 X162.27 Y90.762 E1.62117
G1 X162.494 Y91.131 E1.63481
G1 X162.779 Y91.635 E1.65311
G1 X162.955 Y91.965 E1.66493
G1 X164.322 Y94.572 E1.75794
G1 X164.641 Y95.202 E1.78025
G1 X164.889 Y95.728 E1.79862
G1 X165.19 Y96.426 E1.82264
G1 X166.319 Y99.204 E1.91739
G1 X166.563 Y99.826 E1.9385
G1 X166.781 Y100.44 E1.95909
G1 X167.047 Y101.276 E1.98681
G1 X167.863 Y104.019 E2.07724
G1 X168.049 Y104.678 E2.09887
G1 X168.185 Y105.213 E2.11631
G1 X168.334 Y105.895 E2.13837
G1 X168.912 Y108.853 E2.2336
G1 X169.02 Y109.45 E2.25277
G1 X169.114 Y110.085 E2.27306
G1 X169.278 Y111.506 E2.31825
G1 X169.524 Y114.122 E2.40128
G1 X169.566 Y114.644 E2.41782
G1 X169.597 Y115.273 E2.43772
G1 X169.62 Y116.599 E2.47963
G1 X169.618 Y118.972 E2.55461
G1 X169.611 Y119.466 E2.57022
G1 X169.582 Y120.099 E2.59024
G1 X169.475 Y121.477 E2.63391
G1 X169.237 Y123.93 E2.71178
G1 X169.17 Y124.53 E2.73086
G1 X169.081 Y125.151 E2.75068
G1 X168.838 Y126.533 E2.79502
G1 X168.366 Y128.94 E2.87252
G1 X168.257 Y129.461 E2.88934
G1 X168.102 Y130.097 E2.91002
G1 X167.724 Y131.453 E2.9545
G1 X167.026 Y133.784 E3.03139
G1 X166.859 Y134.318 E3.04906
G1 X166.645 Y134.934 E3.06967
G1 X166.155 Y136.203 E3.11265
G1 X165.211 Y138.517 E3.19162
G1 X165.002 Y139.009 E3.20851
G1 X164.739 Y139.579 E3.22834
G1 X164.115 Y140.824 E3.27235
G1 X162.983 Y142.978 E3.34923
G1 X162.697 Y143.503 E3.36812
G1 X162.384 Y144.038 E3.38771
G1 X161.632 Y145.234 E3.43235
G1 X160.28 Y147.295 E3.51023
G1 X159.973 Y147.748 E3.52752
G1 X159.61 Y148.249 E3.54707
G1 X158.779 Y149.325 E3.59003
G1 X157.204 Y151.283 E3.66943
G1 X156.851 Y151.709 E3.68691
G1 X156.439 Y152.177 E3.70661
G1 X155.529 Y153.144 E3.74856
G1 X153.752 Y154.961 E3.82887
G1 X153.369 Y155.341 E3.84592
G1 X152.922 Y155.758 E3.86523
G1 X151.877 Y156.675 E3.90916
G1 X149.954 Y158.294 E3.98859
G1 X149.541 Y158.631 E4.00543
G1 X149.058 Y159.001 E4.02466
G1 X147.954 Y159.795 E4.06762
G1 X145.88 Y161.224 E4.14721
G1 X145.456 Y161.508 E4.16333
G1 X144.906 Y161.851 E4.18381
G1 X143.693 Y162.554 E4.22811
G1 X141.557 Y163.74 E4.30531
G1 X141.057 Y164.009 E4.32325
G1 X140.477 Y164.297 E4.34371
G1 X139.265 Y164.851 E4.38582
G1 X136.965 Y165.851 E4.46506
G1 X136.462 Y166.062 E4.4823
G1 X135.845 Y166.297 E4.50316
G1 X134.576 Y166.734 E4.54557
G1 X132.194 Y167.504 E4.62466
G1 X131.666 Y167.667 E4.64212
G1 X131.054 Y167.835 E4.66218
G1 X129.766 Y168.145 E4.70404
G1 X127.31 Y168.686 E4.7835
G1 X126.806 Y168.791 E4.79977
G1 X126.135 Y168.907 E4.82128
G1 X124.772 Y169.095 E4.86476
G1 X122.294 Y169.393 E4.94362
G1 X121.594 Y169.467 E4.96586
G1 X121.017 Y169.512 E4.98415
G1 X120.286 Y169.544 E5.00727
G1 X117.308 Y169.613 E5.10139
G1 X116.757 Y169.618 E5.1188
G1 X116.122 Y169.604 E5.13887
G1 X114.732 Y169.527 E5.18286
G1 X112.279 Y169.346 E5.26057
G1 X111.688 Y169.294 E5.27932
G1 X111.059 Y169.219 E5.29934
G1 X109.74 Y169.017 E5.3415
G1 X107.271 Y168.593 E5.42065
G1 X106.749 Y168.496 E5.43743
G1 X106.123 Y168.359 E5.45768
G1 X104.753 Y168.012 E5.50233
G1 X102.412 Y167.372 E5.57902
G1 X101.874 Y167.218 E5.5967
G1 X101.238 Y167.013 E5.61781
G1 X99.974 Y166.558 E5.66026
G1 X97.622 Y165.663 E5.73977
G1 X97.136 Y165.47 E5.7563
G1 X96.556 Y165.218 E5.77628
G1 X95.289 Y164.619 E5.82056
G1 X93.091 Y163.528 E5.8981
G1 X92.587 Y163.269 E5.916
G1 X92.036 Y162.964 E5.9359
G1 X90.852 Y162.258 E5.97946
G1 X88.776 Y160.964 E6.05675
G1 X88.282 Y160.647 E6.0753
G1 X87.752 Y160.282 E6.09563
G1 X86.68 Y159.492 E6.13771
G1 X84.728 Y157.997 E6.2154
G1 X84.265 Y157.632 E6.23402
G1 X83.773 Y157.219 E6.25432
G1 X82.727 Y156.279 E6.29876
G1 X80.925 Y154.596 E6.37667
G1 X80.527 Y154.213 E6.39412
G1 X80.1 Y153.776 E6.41342
G1 X79.182 Y152.777 E6.45629
G1 X77.499 Y150.872 E6.53661
G1 X77.161 Y150.477 E6.55304
G1 X76.777 Y150 E6.57239
G1 X75.942 Y148.892 E6.61622
G1 X74.492 Y146.891 E6.69431
G1 X74.161 Y146.42 E6.7125
G1 X73.811 Y145.887 E6.73264
G1 X73.126 Y144.767 E6.77413
G1 X71.847 Y142.584 E6.85407
G1 X71.588 Y142.129 E6.87061
G1 X71.279 Y141.544 E6.89152
G1 X70.68 Y140.308 E6.93492
G1 X69.655 Y138.09 E7.01212
G1 X69.411 Y137.542 E7.03107
G1 X69.173 Y136.959 E7.05097
G1 X68.707 Y135.704 E7.09327
G1 X67.866 Y133.304 E7.17362
G1 X67.699 Y132.804 E7.19028
G1 X67.52 Y132.206 E7.21
G1 X67.182 Y130.936 E7.25153
G1 X66.667 Y128.835 E7.31988
G1 X66.397 Y127.641 E7.35856
G1 X66.271 Y126.985 E7.37967
G1 X66.159 Y126.271 E7.4025
G1 X65.775 Y123.636 E7.48664
G1 X65.703 Y123.089 E7.50407
G1 X65.645 Y122.551 E7.52117
G1 X65.616 Y122.203 E7.5322
G1 X65.536 Y120.935 E7.57235
G1 X65.424 Y118.506 E7.64918
G1 X65.404 Y117.913 E7.66793
G1 X65.402 Y117.274 E7.68812
G1 X65.441 Y116.003 E7.7283
G1 X65.55 Y113.811 E7.79764
G1 X65.632 Y112.614 E7.83555
G1 X65.694 Y111.989 E7.8554
G1 X65.807 Y111.137 E7.88256
G1 X66.145 Y108.838 E7.95598
G1 X66.362 Y107.544 E7.99744
G1 X66.487 Y106.921 E8.01751
G1 X66.639 Y106.271 E8.03861
G1 X67.282 Y103.669 E8.1233
G1 X67.469 Y102.953 E8.14668
G1 X67.605 Y102.48 E8.16223
G1 X67.765 Y101.981 E8.17879
G1 X67.906 Y101.566 E8.19264
G1 X68.771 Y99.119 E8.27464
G1 X69.234 Y97.885 E8.31629
G1 X69.478 Y97.292 E8.33655
G1 X69.723 Y96.748 E8.3554
G1 X70.868 Y94.289 E8.44111
G1 X71.202 Y93.596 E8.46541
G1 X71.43 Y93.15 E8.48124
G1 X71.875 Y92.358 E8.50995
G1 X73.339 Y89.873 E8.60108
G1 X73.732 Y89.227 E8.62497
G1 X73.99 Y88.824 E8.64009
G1 X74.279 Y88.401 E8.65628
G1 X74.581 Y87.978 E8.6727
G1 X76.208 Y85.742 E8.76007
G1 X76.662 Y85.136 E8.784
G1 X76.959 Y84.758 E8.79919
G1 X77.279 Y84.376 E8.81493
G1 X77.583 Y84.026 E8.82958
G1 X79.494 Y81.873 E8.92054
G1 X79.981 Y81.34 E8.94336
G1 X80.314 Y80.992 E8.95858
G1 X80.553 Y80.754 E8.96923
G1 X80.799 Y80.517 E8.98003
G1 X83.088 Y78.387 E9.07882
G1 X83.629 Y77.898 E9.10186
G1 X84.018 Y77.564 E9.11806
G1 X84.356 Y77.288 E9.13185
G1 X84.617 Y77.082 E9.14236
G1 X87.062 Y75.217 E9.23952
G1 X87.633 Y74.795 E9.26196
G1 X88.043 Y74.507 E9.27779
G1 X88.348 Y74.304 E9.28937
G1 X88.618 Y74.131 E9.2995
G1 X91.262 Y72.489 E9.39784
G1 X91.889 Y72.113 E9.42094
G1 X92.314 Y71.872 E9.43638
G1 X92.631 Y71.702 E9.44774
G1 X92.929 Y71.549 E9.45833
G1 X95.707 Y70.176 E9.55624
G1 X96.223 Y69.93 E9.5743
G1 X96.798 Y69.677 E9.59415
G1 X98.215 Y69.108 E9.6424
G1 X100.391 Y68.284 E9.71592
G1 X100.836 Y68.122 E9.73088
G1 X101.169 Y68.008 E9.742
G1 X101.547 Y67.885 E9.75456
G1 X101.872 Y67.785 E9.76531
G1 X102.744 Y67.534 E9.79398
G1 X105.217 Y66.862 E9.87495
G1 X106.002 Y66.664 E9.90053
G1 X106.268 Y66.603 E9.90916
G1 X106.687 Y66.516 E9.92268
G1 X107.662 Y66.336 E9.95401
G1 X110.165 Y65.91 E10.03423
G1 X110.878 Y65.799 E10.05703
G1 X111.544 Y65.718 E10.07823
G1 X112.512 Y65.634 E10.10893
G1 X115.287 Y65.438 E10.19683
G1 X115.883 Y65.404 E10.21569
G1 X116.518 Y65.387 E10.23577
G1 X117.644 Y65.393 E10.27134
G1 X119.206 Y65.431 E10.32071
G0 F1350 X120.006 Y65.449
G0 F7500 X120.015 Y65.049
G1 F1500 X120.784 Y65.078 E10.34503
G1 X121.439 Y65.124 E10.36578
G1 X122.954 Y65.279 E10.4139
G1 X125.274 Y65.563 E10.48775
G1 X125.742 Y65.627 E10.50267
G1 X126.094 Y65.681 E10.51393
G1 X126.62 Y65.771 E10.53079
G1 X126.968 Y65.836 E10.54197
G1 X127.681 Y65.984 E10.56498
G1 X130.294 Y66.564 E10.64956
G1 X131.089 Y66.758 E10.67541
G1 X131.458 Y66.858 E10.68749
G1 X131.797 Y66.956 E10.69864
G1 X132.649 Y67.219 E10.72682
G1 X135.11 Y68.021 E10.8086
G1 X135.505 Y68.156 E10.82179
G1 X135.847 Y68.279 E10.83328
G1 X136.517 Y68.534 E10.85593
G1 X136.835 Y68.661 E10.86675
G1 X137.31 Y68.861 E10.88303
G1 X139.784 Y69.942 E10.96834
G1 X140.219 Y70.138 E10.98341
G1 X140.562 Y70.3 E10.9954
G1 X141.003 Y70.518 E11.01094
G1 X141.314 Y70.678 E11.022
G1 X142.043 Y71.07 E11.04815
G1 X144.313 Y72.334 E11.13024
G1 X144.686 Y72.549 E11.14385
G1 X144.971 Y72.72 E11.15435
G1 X145.446 Y73.014 E11.172
G1 X145.763 Y73.218 E11.18391
G1 X146.391 Y73.64 E11.20782
G1 X148.59 Y75.161 E11.2923
G1 X148.864 Y75.357 E11.30295
G1 X149.144 Y75.564 E11.31395
G1 X149.747 Y76.026 E11.33795
G1 X150.03 Y76.25 E11.34935
G1 X150.396 Y76.553 E11.36437
G1 X152.497 Y78.328 E11.45127
G1 X153.032 Y78.793 E11.47367
G1 X153.518 Y79.243 E11.4946
G1 X154.075 Y79.795 E11.51938
G1 X156.14 Y81.913 E11.61284
G1 X156.562 Y82.358 E11.63222
G1 X156.974 Y82.819 E11.65176
G1 X157.546 Y83.501 E11.67988
G1 X159.348 Y85.748 E11.77089
G1 X159.791 Y86.316 E11.79365
G1 X160.178 Y86.84 E11.81423
G1 X160.393 Y87.151 E11.82618
G1 X160.604 Y87.468 E11.83821
G1 X162.258 Y89.996 E11.93367
G1 X162.608 Y90.548 E11.95432
G1 X162.84 Y90.931 E11.96847
G1 X162.976 Y91.167 E11.97708
G1 X163.31 Y91.779 E11.99911
G1 X164.679 Y94.392 E12.09231
G1 X164.998 Y95.022 E12.11463
G1 X165.255 Y95.568 E12.13369
G1 X165.56 Y96.275 E12.15802
G1 X166.691 Y99.058 E12.25294
G1 X166.935 Y99.68 E12.27405
G1 X167.162 Y100.318 E12.29545
G1 X167.43 Y101.162 E12.32343
G1 X168.248 Y103.911 E12.41406
G1 X168.434 Y104.57 E12.43569
G1 X168.575 Y105.125 E12.45379
G1 X168.727 Y105.818 E12.4762
G1 X169.306 Y108.782 E12.57163
G1 X169.414 Y109.379 E12.5908
G1 X169.512 Y110.039 E12.61188
G1 X169.676 Y111.468 E12.65733
G1 X169.923 Y114.09 E12.74054
G1 X169.965 Y114.612 E12.75709
G1 X169.997 Y115.265 E12.77775
G1 X170.02 Y116.599 E12.8199
G1 X170.018 Y118.977 E12.89504
G1 X170.011 Y119.471 E12.91065
G1 X169.981 Y120.13 E12.9315
G1 X169.873 Y121.515 E12.97539
G1 X169.635 Y123.974 E13.05345
G1 X169.568 Y124.574 E13.07253
G1 X169.475 Y125.22 E13.09315
G1 X169.231 Y126.61 E13.13774
G1 X168.757 Y129.022 E13.21541
G1 X168.648 Y129.543 E13.23223
G1 X168.488 Y130.204 E13.25372
G1 X168.107 Y131.567 E13.29844
G1 X167.408 Y133.904 E13.37551
G1 X167.241 Y134.438 E13.39319
G1 X167.018 Y135.078 E13.4146
G1 X166.525 Y136.354 E13.45783
G1 X165.579 Y138.673 E13.53696
G1 X165.37 Y139.165 E13.55385
G1 X165.097 Y139.758 E13.57448
G1 X164.469 Y141.01 E13.61874
G1 X163.334 Y143.169 E13.69581
G1 X163.048 Y143.694 E13.7147
G1 X162.723 Y144.25 E13.73505
G1 X161.966 Y145.454 E13.77999
G1 X160.611 Y147.52 E13.85805
G1 X160.304 Y147.973 E13.87534
G1 X159.927 Y148.493 E13.89564
G1 X159.091 Y149.576 E13.93887
G1 X157.512 Y151.538 E14.01844
G1 X157.159 Y151.964 E14.03592
G1 X156.731 Y152.45 E14.05639
G1 X155.816 Y153.423 E14.09859
G1 X154.034 Y155.245 E14.17912
G1 X153.651 Y155.625 E14.19616
G1 X153.186 Y156.059 E14.21626
G1 X152.135 Y156.981 E14.26044
G1 X150.206 Y158.604 E14.34009
G1 X149.793 Y158.941 E14.35694
G1 X149.292 Y159.325 E14.37688
G1 X148.181 Y160.124 E14.42012
G1 X146.103 Y161.556 E14.49986
G1 X145.679 Y161.84 E14.51598
G1 X145.107 Y162.197 E14.53729
G1 X143.887 Y162.904 E14.58184
G1 X141.746 Y164.092 E14.65921
G1 X141.246 Y164.361 E14.67715
G1 X140.643 Y164.661 E14.69843
G1 X139.425 Y165.217 E14.74074
G1 X137.119 Y166.22 E14.82019
G1 X136.616 Y166.431 E14.83743
G1 X135.976 Y166.675 E14.85907
G1 X134.699 Y167.114 E14.90174
G1 X132.312 Y167.886 E14.98101
G1 X131.784 Y168.049 E14.99847
G1 X131.148 Y168.224 E15.01931
G1 X129.853 Y168.535 E15.06139
G1 X127.392 Y169.077 E15.14101
G1 X126.888 Y169.182 E15.15728
G1 X126.19 Y169.303 E15.17966
G1 X124.82 Y169.493 E15.22337
G1 X122.336 Y169.791 E15.30242
G1 X121.636 Y169.865 E15.32466
G1 X121.037 Y169.911 E15.34364
G1 X120.296 Y169.944 E15.36708
G1 X117.311 Y170.013 E15.46142
G1 X116.76 Y170.018 E15.47883
G1 X116.1 Y170.003 E15.49969
G1 X114.702 Y169.926 E15.54393
G1 X112.244 Y169.744 E15.62181
G1 X111.653 Y169.692 E15.64055
G1 X110.999 Y169.614 E15.66137
G1 X109.672 Y169.412 E15.70378
G1 X107.198 Y168.987 E15.78309
G1 X106.676 Y168.89 E15.79987
G1 X106.026 Y168.747 E15.8209
G1 X104.648 Y168.398 E15.86582
G1 X102.302 Y167.757 E15.94266
G1 X101.764 Y167.603 E15.96034
G1 X101.103 Y167.39 E15.98228
G1 X99.832 Y166.932 E16.02497
G1 X97.475 Y166.035 E16.10466
G1 X96.989 Y165.842 E16.12118
G1 X96.385 Y165.58 E16.14198
G1 X95.111 Y164.977 E16.18652
G1 X92.908 Y163.884 E16.26422
G1 X92.404 Y163.625 E16.28213
G1 X91.831 Y163.308 E16.30282
G1 X90.64 Y162.597 E16.34665
G1 X88.56 Y161.3 E16.4241
G1 X88.066 Y160.983 E16.44265
G1 X87.515 Y160.605 E16.46376
G1 X86.437 Y159.81 E16.50608
G1 X84.481 Y158.311 E16.58395
G1 X84.018 Y157.946 E16.60258
G1 X83.507 Y157.517 E16.62366
G1 X82.455 Y156.571 E16.66836
G1 X80.648 Y154.884 E16.74647
G1 X80.25 Y154.501 E16.76393
G1 X79.806 Y154.047 E16.78399
G1 X78.882 Y153.042 E16.82713
G1 X77.195 Y151.132 E16.90765
G1 X76.857 Y150.737 E16.92407
G1 X76.458 Y150.241 E16.94419
G1 X75.618 Y149.127 E16.98827
G1 X74.164 Y147.121 E17.06655
G1 X73.833 Y146.65 E17.08474
G1 X73.47 Y146.097 E17.10565
G1 X72.781 Y144.969 E17.14741
G1 X71.499 Y142.782 E17.22751
G1 X71.24 Y142.327 E17.24405
G1 X70.919 Y141.719 E17.26578
G1 X70.317 Y140.476 E17.30942
G1 X69.29 Y138.253 E17.38679
G1 X69.046 Y137.705 E17.40574
G1 X68.798 Y137.099 E17.42643
G1 X68.329 Y135.836 E17.469
G1 X67.487 Y133.431 E17.54952
G1 X67.32 Y132.931 E17.56617
G1 X67.133 Y132.31 E17.58667
G1 X66.794 Y131.032 E17.62844
G1 X66.277 Y128.923 E17.69705
G1 X66.007 Y127.729 E17.73573
G1 X65.876 Y127.048 E17.75765
G1 X65.763 Y126.329 E17.78064
G1 X65.379 Y123.688 E17.86497
G1 X65.307 Y123.141 E17.8824
G1 X65.247 Y122.591 E17.89988
G1 X65.217 Y122.228 E17.91139
G1 X65.136 Y120.954 E17.95173
G1 X65.024 Y118.519 E18.02875
G1 X65.004 Y117.926 E18.0475
G1 X65.002 Y117.262 E18.06848
G1 X65.042 Y115.983 E18.10891
G1 X65.151 Y113.784 E18.17848
G1 X65.233 Y112.587 E18.21639
G1 X65.297 Y111.937 E18.23702
G1 X65.411 Y111.079 E18.26437
G1 X65.751 Y108.772 E18.33806
G1 X65.968 Y107.478 E18.37951
G1 X66.098 Y106.83 E18.4004
G1 X66.251 Y106.176 E18.42162
G1 X66.895 Y103.568 E18.5065
G1 X67.082 Y102.852 E18.52988
G1 X67.223 Y102.361 E18.54602
G1 X67.386 Y101.852 E18.56291
G1 X67.529 Y101.433 E18.5769
G1 X68.397 Y98.978 E18.65918
G1 X68.86 Y97.744 E18.70082
G1 X69.113 Y97.129 E18.72183
