;FLAVOR:Marlin
;TIME:7383
;Filament used: 8.42903m
;Layer height: 0.36
;MINX:55.215
;MINY:55.215
;MINZ:0.36
;MAXX:179.785
;MAXY:179.785
;MAXZ:11.16
;Generated with Cura_SteamEngine 4.6.1
M140 S50
M105
M190 S50
M104 S205
M105
M109 S205
M82 ;absolute extrusion mode
; Ender 3 Custom Start G-code
G92 E0 ; Reset Extruder
G28 ; Home all axes
G1 Z2.0 F3000 ; Move Z Axis up little to prevent scratching of Heat Bed
G1 X0.1 Y20 Z0.3 F5000.0 ; Move to start position
G1 X0.1 Y200.0 Z0.3 F1500.0 E15 ; Draw the first line
G1 X0.4 Y200.0 Z0.3 F5000.0 ; Move to side a little
G1 X0.4 Y20 Z0.3 F1500.0 E30 ; Draw the second line
G92 E0 ; Reset Extruder
G1 Z2.0 F3000 ; Move Z Axis up little to prevent scratching of Heat Bed
G1 X5 Y20 Z0.3 F5000.0 ; Move over to prevent blob squish
G92 E0
G92 E0
G1 F1500 E-6
;LAYER_COUNT:31
;LAYER:0
M107
M204 S500
M205 X20 Y20
G0 F7500 X121.845 Y56.181 Z0.36
;TYPE:SKIRT
G1 F1500 E0
G1 X122.535 Y56.221 E0.04138
G1 X123.116 Y56.271 E0.07629
G1 X124.046 Y56.38 E0.13235
G1 X127.197 Y56.796 E0.32263
G1 X127.865 Y56.894 E0.36305
G1 X128.426 Y56.993 E0.39716
G1 X129.33 Y57.179 E0.45241
G1 X132.47 Y57.877 E0.64499
G1 X133.087 Y58.023 E0.68294
G1 X133.652 Y58.174 E0.71796
G1 X134.58 Y58.452 E0.77595
G1 X137.61 Y59.409 E0.96619
G1 X138.213 Y59.609 E1.00422
G1 X138.758 Y59.807 E1.03894
G1 X139.672 Y60.17 E1.09781
G1 X142.59 Y61.379 E1.28691
G1 X143.2 Y61.643 E1.3267
G1 X143.716 Y61.883 E1.36077
G1 X144.547 Y62.301 E1.41646
G1 X147.355 Y63.763 E1.60599
G1 X147.961 Y64.09 E1.64722
G1 X148.464 Y64.381 E1.68201
G1 X149.304 Y64.9 E1.74112
G1 X151.947 Y66.585 E1.92878
G1 X152.486 Y66.939 E1.96738
G1 X152.97 Y67.278 E2.00276
G1 X153.737 Y67.849 E2.06001
G1 X156.253 Y69.78 E2.24988
G1 X156.759 Y70.179 E2.28846
G1 X157.228 Y70.572 E2.3251
G1 X157.919 Y71.189 E2.38056
G1 X160.25 Y73.325 E2.56984
G1 X160.735 Y73.782 E2.60973
G1 X161.15 Y74.196 E2.64483
G1 X161.823 Y74.91 E2.70357
G1 X163.956 Y77.24 E2.89269
G1 X164.398 Y77.738 E2.93255
G1 X164.757 Y78.167 E2.96604
G1 X165.359 Y78.926 E3.02404
G1 X167.286 Y81.44 E3.21368
G1 X167.681 Y81.971 E3.2533
G1 X168.014 Y82.446 E3.28803
G1 X168.528 Y83.228 E3.34405
G1 X170.217 Y85.882 E3.53239
G1 X170.592 Y86.491 E3.57521
G1 X170.875 Y86.979 E3.60898
G1 X171.308 Y87.782 E3.6636
G1 X172.777 Y90.605 E3.85412
G1 X173.095 Y91.24 E3.89663
G1 X173.333 Y91.749 E3.93027
G1 X173.706 Y92.614 E3.98667
G1 X174.913 Y95.53 E4.17561
G1 X175.158 Y96.145 E4.21524
G1 X175.361 Y96.702 E4.25074
G1 X175.672 Y97.642 E4.31001
G1 X176.62 Y100.652 E4.49894
G1 X176.803 Y101.262 E4.53707
G1 X176.956 Y101.831 E4.57234
G1 X177.17 Y102.736 E4.62802
G1 X177.854 Y105.825 E4.81743
G1 X177.991 Y106.482 E4.85761
G1 X178.098 Y107.086 E4.89433
G1 X178.234 Y108.019 E4.95078
G1 X178.643 Y111.14 E5.13923
G1 X178.722 Y111.813 E5.1798
G1 X178.774 Y112.405 E5.21537
G1 X178.828 Y113.34 E5.27144
G1 X178.965 Y116.485 E5.45991
G1 X178.985 Y117.174 E5.50118
G1 X178.985 Y117.757 E5.53608
G1 X178.956 Y118.733 E5.59454
G1 X178.819 Y121.845 E5.78103
G1 X178.779 Y122.535 E5.8224
G1 X178.729 Y123.116 E5.85732
G1 X178.62 Y124.046 E5.91338
G1 X178.204 Y127.197 E6.10366
G1 X178.106 Y127.865 E6.14408
G1 X178.007 Y128.426 E6.17818
G1 X177.821 Y129.33 E6.23344
G1 X177.123 Y132.47 E6.42601
G1 X176.977 Y133.087 E6.46397
G1 X176.826 Y133.652 E6.49898
G1 X176.548 Y134.58 E6.55698
G1 X175.591 Y137.61 E6.74721
G1 X175.391 Y138.213 E6.78525
G1 X175.193 Y138.758 E6.81996
G1 X174.83 Y139.672 E6.87884
G1 X173.621 Y142.59 E7.06794
G1 X173.357 Y143.2 E7.10773
G1 X173.117 Y143.716 E7.1418
G1 X172.698 Y144.548 E7.19757
G1 X171.246 Y147.337 E7.38582
G1 X170.918 Y147.947 E7.42728
G1 X170.618 Y148.467 E7.46322
G1 X170.1 Y149.304 E7.52215
G1 X168.415 Y151.947 E7.7098
G1 X168.061 Y152.486 E7.74841
G1 X167.722 Y152.97 E7.78379
G1 X167.151 Y153.737 E7.84103
G1 X165.22 Y156.253 E8.03091
G1 X164.821 Y156.759 E8.06949
G1 X164.428 Y157.228 E8.10612
G1 X163.811 Y157.919 E8.16158
G1 X161.675 Y160.25 E8.35087
G1 X161.218 Y160.735 E8.39076
G1 X160.804 Y161.15 E8.42585
G1 X160.09 Y161.823 E8.4846
G1 X157.76 Y163.956 E8.67371
G1 X157.262 Y164.398 E8.71358
G1 X156.833 Y164.757 E8.74707
G1 X156.074 Y165.359 E8.80507
G1 X153.56 Y167.286 E8.9947
G1 X153.029 Y167.681 E9.03432
G1 X152.554 Y168.014 E9.06905
G1 X151.772 Y168.528 E9.12508
G1 X149.118 Y170.217 E9.31341
G1 X148.509 Y170.592 E9.35623
G1 X148.024 Y170.873 E9.38979
G1 X147.199 Y171.319 E9.44594
G1 X144.395 Y172.777 E9.63514
G1 X143.76 Y173.095 E9.67766
G1 X143.251 Y173.333 E9.7113
G1 X142.386 Y173.706 E9.7677
G1 X139.47 Y174.913 E9.95664
G1 X138.855 Y175.158 E9.99627
G1 X138.298 Y175.361 E10.03176
G1 X137.358 Y175.672 E10.09104
G1 X134.344 Y176.621 E10.28021
G1 X133.733 Y176.804 E10.3184
G1 X133.171 Y176.955 E10.35324
G1 X132.264 Y177.17 E10.40904
G1 X129.175 Y177.854 E10.59846
G1 X128.518 Y177.991 E10.63864
G1 X127.914 Y178.098 E10.67536
G1 X126.981 Y178.234 E10.73181
G1 X123.857 Y178.644 E10.92044
G1 X123.182 Y178.723 E10.96113
G1 X122.595 Y178.774 E10.9964
G1 X121.66 Y178.828 E11.05247
G1 X118.515 Y178.965 E11.24094
G1 X117.825 Y178.985 E11.28226
G1 X117.242 Y178.985 E11.31716
G1 X116.267 Y178.956 E11.37556
G1 X113.155 Y178.819 E11.56205
G1 X112.465 Y178.779 E11.60343
G1 X111.884 Y178.729 E11.63834
G1 X110.954 Y178.62 E11.6944
G1 X107.803 Y178.204 E11.88468
G1 X107.135 Y178.106 E11.9251
G1 X106.574 Y178.007 E11.95921
G1 X105.67 Y177.821 E12.01446
G1 X102.53 Y177.123 E12.20704
G1 X101.913 Y176.977 E12.245
G1 X101.348 Y176.826 E12.28001
G1 X100.42 Y176.548 E12.33801
G1 X97.39 Y175.591 E12.52824
G1 X96.787 Y175.391 E12.56627
G1 X96.242 Y175.193 E12.60099
G1 X95.328 Y174.83 E12.65987
G1 X92.41 Y173.621 E12.84896
G1 X91.793 Y173.354 E12.88921
G1 X91.272 Y173.111 E12.92363
G1 X90.453 Y172.699 E12.97852
G1 X87.645 Y171.237 E13.16805
G1 X87.039 Y170.91 E13.20927
G1 X86.536 Y170.619 E13.24406
G1 X85.696 Y170.1 E13.30318
G1 X83.053 Y168.415 E13.49083
G1 X82.514 Y168.061 E13.52944
G1 X82.03 Y167.722 E13.56481
G1 X81.263 Y167.151 E13.62206
G1 X78.745 Y165.219 E13.81207
G1 X78.238 Y164.819 E13.85073
G1 X77.772 Y164.428 E13.88715
G1 X77.081 Y163.811 E13.94261
G1 X74.75 Y161.675 E14.13189
G1 X74.265 Y161.218 E14.17179
G1 X73.85 Y160.804 E14.20688
G1 X73.177 Y160.09 E14.26562
G1 X71.044 Y157.76 E14.45474
G1 X70.602 Y157.262 E14.4946
G1 X70.243 Y156.833 E14.52809
G1 X69.641 Y156.074 E14.58609
G1 X67.716 Y153.562 E14.77556
G1 X67.32 Y153.03 E14.81527
G1 X66.983 Y152.549 E14.85043
G1 X66.472 Y151.772 E14.9061
G1 X64.785 Y149.122 E15.09417
G1 X64.409 Y148.512 E15.13707
G1 X64.123 Y148.018 E15.17125
G1 X63.681 Y147.199 E15.22696
G1 X62.223 Y144.395 E15.41617
G1 X61.905 Y143.76 E15.45869
G1 X61.667 Y143.251 E15.49233
G1 X61.294 Y142.386 E15.54872
G1 X60.088 Y139.473 E15.73748
G1 X59.842 Y138.856 E15.77724
G1 X59.637 Y138.292 E15.81317
G1 X59.328 Y137.358 E15.87207
G1 X58.379 Y134.344 E16.06124
G1 X58.196 Y133.733 E16.09943
G1 X58.045 Y133.171 E16.13427
G1 X57.83 Y132.264 E16.19007
G1 X57.146 Y129.175 E16.37949
G1 X57.009 Y128.518 E16.41966
G1 X56.902 Y127.914 E16.45639
G1 X56.766 Y126.981 E16.51284
G1 X56.356 Y123.857 E16.70147
G1 X56.277 Y123.182 E16.74215
G1 X56.226 Y122.595 E16.77743
G1 X56.172 Y121.66 E16.8335
G1 X56.035 Y118.515 E17.02196
G1 X56.015 Y117.826 E17.06323
G1 X56.015 Y117.243 E17.09813
G1 X56.044 Y116.267 E17.15659
G1 X56.181 Y113.155 E17.34308
G1 X56.221 Y112.465 E17.38446
G1 X56.271 Y111.884 E17.41937
G1 X56.38 Y110.954 E17.47543
G1 X56.796 Y107.803 E17.66571
G1 X56.894 Y107.135 E17.70613
G1 X56.993 Y106.574 E17.74024
G1 X57.179 Y105.67 E17.79549
G1 X57.877 Y102.53 E17.98807
G1 X58.023 Y101.913 E18.02603
G1 X58.174 Y101.348 E18.06104
G1 X58.452 Y100.42 E18.11904
G1 X59.409 Y97.39 E18.30927
G1 X59.609 Y96.787 E18.3473
G1 X59.807 Y96.242 E18.38202
G1 X60.17 Y95.328 E18.4409
G1 X61.379 Y92.41 E18.62999
G1 X61.643 Y91.8 E18.66978
G1 X61.883 Y91.284 E18.70385
G1 X62.301 Y90.453 E18.75954
G1 X63.761 Y87.651 E18.9487
G1 X64.087 Y87.046 E18.98985
G1 X64.382 Y86.533 E19.02527
G1 X64.9 Y85.696 E19.0842
G1 X66.585 Y83.053 E19.27186
G1 X66.939 Y82.514 E19.31046
G1 X67.278 Y82.03 E19.34584
G1 X67.849 Y81.263 E19.40309
G1 X69.78 Y78.747 E19.59296
G1 X70.179 Y78.241 E19.63154
G1 X70.572 Y77.772 E19.66818
G1 X71.189 Y77.081 E19.72364
G1 X73.325 Y74.75 E19.91292
G1 X73.782 Y74.265 E19.95281
G1 X74.196 Y73.85 E19.98791
G1 X74.91 Y73.177 E20.04665
G1 X77.24 Y71.044 E20.23577
G1 X77.738 Y70.602 E20.27563
G1 X78.167 Y70.243 E20.30912
G1 X78.926 Y69.641 E20.36712
G1 X81.44 Y67.714 E20.55676
G1 X81.971 Y67.319 E20.59638
G1 X82.446 Y66.986 E20.63111
G1 X83.228 Y66.472 E20.68713
G1 X85.882 Y64.783 E20.87547
G1 X86.491 Y64.408 E20.91829
G1 X86.976 Y64.127 E20.95184
G1 X87.801 Y63.681 E21.00799
G1 X90.605 Y62.223 E21.1972
G1 X91.24 Y61.905 E21.23972
G1 X91.749 Y61.667 E21.27335
G1 X92.614 Y61.294 E21.32975
G1 X95.53 Y60.087 E21.51869
G1 X96.145 Y59.842 E21.55832
G1 X96.702 Y59.639 E21.59382
G1 X97.642 Y59.328 E21.65309
G1 X100.656 Y58.379 E21.84227
G1 X101.267 Y58.196 E21.88045
G1 X101.829 Y58.045 E21.91529
G1 X102.736 Y57.83 E21.9711
G1 X105.825 Y57.146 E22.16051
G1 X106.482 Y57.009 E22.20069
G1 X107.086 Y56.902 E22.23741
G1 X108.019 Y56.766 E22.29386
G1 X111.143 Y56.356 E22.48249
G1 X111.818 Y56.277 E22.52318
G1 X112.405 Y56.226 E22.55845
G1 X113.34 Y56.172 E22.61452
G1 X116.485 Y56.035 E22.80299
G1 X117.175 Y56.015 E22.84432
G1 X117.758 Y56.015 E22.87922
G1 X118.574 Y56.038 E22.92809
G1 X121.404 Y56.162 E23.09768
G0 F1350 X121.845 Y56.181
G0 F7500 X121.719 Y55.774
G1 F1500 X122.558 Y55.822 E23.14799
G1 X123.162 Y55.874 E23.18429
G1 X124.098 Y55.984 E23.24071
G1 X127.255 Y56.4 E23.43135
G1 X127.923 Y56.498 E23.47177
G1 X128.506 Y56.601 E23.50721
G1 X129.416 Y56.788 E23.56283
G1 X132.562 Y57.488 E23.75578
G1 X133.179 Y57.634 E23.79374
G1 X133.766 Y57.791 E23.83012
G1 X134.701 Y58.071 E23.88855
G1 X137.736 Y59.029 E24.07909
G1 X138.339 Y59.229 E24.11712
G1 X138.906 Y59.435 E24.15324
G1 X139.825 Y59.8 E24.21244
G1 X142.749 Y61.012 E24.40193
G1 X143.359 Y61.276 E24.44173
G1 X143.895 Y61.526 E24.47713
G1 X144.731 Y61.946 E24.53315
G1 X147.545 Y63.411 E24.72308
G1 X148.151 Y63.738 E24.7643
G1 X148.674 Y64.04 E24.80046
G1 X149.519 Y64.562 E24.85992
G1 X152.167 Y66.251 E25.04796
G1 X152.706 Y66.605 E25.08656
G1 X153.209 Y66.956 E25.12328
G1 X153.98 Y67.531 E25.18087
G1 X156.5 Y69.465 E25.37104
G1 X157.006 Y69.864 E25.40962
G1 X157.494 Y70.273 E25.44774
G1 X158.189 Y70.894 E25.50354
G1 X160.524 Y73.034 E25.69316
G1 X161.009 Y73.491 E25.73306
G1 X161.44 Y73.921 E25.76951
G1 X162.118 Y74.64 E25.82867
G1 X164.255 Y76.975 E26.01817
G1 X164.697 Y77.473 E26.05803
G1 X165.071 Y77.918 E26.09283
G1 X165.676 Y78.683 E26.15123
G1 X167.607 Y81.201 E26.3412
G1 X168.002 Y81.732 E26.38082
G1 X168.348 Y82.226 E26.41693
G1 X168.865 Y83.013 E26.4733
G1 X170.558 Y85.672 E26.66202
G1 X170.933 Y86.281 E26.70484
G1 X171.226 Y86.788 E26.73989
G1 X171.663 Y87.597 E26.79494
G1 X173.135 Y90.426 E26.98586
G1 X173.453 Y91.061 E27.02838
G1 X173.7 Y91.59 E27.06333
G1 X174.076 Y92.461 E27.12013
G1 X175.284 Y95.382 E27.30937
G1 X175.529 Y95.997 E27.349
G1 X175.741 Y96.576 E27.38592
G1 X176.054 Y97.522 E27.44557
G1 X177.003 Y100.537 E27.63481
G1 X177.186 Y101.147 E27.67293
G1 X177.345 Y101.738 E27.70957
G1 X177.56 Y102.65 E27.76567
G1 X178.246 Y105.743 E27.95534
G1 X178.383 Y106.4 E27.99552
G1 X178.494 Y107.028 E28.0337
G1 X178.63 Y107.967 E28.0905
G1 X179.041 Y111.093 E28.27926
G1 X179.12 Y111.766 E28.31983
G1 X179.174 Y112.381 E28.35679
G1 X179.228 Y113.323 E28.41328
G1 X179.365 Y116.473 E28.60204
G1 X179.385 Y117.162 E28.64331
G1 X179.385 Y117.768 E28.67959
G1 X179.356 Y118.751 E28.73847
G1 X179.218 Y121.868 E28.92526
G1 X179.178 Y122.558 E28.96664
G1 X179.126 Y123.162 E29.00293
G1 X179.016 Y124.098 E29.05935
G1 X178.6 Y127.255 E29.24999
G1 X178.502 Y127.923 E29.29041
G1 X178.399 Y128.506 E29.32585
G1 X178.212 Y129.416 E29.38147
G1 X177.512 Y132.562 E29.57442
G1 X177.366 Y133.179 E29.61238
G1 X177.209 Y133.766 E29.64876
G1 X176.929 Y134.701 E29.70719
G1 X175.971 Y137.736 E29.89773
G1 X175.771 Y138.339 E29.93577
G1 X175.565 Y138.906 E29.97188
G1 X175.2 Y139.825 E30.03108
G1 X173.988 Y142.749 E30.22058
G1 X173.724 Y143.359 E30.26037
G1 X173.474 Y143.895 E30.29578
G1 X173.053 Y144.733 E30.35193
G1 X171.598 Y147.526 E30.54047
G1 X171.27 Y148.136 E30.58193
G1 X170.959 Y148.676 E30.61924
G1 X170.438 Y149.519 E30.67857
G1 X168.749 Y152.167 E30.8666
G1 X168.395 Y152.706 E30.90521
G1 X168.044 Y153.209 E30.94193
G1 X167.469 Y153.98 E30.99951
G1 X165.535 Y156.5 E31.18969
G1 X165.136 Y157.006 E31.22827
G1 X164.727 Y157.494 E31.26639
G1 X164.106 Y158.189 E31.32218
G1 X161.966 Y160.524 E31.5118
G1 X161.509 Y161.009 E31.5517
G1 X161.079 Y161.44 E31.58815
G1 X160.36 Y162.118 E31.64731
G1 X158.025 Y164.255 E31.83681
G1 X157.527 Y164.697 E31.87668
G1 X157.082 Y165.071 E31.91148
G1 X156.317 Y165.676 E31.96987
G1 X153.799 Y167.607 E32.15984
G1 X153.268 Y168.002 E32.19946
G1 X152.774 Y168.348 E32.23557
G1 X151.987 Y168.865 E32.29194
G1 X149.328 Y170.558 E32.48066
G1 X148.719 Y170.933 E32.52348
G1 X148.215 Y171.225 E32.55835
G1 X147.383 Y171.674 E32.61495
G1 X144.574 Y173.135 E32.80451
G1 X143.939 Y173.453 E32.84703
G1 X143.41 Y173.7 E32.88198
G1 X142.539 Y174.076 E32.93878
G1 X139.618 Y175.284 E33.12802
G1 X139.003 Y175.529 E33.16765
G1 X138.424 Y175.741 E33.20456
G1 X137.478 Y176.054 E33.26422
G1 X134.458 Y177.004 E33.45375
G1 X133.847 Y177.187 E33.49194
G1 X133.264 Y177.344 E33.52809
G1 X132.35 Y177.56 E33.58431
G1 X129.257 Y178.246 E33.77398
G1 X128.6 Y178.383 E33.81416
G1 X127.972 Y178.494 E33.85234
G1 X127.033 Y178.63 E33.90915
G1 X123.903 Y179.041 E34.09814
G1 X123.228 Y179.12 E34.13883
G1 X122.618 Y179.174 E34.17549
G1 X121.677 Y179.228 E34.23192
G1 X118.526 Y179.365 E34.42074
G1 X117.836 Y179.385 E34.46207
G1 X117.23 Y179.385 E34.49835
G1 X116.249 Y179.356 E34.55711
G1 X113.132 Y179.218 E34.7439
G1 X112.442 Y179.178 E34.78528
G1 X111.838 Y179.126 E34.82157
G1 X110.902 Y179.016 E34.87799
G1 X107.745 Y178.6 E35.06863
G1 X107.077 Y178.502 E35.10905
G1 X106.494 Y178.399 E35.1445
G1 X105.584 Y178.212 E35.20011
G1 X102.438 Y177.512 E35.39307
G1 X101.821 Y177.366 E35.43102
G1 X101.234 Y177.209 E35.4674
G1 X100.299 Y176.929 E35.52584
G1 X97.264 Y175.971 E35.71637
G1 X96.661 Y175.771 E35.75441
G1 X96.094 Y175.565 E35.79052
G1 X95.175 Y175.2 E35.84972
G1 X92.251 Y173.988 E36.03922
G1 X91.634 Y173.721 E36.07947
G1 X91.092 Y173.468 E36.11528
G1 X90.269 Y173.054 E36.17043
G1 X87.455 Y171.589 E36.36037
G1 X86.849 Y171.262 E36.40159
G1 X86.326 Y170.96 E36.43775
G1 X85.481 Y170.438 E36.49721
G1 X82.833 Y168.749 E36.68524
G1 X82.294 Y168.395 E36.72385
G1 X81.791 Y168.044 E36.76057
G1 X81.02 Y167.469 E36.81815
G1 X78.497 Y165.533 E37.00855
G1 X77.99 Y165.133 E37.04721
G1 X77.506 Y164.727 E37.08503
G1 X76.811 Y164.106 E37.14083
G1 X74.476 Y161.966 E37.33045
G1 X73.991 Y161.509 E37.37034
G1 X73.56 Y161.079 E37.40679
G1 X72.882 Y160.36 E37.46596
G1 X70.745 Y158.025 E37.65546
G1 X70.303 Y157.527 E37.69532
G1 X69.929 Y157.082 E37.73012
G1 X69.324 Y156.317 E37.78851
G1 X67.395 Y153.801 E37.97832
G1 X66.999 Y153.269 E38.01802
G1 X66.649 Y152.769 E38.05456
G1 X66.135 Y151.987 E38.11059
G1 X64.444 Y149.332 E38.29904
G1 X64.068 Y148.722 E38.34194
G1 X63.772 Y148.209 E38.3774
G1 X63.326 Y147.383 E38.4336
G1 X61.865 Y144.574 E38.62315
G1 X61.547 Y143.939 E38.66567
G1 X61.3 Y143.41 E38.70062
G1 X60.924 Y142.539 E38.75742
G1 X59.717 Y139.621 E38.94647
G1 X59.471 Y139.004 E38.98624
G1 X59.257 Y138.418 E39.02359
G1 X58.946 Y137.478 E39.08286
G1 X57.996 Y134.458 E39.2724
G1 X57.813 Y133.847 E39.31058
G1 X57.656 Y133.264 E39.34673
G1 X57.44 Y132.35 E39.40296
G1 X56.754 Y129.257 E39.59263
G1 X56.617 Y128.6 E39.63281
G1 X56.506 Y127.972 E39.67099
G1 X56.37 Y127.033 E39.72779
G1 X55.959 Y123.903 E39.91679
G1 X55.88 Y123.228 E39.95747
G1 X55.826 Y122.618 E39.99414
G1 X55.772 Y121.677 E40.05057
G1 X55.635 Y118.527 E40.23933
G1 X55.615 Y117.838 E40.2806
G1 X55.615 Y117.232 E40.31688
G1 X55.644 Y116.249 E40.37575
G1 X55.782 Y113.132 E40.56254
G1 X55.822 Y112.442 E40.60392
G1 X55.874 Y111.838 E40.64022
